; generated by Slic3r 1.3.0 on 2023-07-28 at 17:03:11

; external perimeters extrusion width = 0.44mm (3.19mm^3/s)
; perimeters extrusion width = 0.51mm (7.54mm^3/s)
; infill extrusion width = 0.50mm (9.85mm^3/s)
; solid infill extrusion width = 0.51mm (2.51mm^3/s)
; top infill extrusion width = 0.51mm (1.88mm^3/s)

M107
M190 S63 ; set bed temperature and wait for it to be reached
M104 S203 ; set temperature
G28 ; home all axes
G1 Z5 F5000 ; lift nozzle

; Filament gcode

M109 S203 ; set temperature and wait for it to be reached
G21 ; set units to millimeters
G90 ; use absolute coordinates
M82 ; use absolute distances for extrusion
G92 E0
G1 Z0.280 F6000.000
G1 E-2.00000 F2400.00000
G92 E0
G1 X133.327 Y143.250 F6000.000
G1 E2.00000 F2400.00000
G1 F1800
G1 X134.261 Y142.441 E2.03564
G1 X134.725 Y142.111 E2.05210
G1 X135.819 Y141.482 E2.08850
G1 X136.314 Y141.256 E2.10420
G1 X137.481 Y140.852 E2.13983
G1 X138.035 Y140.718 E2.15629
G1 X139.257 Y140.542 E2.19193
G1 X140.136 Y140.508 E2.21731
G1 X160.136 Y140.508 E2.79450
G1 X161.060 Y140.574 E2.82125
G1 X161.625 Y140.655 E2.83771
G1 X162.825 Y140.946 E2.87335
G1 X163.364 Y141.133 E2.88981
G1 X164.487 Y141.646 E2.92545
G1 X164.981 Y141.931 E2.94191
G1 X165.987 Y142.647 E2.97755
G1 X166.418 Y143.021 E2.99401
G1 X167.270 Y143.914 E3.02965
G1 X167.623 Y144.363 E3.04611
G1 X168.291 Y145.402 E3.08175
G1 X168.552 Y145.908 E3.09821
G1 X169.011 Y147.055 E3.13385
G1 X169.172 Y147.602 E3.15031
G1 X169.405 Y148.815 E3.18595
G1 X169.460 Y149.383 E3.20241
G1 X169.460 Y150.617 E3.23805
G1 X169.405 Y151.185 E3.25450
G1 X169.172 Y152.398 E3.29014
G1 X169.011 Y152.945 E3.30660
G1 X168.552 Y154.092 E3.34224
G1 X168.291 Y154.599 E3.35871
G1 X167.623 Y155.637 E3.39434
G1 X167.270 Y156.086 E3.41080
G1 X166.418 Y156.979 E3.44644
G1 X165.987 Y157.353 E3.46290
G1 X164.981 Y158.069 E3.49854
G1 X164.487 Y158.354 E3.51500
G1 X163.364 Y158.867 E3.55064
G1 X162.825 Y159.054 E3.56710
G1 X161.625 Y159.345 E3.60274
G1 X161.060 Y159.426 E3.61920
G1 X160.136 Y159.492 E3.64595
G1 X140.136 Y159.492 E4.22314
G1 X139.257 Y159.458 E4.24852
G1 X138.035 Y159.282 E4.28416
G1 X137.481 Y159.148 E4.30062
G1 X136.314 Y158.744 E4.33626
G1 X135.795 Y158.507 E4.35272
G1 X134.725 Y157.889 E4.38836
G1 X134.261 Y157.559 E4.40481
G1 X133.327 Y156.750 E4.44045
G1 X132.934 Y156.337 E4.45691
G1 X132.170 Y155.366 E4.49255
G1 X131.862 Y154.887 E4.50902
G1 X131.296 Y153.789 E4.54465
G1 X131.094 Y153.284 E4.56034
G1 X130.736 Y152.075 E4.59675
G1 X130.628 Y151.514 E4.61322
G1 X130.511 Y150.285 E4.64885
G1 X130.511 Y149.715 E4.66531
G1 X130.628 Y148.486 E4.70095
G1 X130.736 Y147.925 E4.71741
G1 X131.084 Y146.741 E4.75305
G1 X131.296 Y146.211 E4.76951
G1 X131.862 Y145.113 E4.80514
G1 X132.170 Y144.634 E4.82161
G1 X132.934 Y143.663 E4.85724
G1 X133.286 Y143.294 E4.87197
G1 X133.507 Y143.421 F6000.000
G1 F1800
G1 X134.404 Y142.643 E4.90625
G1 X134.869 Y142.313 E4.92271
G1 X135.922 Y141.708 E4.95775
G1 X136.417 Y141.482 E4.97345
G1 X137.539 Y141.093 E5.00773
G1 X138.093 Y140.959 E5.02419
G1 X139.269 Y140.790 E5.05847
G1 X140.136 Y140.755 E5.08351
G1 X160.136 Y140.755 E5.66070
G1 X161.025 Y140.819 E5.68642
G1 X161.590 Y140.900 E5.70288
G1 X162.744 Y141.180 E5.73716
G1 X163.283 Y141.367 E5.75362
G1 X164.363 Y141.860 E5.78790
G1 X164.857 Y142.145 E5.80436
G1 X165.825 Y142.834 E5.83864
G1 X166.256 Y143.208 E5.85510
G1 X167.076 Y144.068 E5.88938
G1 X167.428 Y144.516 E5.90584
G1 X168.070 Y145.515 E5.94012
G1 X168.332 Y146.022 E5.95658
G1 X168.773 Y147.125 E5.99086
G1 X168.934 Y147.672 E6.00732
G1 X169.159 Y148.838 E6.04160
G1 X169.213 Y149.406 E6.05805
G1 X169.213 Y150.594 E6.09233
G1 X169.159 Y151.162 E6.10879
G1 X168.934 Y152.328 E6.14307
G1 X168.773 Y152.875 E6.15953
G1 X168.332 Y153.978 E6.19381
G1 X168.070 Y154.485 E6.21027
G1 X167.428 Y155.484 E6.24455
G1 X167.076 Y155.932 E6.26101
G1 X166.256 Y156.792 E6.29528
G1 X165.825 Y157.166 E6.31175
G1 X164.857 Y157.855 E6.34603
G1 X164.363 Y158.140 E6.36249
G1 X163.283 Y158.633 E6.39677
G1 X162.744 Y158.820 E6.41323
G1 X161.590 Y159.100 E6.44751
G1 X161.025 Y159.181 E6.46397
G1 X160.136 Y159.245 E6.48969
G1 X140.136 Y159.245 E7.06688
G1 X139.269 Y159.210 E7.09192
G1 X138.093 Y159.041 E7.12620
G1 X137.539 Y158.907 E7.14266
G1 X136.417 Y158.518 E7.17694
G1 X135.898 Y158.281 E7.19340
G1 X134.869 Y157.687 E7.22768
G1 X134.404 Y157.357 E7.24414
G1 X133.507 Y156.579 E7.27842
G1 X133.113 Y156.166 E7.29488
G1 X132.379 Y155.232 E7.32916
G1 X132.071 Y154.752 E7.34562
G1 X131.526 Y153.697 E7.37990
G1 X131.324 Y153.192 E7.39559
G1 X130.980 Y152.028 E7.43063
G1 X130.872 Y151.467 E7.44711
G1 X130.759 Y150.285 E7.48137
G1 X130.759 Y149.715 E7.49783
G1 X130.872 Y148.532 E7.53211
G1 X130.980 Y147.972 E7.54857
G1 X131.314 Y146.833 E7.58285
G1 X131.526 Y146.303 E7.59931
G1 X132.071 Y145.247 E7.63359
G1 X132.379 Y144.768 E7.65005
G1 X133.113 Y143.834 E7.68433
G1 X133.465 Y143.465 E7.69906
G1 E5.69906 F2400.00000
G92 E0
G1 X141.189 Y151.141 F6000.000
G1 E2.00000 F2400.00000
G1 F1800
G1 X140.952 Y151.346 E2.00907
G1 X140.680 Y151.503 E2.01814
G1 X140.383 Y151.606 E2.02720
G1 X140.072 Y151.651 E2.03627
G1 X139.758 Y151.636 E2.04534
G1 X139.453 Y151.562 E2.05441
G1 X139.167 Y151.431 E2.06348
G1 X138.911 Y151.249 E2.07254
G1 X138.694 Y151.022 E2.08161
G1 X138.524 Y150.757 E2.09068
G1 X138.407 Y150.466 E2.09975
G1 X138.348 Y150.157 E2.10882
G1 X138.348 Y149.843 E2.11788
G1 X138.407 Y149.534 E2.12695
G1 X138.524 Y149.243 E2.13602
G1 X138.694 Y148.978 E2.14509
G1 X138.911 Y148.751 E2.15416
G1 X139.167 Y148.569 E2.16322
G1 X139.453 Y148.438 E2.17229
G1 X139.758 Y148.364 E2.18136
G1 X140.060 Y148.350 E2.19009
G1 X140.380 Y148.393 E2.19941
G1 X140.680 Y148.497 E2.20856
G1 X140.952 Y148.654 E2.21763
G1 X141.189 Y148.859 E2.22670
G1 X141.384 Y149.106 E2.23576
G1 X141.528 Y149.386 E2.24483
G1 X141.616 Y149.687 E2.25390
G1 X141.646 Y150.000 E2.26297
G1 X141.616 Y150.313 E2.27204
G1 X141.528 Y150.614 E2.28110
G1 X141.384 Y150.894 E2.29017
G1 X141.226 Y151.093 E2.29751
G1 X141.009 Y150.969 F6000.000
G1 F1800
G1 X140.807 Y151.143 E2.30521
G1 X140.576 Y151.277 E2.31291
G1 X140.324 Y151.364 E2.32061
G1 X140.060 Y151.402 E2.32832
G1 X139.793 Y151.389 E2.33602
G1 X139.534 Y151.327 E2.34372
G1 X139.291 Y151.216 E2.35142
G1 X139.074 Y151.061 E2.35912
G1 X138.890 Y150.868 E2.36682
G1 X138.746 Y150.643 E2.37453
G1 X138.646 Y150.395 E2.38223
G1 X138.596 Y150.133 E2.38993
G1 X138.596 Y149.867 E2.39763
G1 X138.646 Y149.605 E2.40533
G1 X138.746 Y149.357 E2.41303
G1 X138.890 Y149.132 E2.42074
G1 X139.074 Y148.939 E2.42844
G1 X139.291 Y148.784 E2.43614
G1 X139.534 Y148.673 E2.44384
G1 X139.793 Y148.611 E2.45154
G1 X140.049 Y148.598 E2.45894
G1 X140.323 Y148.635 E2.46689
G1 X140.576 Y148.723 E2.47464
G1 X140.807 Y148.857 E2.48234
G1 X141.009 Y149.031 E2.49005
G1 X141.174 Y149.241 E2.49775
G1 X141.296 Y149.478 E2.50545
G1 X141.372 Y149.734 E2.51315
G1 X141.397 Y150.000 E2.52085
G1 X141.372 Y150.266 E2.52855
G1 X141.296 Y150.522 E2.53626
G1 X141.174 Y150.759 E2.54396
G1 X141.046 Y150.922 E2.54993
G1 X140.829 Y150.797 F6000.000
G1 F1800
G1 X140.663 Y150.941 E2.55626
G1 X140.473 Y151.050 E2.56260
G1 X140.265 Y151.122 E2.56893
G1 X140.048 Y151.153 E2.57527
G1 X139.829 Y151.143 E2.58160
G1 X139.616 Y151.091 E2.58794
G1 X139.416 Y151.000 E2.59427
G1 X139.237 Y150.873 E2.60061
G1 X139.086 Y150.714 E2.60695
G1 X138.967 Y150.529 E2.61328
G1 X138.885 Y150.325 E2.61962
G1 X138.844 Y150.110 E2.62595
G1 X138.844 Y149.890 E2.63229
G1 X138.885 Y149.675 E2.63862
G1 X138.967 Y149.471 E2.64496
G1 X139.086 Y149.286 E2.65129
G1 X139.237 Y149.127 E2.65763
G1 X139.416 Y149.000 E2.66396
G1 X139.616 Y148.909 E2.67030
G1 X139.829 Y148.857 E2.67663
G1 X140.039 Y148.847 E2.68269
G1 X140.265 Y148.878 E2.68928
G1 X140.473 Y148.950 E2.69563
G1 X140.663 Y149.059 E2.70197
G1 X140.829 Y149.203 E2.70831
G1 X140.965 Y149.376 E2.71464
G1 X141.065 Y149.571 E2.72098
G1 X141.127 Y149.781 E2.72731
G1 X141.148 Y150.000 E2.73365
G1 X141.127 Y150.219 E2.73998
G1 X141.065 Y150.429 E2.74632
G1 X140.965 Y150.624 E2.75265
G1 X140.866 Y150.750 E2.75726
G1 X140.829 Y150.797 F6000.000
G1 E0.75726 F2400.00000
G92 E0
G1 X158.348 Y150.157 F6000.000
G1 E2.00000 F2400.00000
G1 F1800
G1 X158.348 Y149.843 E2.00907
G1 X158.407 Y149.534 E2.01814
G1 X158.524 Y149.243 E2.02720
G1 X158.694 Y148.978 E2.03627
G1 X158.911 Y148.751 E2.04534
G1 X159.167 Y148.569 E2.05441
G1 X159.453 Y148.438 E2.06348
G1 X159.758 Y148.364 E2.07254
G1 X160.060 Y148.350 E2.08128
G1 X160.380 Y148.393 E2.09060
G1 X160.680 Y148.497 E2.09974
G1 X160.952 Y148.654 E2.10881
G1 X161.189 Y148.859 E2.11788
G1 X161.384 Y149.106 E2.12695
G1 X161.528 Y149.386 E2.13602
G1 X161.616 Y149.687 E2.14508
G1 X161.646 Y150.000 E2.15415
G1 X161.616 Y150.313 E2.16322
G1 X161.528 Y150.614 E2.17229
G1 X161.384 Y150.894 E2.18136
G1 X161.189 Y151.141 E2.19042
G1 X160.952 Y151.346 E2.19949
G1 X160.680 Y151.503 E2.20856
G1 X160.383 Y151.606 E2.21763
G1 X160.072 Y151.651 E2.22670
G1 X159.758 Y151.636 E2.23576
G1 X159.453 Y151.562 E2.24483
G1 X159.167 Y151.431 E2.25390
G1 X158.911 Y151.249 E2.26297
G1 X158.694 Y151.022 E2.27204
G1 X158.524 Y150.757 E2.28110
G1 X158.407 Y150.466 E2.29017
G1 X158.359 Y150.216 E2.29751
G1 X158.596 Y150.133 F6000.000
G1 F1800
G1 X158.596 Y149.867 E2.30521
G1 X158.646 Y149.605 E2.31291
G1 X158.746 Y149.357 E2.32061
G1 X158.890 Y149.132 E2.32832
G1 X159.074 Y148.939 E2.33602
G1 X159.291 Y148.784 E2.34372
G1 X159.534 Y148.673 E2.35142
G1 X159.793 Y148.611 E2.35912
G1 X160.049 Y148.598 E2.36652
G1 X160.323 Y148.635 E2.37447
G1 X160.576 Y148.723 E2.38222
G1 X160.807 Y148.857 E2.38992
G1 X161.009 Y149.031 E2.39763
G1 X161.174 Y149.241 E2.40533
G1 X161.296 Y149.478 E2.41303
G1 X161.372 Y149.734 E2.42073
G1 X161.397 Y150.000 E2.42843
G1 X161.372 Y150.266 E2.43613
G1 X161.296 Y150.522 E2.44384
G1 X161.174 Y150.759 E2.45154
G1 X161.009 Y150.969 E2.45924
G1 X160.807 Y151.143 E2.46694
G1 X160.576 Y151.277 E2.47464
G1 X160.324 Y151.364 E2.48234
G1 X160.060 Y151.402 E2.49005
G1 X159.793 Y151.389 E2.49775
G1 X159.534 Y151.327 E2.50545
G1 X159.291 Y151.216 E2.51315
G1 X159.074 Y151.061 E2.52085
G1 X158.890 Y150.868 E2.52855
G1 X158.746 Y150.643 E2.53626
G1 X158.646 Y150.395 E2.54396
G1 X158.607 Y150.192 E2.54993
G1 X158.844 Y150.110 F6000.000
G1 F1800
G1 X158.844 Y149.890 E2.55626
G1 X158.885 Y149.675 E2.56260
G1 X158.967 Y149.471 E2.56893
G1 X159.086 Y149.286 E2.57527
G1 X159.237 Y149.127 E2.58160
G1 X159.416 Y149.000 E2.58794
G1 X159.616 Y148.909 E2.59427
G1 X159.829 Y148.857 E2.60061
G1 X160.039 Y148.847 E2.60667
G1 X160.265 Y148.878 E2.61326
G1 X160.473 Y148.950 E2.61961
G1 X160.663 Y149.059 E2.62595
G1 X160.829 Y149.203 E2.63228
G1 X160.965 Y149.376 E2.63862
G1 X161.065 Y149.571 E2.64495
G1 X161.127 Y149.781 E2.65129
G1 X161.148 Y150.000 E2.65762
G1 X161.127 Y150.219 E2.66396
G1 X161.065 Y150.429 E2.67029
G1 X160.965 Y150.624 E2.67663
G1 X160.829 Y150.797 E2.68296
G1 X160.663 Y150.941 E2.68930
G1 X160.473 Y151.050 E2.69564
G1 X160.265 Y151.122 E2.70197
G1 X160.048 Y151.153 E2.70831
G1 X159.829 Y151.143 E2.71464
G1 X159.616 Y151.091 E2.72098
G1 X159.416 Y151.000 E2.72731
G1 X159.237 Y150.873 E2.73365
G1 X159.086 Y150.714 E2.73998
G1 X158.967 Y150.529 E2.74632
G1 X158.885 Y150.325 E2.75265
G1 X158.855 Y150.169 E2.75726
G1 X158.844 Y150.110 F6000.000
G1 E0.75726 F2400.00000
G92 E0
G1 X158.844 Y152.347 F6000.000
G1 E2.00000 F2400.00000
G1 F1800
G1 X140.151 Y152.347 E2.53945
G1 X139.659 Y152.323 E2.55367
G1 X139.226 Y152.218 E2.56655
G1 X138.820 Y152.033 E2.57943
G1 X138.456 Y151.774 E2.59231
G1 X138.148 Y151.451 E2.60519
G1 X137.907 Y151.076 E2.61806
G1 X137.750 Y150.683 E2.63025
G1 X137.657 Y150.220 E2.64389
G1 X137.657 Y149.777 E2.65668
G1 X137.741 Y149.339 E2.66956
G1 X137.907 Y148.924 E2.68244
G1 X138.148 Y148.549 E2.69532
G1 X138.456 Y148.226 E2.70820
G1 X138.820 Y147.967 E2.72108
G1 X139.226 Y147.782 E2.73395
G1 X139.659 Y147.677 E2.74683
G1 X140.151 Y147.653 E2.76105
G1 X160.116 Y147.657 E3.33721
G1 X160.547 Y147.719 E3.34978
G1 X160.968 Y147.865 E3.36265
G1 X161.355 Y148.088 E3.37553
G1 X161.692 Y148.380 E3.38841
G1 X161.968 Y148.731 E3.40129
G1 X162.172 Y149.128 E3.41417
G1 X162.298 Y149.556 E3.42705
G1 X162.340 Y150.000 E3.43992
G1 X162.298 Y150.444 E3.45280
G1 X162.172 Y150.872 E3.46568
G1 X161.968 Y151.269 E3.47856
G1 X161.692 Y151.620 E3.49144
G1 X161.355 Y151.912 E3.50431
G1 X160.968 Y152.135 E3.51719
G1 X160.547 Y152.281 E3.53007
G1 X160.089 Y152.347 E3.54340
G1 X158.904 Y152.347 E3.57762
G1 X158.844 Y152.595 F6000.000
G1 F1800
G1 X140.146 Y152.595 E4.11724
G1 X139.624 Y152.570 E4.13231
G1 X139.144 Y152.453 E4.14656
G1 X138.695 Y152.248 E4.16080
G1 X138.293 Y151.962 E4.17505
G1 X137.952 Y151.605 E4.18929
G1 X137.686 Y151.190 E4.20354
G1 X137.511 Y150.755 E4.21706
G1 X137.409 Y150.245 E4.23206
G1 X137.409 Y149.753 E4.24626
G1 X137.502 Y149.269 E4.26050
G1 X137.686 Y148.810 E4.27475
G1 X137.952 Y148.395 E4.28899
G1 X138.293 Y148.038 E4.30323
G1 X138.695 Y147.752 E4.31748
G1 X139.144 Y147.547 E4.33172
G1 X139.624 Y147.430 E4.34597
G1 X140.145 Y147.405 E4.36104
G1 X160.134 Y147.409 E4.93789
G1 X160.605 Y147.477 E4.95164
G1 X161.072 Y147.638 E4.96589
G1 X161.499 Y147.885 E4.98013
G1 X161.872 Y148.208 E4.99438
G1 X162.177 Y148.596 E5.00862
G1 X162.403 Y149.035 E5.02287
G1 X162.543 Y149.509 E5.03711
G1 X162.589 Y150.000 E5.05135
G1 X162.543 Y150.491 E5.06560
G1 X162.403 Y150.965 E5.07984
G1 X162.177 Y151.404 E5.09409
G1 X161.872 Y151.792 E5.10833
G1 X161.499 Y152.115 E5.12258
G1 X161.072 Y152.362 E5.13682
G1 X160.605 Y152.523 E5.15107
G1 X160.107 Y152.595 E5.16559
G1 X158.904 Y152.595 E5.20032
G1 X158.844 Y152.843 F6000.000
G1 F1800
G1 X140.140 Y152.843 E5.74011
G1 X139.588 Y152.816 E5.75604
G1 X139.063 Y152.689 E5.77165
G1 X138.571 Y152.464 E5.78726
G1 X138.130 Y152.150 E5.80287
G1 X137.757 Y151.759 E5.81848
G1 X137.464 Y151.304 E5.83410
G1 X137.273 Y150.826 E5.84896
G1 X137.161 Y150.270 E5.86532
G1 X137.161 Y149.730 E5.88091
G1 X137.263 Y149.198 E5.89653
G1 X137.464 Y148.696 E5.91214
G1 X137.757 Y148.241 E5.92775
G1 X138.130 Y147.850 E5.94336
G1 X138.571 Y147.536 E5.95897
G1 X139.063 Y147.311 E5.97458
G1 X139.588 Y147.184 E5.99019
G1 X140.140 Y147.157 E6.00612
G1 X160.151 Y147.161 E6.58365
G1 X160.664 Y147.235 E6.59860
G1 X161.175 Y147.412 E6.61421
G1 X161.644 Y147.682 E6.62982
G1 X162.052 Y148.037 E6.64543
G1 X162.387 Y148.462 E6.66104
G1 X162.635 Y148.943 E6.67665
G1 X162.787 Y149.462 E6.69226
G1 X162.839 Y150.000 E6.70787
G1 X162.787 Y150.538 E6.72348
G1 X162.635 Y151.057 E6.73909
G1 X162.387 Y151.538 E6.75470
G1 X162.052 Y151.963 E6.77031
G1 X161.644 Y152.318 E6.78593
G1 X161.175 Y152.588 E6.80154
G1 X160.664 Y152.765 E6.81715
G1 X160.125 Y152.843 E6.83286
G1 X158.904 Y152.843 E6.86811
G1 X158.639 Y152.499 F6000.000
G1 X160.519 Y152.086 F6000.000
G1 F1800
G1 X161.087 Y151.518 E6.89159
G1 X160.871 Y151.642 E6.89888
G1 X160.482 Y151.767 E6.91082
G1 X160.076 Y152.173 E6.92761
G1 X159.708 Y152.187 E6.93838
G1 X160.086 Y151.808 E6.95404
G1 X159.757 Y151.782 E6.96369
G1 X159.352 Y152.187 E6.98042
G1 X158.997 Y152.187 E6.99080
G1 X159.471 Y151.713 E7.01040
G1 X159.226 Y151.603 E7.01826
G1 X158.642 Y152.187 E7.04238
G1 X158.287 Y152.187 E7.05276
G1 X159.004 Y151.470 E7.08241
G1 X158.803 Y151.315 E7.08981
G1 X157.932 Y152.187 E7.12582
G1 X157.577 Y152.187 E7.13621
G1 X158.630 Y151.134 E7.17973
G1 X158.482 Y150.926 E7.18718
G1 X157.222 Y152.187 E7.23929
G1 X156.866 Y152.187 E7.24967
G1 X158.356 Y150.697 E7.31125
G1 X158.255 Y150.443 E7.31925
G1 X156.511 Y152.187 E7.39134
G1 X156.156 Y152.187 E7.40173
G1 X158.198 Y150.145 E7.48613
G1 X158.188 Y149.800 E7.49623
G1 X155.801 Y152.187 E7.59490
G1 X155.446 Y152.187 E7.60529
G1 E5.60529 F2400.00000
G92 E0
G1 X161.423 Y151.536 F6000.000
G1 E2.00000 F2400.00000
G1 F1800
G1 X161.600 Y151.360 E2.00731
G1 X161.846 Y151.047 E2.01895
G1 X162.029 Y150.692 E2.03061
G1 X162.077 Y150.527 E2.03564
G1 X161.523 Y151.081 E2.05853
G1 X161.671 Y150.794 E2.06796
G1 X161.761 Y150.488 E2.07729
G1 X162.162 Y150.087 E2.09388
G1 X162.179 Y149.912 E2.09900
G1 X162.162 Y149.732 E2.10429
