; generated by Slic3r 1.3.0 on 2023-07-16 at 19:00:30

; external perimeters extrusion width = 0.44mm (3.19mm^3/s)
; perimeters extrusion width = 0.51mm (7.54mm^3/s)
; infill extrusion width = 0.50mm (9.85mm^3/s)
; solid infill extrusion width = 0.51mm (2.51mm^3/s)
; top infill extrusion width = 0.51mm (1.88mm^3/s)

M107
M190 S63 ; set bed temperature and wait for it to be reached
M104 S203 ; set temperature
G28 ; home all axes
G1 Z5 F5000 ; lift nozzle

; Filament gcode

M109 S203 ; set temperature and wait for it to be reached
G21 ; set units to millimeters
G90 ; use absolute coordinates
M82 ; use absolute distances for extrusion
G92 E0
G1 Z0.280 F6000.000
G1 E-2.00000 F2400.00000
G92 E0
G1 X134.167 Y133.594 F6000.000
G1 E2.00000 F2400.00000
G1 F1800
G1 X135.100 Y132.785 E2.03564
G1 X136.339 Y131.903 E2.07953
G1 X137.408 Y131.286 E2.11517
G1 X138.792 Y130.654 E2.15906
G1 X139.959 Y130.250 E2.19470
G1 X141.437 Y129.891 E2.23859
G1 X142.659 Y129.716 E2.27423
G1 X144.178 Y129.643 E2.31813
G1 X145.412 Y129.702 E2.35376
G1 X146.917 Y129.918 E2.39766
G1 X147.718 Y130.085 E2.42125
G1 X162.716 Y134.216 E2.87020
G1 X163.789 Y134.573 E2.90285
G1 X164.912 Y135.086 E2.93849
G1 X165.530 Y135.442 E2.95907
G1 X166.536 Y136.159 E2.99471
G1 X167.075 Y136.626 E3.01528
G1 X167.927 Y137.519 E3.05092
G1 X168.368 Y138.080 E3.07149
G1 X169.035 Y139.119 E3.10713
G1 X169.362 Y139.752 E3.12771
G1 X169.821 Y140.899 E3.16335
G1 X170.022 Y141.583 E3.18392
G1 X170.256 Y142.795 E3.21956
G1 X170.323 Y143.505 E3.24014
G1 X170.323 Y144.740 E3.27578
G1 X170.256 Y145.450 E3.29636
G1 X170.022 Y146.662 E3.33199
G1 X169.821 Y147.346 E3.35257
G1 X169.362 Y148.493 E3.38821
G1 X169.035 Y149.127 E3.40879
G1 X168.368 Y150.165 E3.44442
G1 X167.927 Y150.726 E3.46500
G1 X167.414 Y151.304 E3.48729
G1 X151.414 Y167.304 E4.14030
G1 X150.536 Y168.086 E4.17426
G1 X149.530 Y168.803 E4.20990
G1 X148.913 Y169.159 E4.23047
G1 X147.789 Y169.672 E4.26611
G1 X147.116 Y169.905 E4.28668
G1 X145.915 Y170.197 E4.32232
G1 X145.210 Y170.298 E4.34290
G1 X143.976 Y170.357 E4.37854
G1 X143.264 Y170.323 E4.39911
G1 X142.023 Y170.142 E4.43532
G1 X141.349 Y169.979 E4.45532
G1 X140.182 Y169.575 E4.49096
G1 X139.533 Y169.279 E4.51154
G1 X138.464 Y168.662 E4.54718
G1 X137.883 Y168.248 E4.56775
G1 X136.950 Y167.439 E4.60339
G1 X136.458 Y166.923 E4.62397
G1 X135.695 Y165.953 E4.65961
G1 X135.309 Y165.353 E4.68018
G1 X134.743 Y164.255 E4.71582
G1 X134.478 Y163.593 E4.73640
G1 X134.246 Y162.904 E4.75738
G1 X130.168 Y148.102 E5.20049
G1 X130.053 Y147.606 E5.21518
G1 X129.765 Y146.112 E5.25909
G1 X129.647 Y144.883 E5.29472
G1 X129.647 Y143.362 E5.33861
G1 X129.765 Y142.133 E5.37425
G1 X130.053 Y140.639 E5.41814
G1 X130.400 Y139.454 E5.45378
G1 X130.966 Y138.043 E5.49767
G1 X131.532 Y136.945 E5.53331
G1 X132.354 Y135.665 E5.57720
G1 X133.117 Y134.695 E5.61284
G1 X134.125 Y133.637 E5.65500
G1 X134.346 Y133.765 F6000.000
G1 F1800
G1 X135.244 Y132.987 E5.68928
G1 X136.483 Y132.105 E5.73318
G1 X137.511 Y131.511 E5.76746
G1 X138.895 Y130.879 E5.81135
G1 X140.017 Y130.491 E5.84562
G1 X141.495 Y130.132 E5.88952
G1 X142.671 Y129.963 E5.92380
G1 X144.190 Y129.891 E5.96769
G1 X145.377 Y129.947 E6.00197
G1 X146.882 Y130.164 E6.04586
G1 X147.652 Y130.324 E6.06855
G1 X162.650 Y134.455 E6.51750
G1 X163.708 Y134.807 E6.54970
G1 X164.788 Y135.301 E6.58397
G1 X165.406 Y135.657 E6.60455
G1 X166.374 Y136.346 E6.63883
G1 X166.912 Y136.813 E6.65940
G1 X167.732 Y137.673 E6.69368
G1 X168.173 Y138.233 E6.71426
G1 X168.815 Y139.232 E6.74854
G1 X169.142 Y139.866 E6.76911
G1 X169.583 Y140.969 E6.80339
G1 X169.784 Y141.653 E6.82397
G1 X170.009 Y142.819 E6.85824
G1 X170.077 Y143.529 E6.87882
G1 X170.077 Y144.716 E6.91310
G1 X170.009 Y145.426 E6.93368
G1 X169.784 Y146.593 E6.96795
G1 X169.583 Y147.277 E6.98853
G1 X169.142 Y148.379 E7.02281
G1 X168.815 Y149.013 E7.04339
G1 X168.173 Y150.012 E7.07766
G1 X167.732 Y150.573 E7.09824
G1 X167.239 Y151.128 E7.11968
G1 X151.239 Y167.128 E7.77269
G1 X150.374 Y167.899 E7.80614
G1 X149.406 Y168.588 E7.84042
G1 X148.789 Y168.945 E7.86099
G1 X147.708 Y169.438 E7.89527
G1 X147.034 Y169.671 E7.91584
G1 X145.880 Y169.951 E7.95012
G1 X145.174 Y170.053 E7.97070
G1 X143.988 Y170.109 E8.00498
G1 X143.276 Y170.075 E8.02555
G1 X142.081 Y169.902 E8.06040
G1 X141.407 Y169.738 E8.08040
G1 X140.285 Y169.350 E8.11468
G1 X139.636 Y169.053 E8.13526
G1 X138.608 Y168.460 E8.16954
G1 X138.027 Y168.046 E8.19011
G1 X137.129 Y167.268 E8.22439
G1 X136.637 Y166.752 E8.24496
G1 X135.903 Y165.819 E8.27924
G1 X135.518 Y165.219 E8.29982
G1 X134.973 Y164.163 E8.33410
G1 X134.708 Y163.501 E8.35468
G1 X134.485 Y162.838 E8.37485
G1 X130.407 Y148.036 E8.81797
G1 X130.296 Y147.559 E8.83210
G1 X130.008 Y146.065 E8.87600
G1 X129.895 Y144.883 E8.91027
G1 X129.895 Y143.362 E8.95416
G1 X130.008 Y142.180 E8.98844
G1 X130.296 Y140.686 E9.03234
G1 X130.631 Y139.547 E9.06661
G1 X131.196 Y138.135 E9.11051
G1 X131.740 Y137.079 E9.14479
G1 X132.562 Y135.799 E9.18868
G1 X133.297 Y134.866 E9.22296
G1 X134.305 Y133.808 E9.26512
G1 E7.26512 F2400.00000
G92 E0
G1 X145.846 Y161.781 F6000.000
G1 E2.00000 F2400.00000
G1 F1800
G1 X145.501 Y162.080 E2.01318
G1 X145.105 Y162.308 E2.02637
G1 X144.673 Y162.458 E2.03955
G1 X144.221 Y162.523 E2.05273
G1 X143.765 Y162.501 E2.06591
G1 X143.321 Y162.393 E2.07910
G1 X142.905 Y162.203 E2.09228
G1 X142.533 Y161.938 E2.10546
G1 X142.218 Y161.608 E2.11865
G1 X141.971 Y161.224 E2.13183
G1 X141.801 Y160.800 E2.14501
G1 X141.715 Y160.351 E2.15820
G1 X141.715 Y159.894 E2.17138
G1 X141.801 Y159.446 E2.18456
G1 X141.971 Y159.022 E2.19774
G1 X142.218 Y158.637 E2.21093
G1 X142.533 Y158.307 E2.22411
G1 X142.905 Y158.042 E2.23729
G1 X143.321 Y157.852 E2.25048
G1 X143.765 Y157.744 E2.26366
G1 X144.210 Y157.723 E2.27652
G1 X144.672 Y157.787 E2.28997
G1 X145.105 Y157.937 E2.30320
G1 X145.501 Y158.165 E2.31639
G1 X145.846 Y158.464 E2.32957
G1 X146.128 Y158.824 E2.34275
G1 X146.338 Y159.230 E2.35593
G1 X146.466 Y159.668 E2.36912
G1 X146.510 Y160.123 E2.38230
G1 X146.466 Y160.577 E2.39548
G1 X146.338 Y161.016 E2.40867
G1 X146.128 Y161.422 E2.42185
G1 X145.883 Y161.734 E2.43330
G1 X145.666 Y161.609 F6000.000
G1 F1800
G1 X145.356 Y161.877 E2.44512
G1 X145.002 Y162.082 E2.45693
G1 X144.615 Y162.216 E2.46875
G1 X144.209 Y162.274 E2.48057
G1 X143.800 Y162.254 E2.49238
G1 X143.402 Y162.158 E2.50420
G1 X143.030 Y161.988 E2.51602
G1 X142.696 Y161.750 E2.52783
G1 X142.414 Y161.454 E2.53965
G1 X142.193 Y161.109 E2.55147
G1 X142.040 Y160.729 E2.56328
G1 X141.963 Y160.327 E2.57510
G1 X141.963 Y159.918 E2.58692
G1 X142.040 Y159.516 E2.59873
G1 X142.193 Y159.136 E2.61055
G1 X142.414 Y158.791 E2.62237
G1 X142.696 Y158.495 E2.63418
G1 X143.030 Y158.257 E2.64600
G1 X143.402 Y158.087 E2.65781
G1 X143.800 Y157.991 E2.66963
G1 X144.199 Y157.972 E2.68115
G1 X144.614 Y158.029 E2.69323
G1 X145.002 Y158.163 E2.70508
G1 X145.356 Y158.368 E2.71689
G1 X145.666 Y158.636 E2.72871
G1 X145.919 Y158.958 E2.74053
G1 X146.106 Y159.322 E2.75234
G1 X146.222 Y159.715 E2.76416
G1 X146.261 Y160.123 E2.77598
G1 X146.222 Y160.530 E2.78779
G1 X146.106 Y160.923 E2.79961
G1 X145.919 Y161.287 E2.81143
G1 X145.703 Y161.562 E2.82151
G1 X145.485 Y161.437 F6000.000
G1 F1800
G1 X145.212 Y161.674 E2.83196
G1 X144.898 Y161.855 E2.84241
G1 X144.556 Y161.974 E2.85286
G1 X144.198 Y162.025 E2.86331
G1 X143.836 Y162.008 E2.87376
G1 X143.484 Y161.923 E2.88421
G1 X143.155 Y161.772 E2.89466
G1 X142.860 Y161.562 E2.90511
G1 X142.610 Y161.300 E2.91556
G1 X142.414 Y160.995 E2.92601
G1 X142.279 Y160.659 E2.93646
G1 X142.211 Y160.304 E2.94691
G1 X142.211 Y159.942 E2.95736
G1 X142.279 Y159.586 E2.96781
G1 X142.414 Y159.250 E2.97826
G1 X142.610 Y158.945 E2.98871
G1 X142.860 Y158.683 E2.99916
G1 X143.155 Y158.473 E3.00961
G1 X143.484 Y158.323 E3.02006
G1 X143.836 Y158.237 E3.03051
G1 X144.188 Y158.221 E3.04068
G1 X144.556 Y158.271 E3.05140
G1 X144.898 Y158.390 E3.06186
G1 X145.212 Y158.571 E3.07231
G1 X145.485 Y158.808 E3.08276
G1 X145.709 Y159.093 E3.09321
G1 X145.875 Y159.415 E3.10366
G1 X145.977 Y159.762 E3.11411
G1 X146.012 Y160.123 E3.12456
G1 X145.977 Y160.483 E3.13501
G1 X145.875 Y160.830 E3.14546
G1 X145.709 Y161.152 E3.15591
G1 X145.522 Y161.390 E3.16463
G1 X145.485 Y161.437 F6000.000
G1 E1.16463 F2400.00000
G92 E0
G1 X144.429 Y150.893 F6000.000
G1 E2.00000 F2400.00000
G1 F1800
G1 X143.142 Y150.831 E2.03719
G1 X141.890 Y150.528 E2.07437
G1 X140.718 Y149.992 E2.11156
G1 X139.668 Y149.245 E2.14875
G1 X138.779 Y148.312 E2.18593
G1 X138.083 Y147.228 E2.22312
G1 X137.604 Y146.032 E2.26031
G1 X137.360 Y144.767 E2.29749
G1 X137.360 Y143.478 E2.33468
G1 X137.604 Y142.213 E2.37187
G1 X138.083 Y141.017 E2.40905
G1 X138.779 Y139.933 E2.44624
G1 X139.668 Y139.000 E2.48342
G1 X140.718 Y138.253 E2.52061
G1 X141.890 Y137.718 E2.55780
G1 X143.142 Y137.414 E2.59498
G1 X144.395 Y137.354 E2.63118
G1 X145.703 Y137.535 E2.66929
G1 X146.922 Y137.957 E2.70653
G1 X148.038 Y138.602 E2.74371
G1 X149.012 Y139.445 E2.78090
G1 X149.809 Y140.458 E2.81809
G1 X150.399 Y141.604 E2.85527
G1 X150.762 Y142.840 E2.89246
G1 X150.885 Y144.123 E2.92965
G1 X150.762 Y145.405 E2.96683
G1 X150.399 Y146.642 E3.00402
G1 X149.809 Y147.787 E3.04121
G1 X149.012 Y148.800 E3.07839
G1 X148.038 Y149.644 E3.11558
G1 X146.922 Y150.288 E3.15277
G1 X145.705 Y150.709 E3.18995
G1 X144.489 Y150.884 E3.22541
G1 X144.418 Y150.644 F6000.000
G1 F1800
G1 X143.178 Y150.585 E3.26123
G1 X141.972 Y150.292 E3.29705
G1 X140.843 Y149.777 E3.33287
G1 X139.831 Y149.057 E3.36869
G1 X138.975 Y148.158 E3.40451
G1 X138.304 Y147.114 E3.44033
G1 X137.843 Y145.962 E3.47615
G1 X137.608 Y144.743 E3.51197
G1 X137.608 Y143.502 E3.54779
G1 X137.843 Y142.283 E3.58361
G1 X138.304 Y141.131 E3.61943
G1 X138.975 Y140.087 E3.65525
G1 X139.831 Y139.189 E3.69107
G1 X140.843 Y138.469 E3.72689
G1 X141.972 Y137.953 E3.76271
G1 X143.178 Y137.660 E3.79853
G1 X144.384 Y137.603 E3.83338
G1 X145.645 Y137.778 E3.87012
G1 X146.819 Y138.184 E3.90597
G1 X147.894 Y138.804 E3.94179
G1 X148.832 Y139.617 E3.97761
G1 X149.599 Y140.593 E4.01343
G1 X150.168 Y141.696 E4.04925
G1 X150.518 Y142.887 E4.08507
G1 X150.636 Y144.123 E4.12090
G1 X150.518 Y145.358 E4.15672
G1 X150.168 Y146.549 E4.19254
G1 X149.599 Y147.652 E4.22836
G1 X148.832 Y148.628 E4.26418
G1 X147.894 Y149.441 E4.30000
G1 X146.819 Y150.061 E4.33582
G1 X145.646 Y150.467 E4.37164
G1 X144.477 Y150.635 E4.40572
G1 X144.406 Y150.395 F6000.000
G1 F1800
G1 X143.213 Y150.338 E4.44018
G1 X142.053 Y150.057 E4.47463
G1 X140.967 Y149.561 E4.50909
G1 X139.995 Y148.868 E4.54354
G1 X139.171 Y148.004 E4.57799
G1 X138.525 Y147.000 E4.61245
G1 X138.082 Y145.892 E4.64690
G1 X137.856 Y144.720 E4.68136
G1 X137.856 Y143.526 E4.71581
G1 X138.082 Y142.353 E4.75026
G1 X138.525 Y141.245 E4.78472
G1 X139.171 Y140.241 E4.81917
G1 X139.995 Y139.377 E4.85362
G1 X140.967 Y138.684 E4.88808
G1 X142.053 Y138.188 E4.92253
G1 X143.213 Y137.907 E4.95699
G1 X144.373 Y137.852 E4.99049
G1 X145.587 Y138.020 E5.02587
G1 X146.716 Y138.410 E5.06033
G1 X147.749 Y139.007 E5.09478
G1 X148.652 Y139.789 E5.12924
G1 X149.390 Y140.728 E5.16369
G1 X149.937 Y141.789 E5.19815
G1 X150.273 Y142.934 E5.23260
G1 X150.387 Y144.123 E5.26705
G1 X150.273 Y145.311 E5.30151
G1 X149.937 Y146.457 E5.33596
G1 X149.390 Y147.518 E5.37042
G1 X148.652 Y148.456 E5.40487
G1 X147.749 Y149.238 E5.43932
G1 X146.716 Y149.835 E5.47378
G1 X145.587 Y150.225 E5.50823
G1 X144.465 Y150.387 E5.54095
G1 X144.406 Y150.395 F6000.000
G1 E3.54095 F2400.00000
G92 E0
G1 X157.882 Y145.000 F6000.000
G1 E2.00000 F2400.00000
G1 F1800
G1 X157.801 Y144.800 E2.00624
G1 X157.715 Y144.351 E2.01942
G1 X157.715 Y143.894 E2.03260
G1 X157.801 Y143.446 E2.04579
G1 X157.971 Y143.022 E2.05897
G1 X158.218 Y142.637 E2.07215
G1 X158.533 Y142.307 E2.08534
G1 X158.905 Y142.042 E2.09852
G1 X159.321 Y141.852 E2.11170
G1 X159.765 Y141.744 E2.12488
G1 X160.210 Y141.723 E2.13775
G1 X160.672 Y141.787 E2.15120
G1 X161.105 Y141.937 E2.16443
G1 X161.501 Y142.165 E2.17761
G1 X161.846 Y142.464 E2.19079
G1 X162.128 Y142.824 E2.20398
G1 X162.338 Y143.230 E2.21716
G1 X162.466 Y143.668 E2.23034
G1 X162.510 Y144.123 E2.24353
G1 X162.466 Y144.577 E2.25671
G1 X162.338 Y145.016 E2.26989
G1 X162.128 Y145.422 E2.28307
G1 X161.846 Y145.781 E2.29626
G1 X161.501 Y146.080 E2.30944
G1 X161.105 Y146.308 E2.32262
G1 X160.673 Y146.458 E2.33581
G1 X160.221 Y146.523 E2.34899
G1 X159.765 Y146.501 E2.36217
G1 X159.321 Y146.393 E2.37535
G1 X158.905 Y146.203 E2.38854
G1 X158.533 Y145.938 E2.40172
G1 X158.218 Y145.608 E2.41490
G1 X157.971 Y145.224 E2.42809
G1 X157.904 Y145.056 E2.43330
G1 X158.112 Y144.908 F6000.000
G1 F1800
G1 X158.040 Y144.729 E2.43885
G1 X157.963 Y144.327 E2.45067
G1 X157.963 Y143.918 E2.46249
G1 X158.040 Y143.516 E2.47430
G1 X158.193 Y143.136 E2.48612
G1 X158.414 Y142.791 E2.49794
G1 X158.696 Y142.495 E2.50975
G1 X159.030 Y142.257 E2.52157
G1 X159.402 Y142.087 E2.53339
G1 X159.800 Y141.991 E2.54520
G1 X160.199 Y141.972 E2.55672
G1 X160.614 Y142.029 E2.56880
G1 X161.002 Y142.163 E2.58065
G1 X161.356 Y142.368 E2.59247
G1 X161.666 Y142.636 E2.60428
G1 X161.919 Y142.958 E2.61610
G1 X162.106 Y143.322 E2.62791
G1 X162.222 Y143.715 E2.63973
G1 X162.261 Y144.123 E2.65155
G1 X162.222 Y144.530 E2.66336
G1 X162.106 Y144.923 E2.67518
G1 X161.919 Y145.287 E2.68700
G1 X161.666 Y145.609 E2.69881
G1 X161.356 Y145.877 E2.71063
G1 X161.002 Y146.082 E2.72245
G1 X160.615 Y146.216 E2.73426
G1 X160.209 Y146.274 E2.74608
G1 X159.800 Y146.254 E2.75790
G1 X159.402 Y146.158 E2.76971
G1 X159.030 Y145.988 E2.78153
G1 X158.696 Y145.750 E2.79335
G1 X158.414 Y145.454 E2.80516
G1 X158.193 Y145.109 E2.81698
G1 X158.134 Y144.964 E2.82151
G1 X158.342 Y144.816 F6000.000
G1 F1800
G1 X158.279 Y144.659 E2.82638
G1 X158.211 Y144.304 E2.83683
G1 X158.211 Y143.942 E2.84728
G1 X158.279 Y143.586 E2.85773
G1 X158.414 Y143.250 E2.86818
G1 X158.610 Y142.945 E2.87863
G1 X158.860 Y142.683 E2.88908
G1 X159.155 Y142.473 E2.89953
G1 X159.484 Y142.323 E2.90998
G1 X159.836 Y142.237 E2.92043
G1 X160.188 Y142.221 E2.93060
G1 X160.556 Y142.271 E2.94132
G1 X160.898 Y142.390 E2.95178
G1 X161.212 Y142.571 E2.96223
G1 X161.485 Y142.808 E2.97268
G1 X161.709 Y143.093 E2.98313
G1 X161.875 Y143.415 E2.99358
G1 X161.977 Y143.762 E3.00403
G1 X162.012 Y144.123 E3.01448
G1 X161.977 Y144.483 E3.02493
G1 X161.875 Y144.830 E3.03538
G1 X161.709 Y145.152 E3.04583
G1 X161.485 Y145.437 E3.05628
G1 X161.212 Y145.674 E3.06673
G1 X160.898 Y145.855 E3.07718
G1 X160.556 Y145.974 E3.08763
G1 X160.198 Y146.025 E3.09808
G1 X159.836 Y146.008 E3.10853
G1 X159.484 Y145.923 E3.11898
G1 X159.155 Y145.772 E3.12943
G1 X158.860 Y145.562 E3.13988
G1 X158.610 Y145.300 E3.15033
G1 X158.414 Y144.995 E3.16078
G1 X158.364 Y144.872 E3.16463
G1 X158.174 Y144.799 F6000.000
G1 E1.16463 F2400.00000
G92 E0
G1 X161.069 Y147.543 F6000.000
G1 E2.00000 F2400.00000
G1 F1800
G1 X146.378 Y162.234 E2.59961
G1 X145.903 Y162.646 E2.61772
G1 X145.394 Y162.940 E2.63472
G1 X144.837 Y163.133 E2.65171
G1 X144.256 Y163.216 E2.66865
G1 X143.648 Y163.184 E2.68621
G1 X143.094 Y163.049 E2.70268
G1 X142.558 Y162.805 E2.71967
G1 X142.079 Y162.463 E2.73666
G1 X141.672 Y162.037 E2.75366
G1 X141.354 Y161.542 E2.77065
G1 X141.126 Y160.971 E2.78838
G1 X137.064 Y146.228 E3.22971
G1 X136.793 Y144.821 E3.27107
G1 X136.793 Y143.424 E3.31138
G1 X137.057 Y142.053 E3.35169
G1 X137.576 Y140.756 E3.39200
G1 X138.332 Y139.581 E3.43231
G1 X139.295 Y138.570 E3.47263
G1 X140.433 Y137.760 E3.51294
G1 X141.704 Y137.179 E3.55325
G1 X143.060 Y136.851 E3.59351
G1 X144.497 Y136.790 E3.63503
G1 X145.860 Y136.985 E3.67477
G1 X160.798 Y141.099 E4.12193
G1 X161.394 Y141.305 E4.14011
G1 X161.903 Y141.600 E4.15710
G1 X162.348 Y141.985 E4.17409
G1 X162.712 Y142.448 E4.19108
G1 X162.982 Y142.971 E4.20808
G1 X163.148 Y143.536 E4.22507
G1 X163.204 Y144.123 E4.24206
G1 X163.148 Y144.709 E4.25906
G1 X162.982 Y145.274 E4.27605
G1 X162.712 Y145.797 E4.29304
G1 X162.334 Y146.278 E4.31071
G1 X161.112 Y147.501 E4.36060
G1 X161.245 Y147.718 F6000.000
G1 F1800
G1 X146.547 Y162.416 E4.96046
G1 X146.048 Y162.848 E4.97952
G1 X145.497 Y163.166 E4.99787
G1 X144.896 Y163.375 E5.01623
