; generated by Slic3r 1.3.0 on 2023-07-17 at 14:36:06

; external perimeters extrusion width = 0.44mm (3.19mm^3/s)
; perimeters extrusion width = 0.51mm (7.54mm^3/s)
; infill extrusion width = 0.50mm (9.85mm^3/s)
; solid infill extrusion width = 0.51mm (2.51mm^3/s)
; top infill extrusion width = 0.51mm (1.88mm^3/s)

M107
M190 S63 ; set bed temperature and wait for it to be reached
M104 S203 ; set temperature
G28 ; home all axes
G1 Z5 F5000 ; lift nozzle

; Filament gcode

M109 S203 ; set temperature and wait for it to be reached
G21 ; set units to millimeters
G90 ; use absolute coordinates
M82 ; use absolute distances for extrusion
G92 E0
G1 Z0.280 F6000.000
G1 E-2.00000 F2400.00000
G92 E0
G1 X132.010 Y131.338 F6000.000
G1 E2.00000 F2400.00000
G1 F1800
G1 X132.943 Y130.529 E2.03564
G1 X134.337 Y129.536 E2.08502
G1 X135.406 Y128.919 E2.12065
G1 X136.963 Y128.208 E2.17004
G1 X138.130 Y127.804 E2.20567
G1 X139.792 Y127.401 E2.25505
G1 X141.063 Y127.223 E2.29207
G1 X142.724 Y127.144 E2.34007
G1 X143.957 Y127.202 E2.37570
G1 X145.651 Y127.446 E2.42509
G1 X146.431 Y127.608 E2.44807
G1 X165.193 Y132.710 E3.00921
G1 X166.287 Y133.072 E3.04246
G1 X167.410 Y133.585 E3.07810
G1 X168.028 Y133.942 E3.09868
G1 X169.034 Y134.658 E3.13432
G1 X169.572 Y135.125 E3.15489
G1 X170.425 Y136.019 E3.19053
G1 X170.865 Y136.579 E3.21111
G1 X171.533 Y137.618 E3.24675
G1 X171.860 Y138.252 E3.26732
G1 X172.319 Y139.398 E3.30296
G1 X172.520 Y140.082 E3.32353
G1 X172.753 Y141.295 E3.35917
G1 X172.821 Y142.005 E3.37975
G1 X172.821 Y143.239 E3.41539
G1 X172.753 Y143.949 E3.43597
G1 X172.520 Y145.162 E3.47160
G1 X172.319 Y145.846 E3.49218
G1 X171.860 Y146.992 E3.52782
G1 X171.533 Y147.626 E3.54840
G1 X170.865 Y148.665 E3.58403
G1 X170.425 Y149.225 E3.60461
G1 X169.912 Y149.803 E3.62690
G1 X149.912 Y169.803 E4.44317
G1 X149.034 Y170.586 E4.47712
G1 X148.028 Y171.302 E4.51276
G1 X147.410 Y171.659 E4.53334
G1 X146.287 Y172.172 E4.56898
G1 X145.613 Y172.405 E4.58955
G1 X144.413 Y172.696 E4.62519
G1 X143.708 Y172.797 E4.64576
G1 X142.474 Y172.856 E4.68140
G1 X141.762 Y172.822 E4.70198
G1 X140.540 Y172.647 E4.73762
G1 X139.847 Y172.478 E4.75819
G1 X138.680 Y172.075 E4.79383
G1 X138.031 Y171.778 E4.81441
G1 X136.962 Y171.161 E4.85004
G1 X136.381 Y170.747 E4.87062
G1 X135.448 Y169.939 E4.90626
G1 X134.956 Y169.423 E4.92683
G1 X134.192 Y168.452 E4.96247
G1 X133.807 Y167.852 E4.98305
G1 X133.241 Y166.755 E5.01869
G1 X132.976 Y166.093 E5.03927
G1 X132.738 Y165.383 E5.06085
G1 X127.701 Y146.862 E5.61478
G1 X127.591 Y146.387 E5.62886
G1 X127.267 Y144.707 E5.67825
G1 X127.150 Y143.478 E5.71388
G1 X127.150 Y141.767 E5.76326
G1 X127.267 Y140.537 E5.79890
G1 X127.591 Y138.857 E5.84828
G1 X127.939 Y137.672 E5.88392
G1 X128.575 Y136.084 E5.93330
G1 X129.140 Y134.986 E5.96894
G1 X130.066 Y133.547 E6.01831
G1 X130.829 Y132.576 E6.05395
G1 X131.968 Y131.381 E6.10160
G1 X132.189 Y131.509 F6000.000
G1 F1800
G1 X133.087 Y130.731 E6.13588
G1 X134.480 Y129.738 E6.18526
G1 X135.509 Y129.145 E6.21953
G1 X137.066 Y128.434 E6.26892
G1 X138.188 Y128.045 E6.30320
G1 X139.851 Y127.642 E6.35258
G1 X141.026 Y127.473 E6.38685
G1 X142.736 Y127.391 E6.43623
G1 X143.922 Y127.448 E6.47051
G1 X145.616 Y127.691 E6.51989
G1 X146.366 Y127.847 E6.54200
G1 X165.128 Y132.949 E7.10314
G1 X166.206 Y133.307 E7.13591
G1 X167.286 Y133.800 E7.17019
G1 X167.904 Y134.157 E7.19076
G1 X168.871 Y134.846 E7.22504
G1 X169.410 Y135.312 E7.24562
G1 X170.230 Y136.172 E7.27990
G1 X170.671 Y136.732 E7.30047
G1 X171.313 Y137.732 E7.33475
G1 X171.639 Y138.365 E7.35533
G1 X172.081 Y139.468 E7.38961
G1 X172.282 Y140.152 E7.41018
G1 X172.506 Y141.318 E7.44446
G1 X172.574 Y142.028 E7.46503
G1 X172.574 Y143.216 E7.49931
G1 X172.506 Y143.926 E7.51989
G1 X172.282 Y145.092 E7.55417
G1 X172.081 Y145.776 E7.57474
G1 X171.639 Y146.879 E7.60902
G1 X171.313 Y147.513 E7.62961
G1 X170.671 Y148.512 E7.66387
G1 X170.230 Y149.072 E7.68445
G1 X169.737 Y149.628 E7.70589
G1 X149.737 Y169.628 E8.52216
G1 X148.871 Y170.399 E8.55560
G1 X147.904 Y171.088 E8.58988
G1 X147.286 Y171.444 E8.61046
G1 X146.206 Y171.937 E8.64474
G1 X145.532 Y172.171 E8.66531
G1 X144.378 Y172.451 E8.69959
G1 X143.672 Y172.552 E8.72017
G1 X142.486 Y172.609 E8.75445
G1 X141.774 Y172.575 E8.77502
G1 X140.598 Y172.406 E8.80930
G1 X139.905 Y172.238 E8.82987
G1 X138.783 Y171.849 E8.86415
G1 X138.134 Y171.553 E8.88473
G1 X137.106 Y170.959 E8.91900
G1 X136.525 Y170.545 E8.93958
G1 X135.627 Y169.768 E8.97386
G1 X135.135 Y169.252 E8.99444
G1 X134.401 Y168.318 E9.02871
G1 X134.015 Y167.718 E9.04929
G1 X133.471 Y166.662 E9.08357
G1 X133.206 Y166.000 E9.10415
G1 X132.978 Y165.318 E9.12491
G1 X127.940 Y146.797 E9.67883
G1 X127.834 Y146.340 E9.69238
G1 X127.510 Y144.660 E9.74176
G1 X127.397 Y143.478 E9.77604
G1 X127.397 Y141.767 E9.82542
G1 X127.510 Y140.584 E9.85970
G1 X127.834 Y138.904 E9.90908
G1 X128.169 Y137.764 E9.94336
G1 X128.805 Y136.176 E9.99273
G1 X129.349 Y135.120 E10.02701
G1 X130.274 Y133.681 E10.07639
G1 X131.008 Y132.747 E10.11067
G1 X132.148 Y131.552 E10.15832
G1 E8.15832 F2400.00000
G92 E0
G1 X144.344 Y164.280 F6000.000
G1 E2.00000 F2400.00000
G1 F1800
G1 X143.998 Y164.579 E2.01318
G1 X143.603 Y164.808 E2.02637
G1 X143.171 Y164.957 E2.03955
G1 X142.719 Y165.022 E2.05273
G1 X142.263 Y165.000 E2.06591
G1 X141.819 Y164.893 E2.07910
G1 X141.403 Y164.703 E2.09228
G1 X141.031 Y164.438 E2.10546
G1 X140.716 Y164.107 E2.11865
G1 X140.469 Y163.723 E2.13183
G1 X140.299 Y163.299 E2.14501
G1 X140.213 Y162.850 E2.15820
G1 X140.213 Y162.394 E2.17138
G1 X140.299 Y161.945 E2.18456
G1 X140.469 Y161.521 E2.19774
G1 X140.716 Y161.137 E2.21093
G1 X141.031 Y160.806 E2.22411
G1 X141.403 Y160.541 E2.23729
G1 X141.819 Y160.351 E2.25048
G1 X142.263 Y160.244 E2.26366
G1 X142.708 Y160.222 E2.27652
G1 X143.169 Y160.286 E2.28997
G1 X143.603 Y160.436 E2.30320
G1 X143.998 Y160.665 E2.31639
G1 X144.344 Y160.964 E2.32957
G1 X144.626 Y161.323 E2.34275
G1 X144.835 Y161.729 E2.35593
G1 X144.964 Y162.167 E2.36912
G1 X145.007 Y162.622 E2.38230
G1 X144.964 Y163.077 E2.39548
G1 X144.835 Y163.515 E2.40867
G1 X144.626 Y163.921 E2.42185
G1 X144.381 Y164.233 E2.43330
G1 X144.163 Y164.108 F6000.000
G1 F1800
G1 X143.854 Y164.376 E2.44512
G1 X143.499 Y164.581 E2.45693
G1 X143.112 Y164.715 E2.46875
G1 X142.707 Y164.773 E2.48057
G1 X142.298 Y164.754 E2.49238
G1 X141.900 Y164.657 E2.50420
G1 X141.528 Y164.487 E2.51602
G1 X141.194 Y164.250 E2.52783
G1 X140.912 Y163.953 E2.53965
G1 X140.690 Y163.609 E2.55147
G1 X140.538 Y163.229 E2.56328
G1 X140.461 Y162.827 E2.57510
G1 X140.461 Y162.417 E2.58692
G1 X140.538 Y162.015 E2.59873
G1 X140.690 Y161.635 E2.61055
G1 X140.912 Y161.291 E2.62237
G1 X141.194 Y160.994 E2.63418
G1 X141.528 Y160.757 E2.64600
G1 X141.900 Y160.587 E2.65782
G1 X142.298 Y160.490 E2.66963
G1 X142.697 Y160.471 E2.68115
G1 X143.111 Y160.529 E2.69323
G1 X143.499 Y160.663 E2.70508
G1 X143.854 Y160.868 E2.71689
G1 X144.163 Y161.136 E2.72871
G1 X144.416 Y161.458 E2.74053
G1 X144.604 Y161.822 E2.75234
G1 X144.719 Y162.214 E2.76416
G1 X144.758 Y162.622 E2.77598
G1 X144.719 Y163.030 E2.78779
G1 X144.604 Y163.422 E2.79961
G1 X144.416 Y163.786 E2.81143
G1 X144.200 Y164.061 E2.82151
G1 X143.983 Y163.936 F6000.000
G1 F1800
G1 X143.709 Y164.174 E2.83196
G1 X143.396 Y164.355 E2.84241
G1 X143.054 Y164.473 E2.85286
G1 X142.695 Y164.525 E2.86331
G1 X142.334 Y164.507 E2.87376
G1 X141.982 Y164.422 E2.88421
G1 X141.652 Y164.272 E2.89466
G1 X141.357 Y164.062 E2.90511
G1 X141.107 Y163.799 E2.91556
G1 X140.912 Y163.495 E2.92601
G1 X140.777 Y163.159 E2.93646
G1 X140.709 Y162.803 E2.94691
G1 X140.709 Y162.441 E2.95736
G1 X140.777 Y162.085 E2.96781
G1 X140.912 Y161.749 E2.97826
G1 X141.107 Y161.445 E2.98871
G1 X141.357 Y161.183 E2.99916
G1 X141.652 Y160.973 E3.00961
G1 X141.982 Y160.822 E3.02006
G1 X142.334 Y160.737 E3.03051
G1 X142.686 Y160.720 E3.04068
G1 X143.053 Y160.771 E3.05140
G1 X143.396 Y160.889 E3.06186
G1 X143.709 Y161.071 E3.07231
G1 X143.983 Y161.308 E3.08276
G1 X144.207 Y161.592 E3.09321
G1 X144.373 Y161.914 E3.10366
G1 X144.475 Y162.262 E3.11411
G1 X144.509 Y162.622 E3.12456
G1 X144.475 Y162.982 E3.13501
G1 X144.373 Y163.330 E3.14546
G1 X144.207 Y163.652 E3.15591
G1 X144.020 Y163.889 E3.16463
G1 X143.983 Y163.936 F6000.000
G1 E1.16463 F2400.00000
G92 E0
G1 X142.940 Y149.667 F6000.000
G1 E2.00000 F2400.00000
G1 F1800
G1 X141.601 Y149.603 E2.03870
G1 X140.298 Y149.287 E2.07739
G1 X139.078 Y148.730 E2.11609
G1 X137.986 Y147.952 E2.15478
G1 X137.061 Y146.982 E2.19348
G1 X136.336 Y145.854 E2.23217
G1 X135.838 Y144.609 E2.27087
G1 X135.584 Y143.292 E2.30956
G1 X135.584 Y141.952 E2.34826
G1 X135.838 Y140.635 E2.38695
G1 X136.336 Y139.390 E2.42565
G1 X137.061 Y138.262 E2.46434
G1 X137.986 Y137.292 E2.50304
G1 X139.078 Y136.514 E2.54173
G1 X140.340 Y135.938 E2.58175
G1 X141.603 Y135.641 E2.61922
G1 X142.904 Y135.579 E2.65681
G1 X144.266 Y135.768 E2.69647
G1 X145.534 Y136.207 E2.73522
G1 X146.696 Y136.877 E2.77391
G1 X147.709 Y137.755 E2.81261
G1 X148.538 Y138.809 E2.85130
G1 X149.152 Y140.001 E2.89000
G1 X149.530 Y141.287 E2.92869
G1 X149.657 Y142.622 E2.96739
G1 X149.530 Y143.957 E3.00608
G1 X149.152 Y145.243 E3.04478
G1 X148.538 Y146.435 E3.08348
G1 X147.709 Y147.489 E3.12217
G1 X146.696 Y148.367 E3.16087
G1 X145.534 Y149.037 E3.19956
G1 X144.267 Y149.476 E3.23826
G1 X143.000 Y149.658 E3.27522
G1 X142.928 Y149.418 F6000.000
G1 F1800
G1 X141.636 Y149.357 E3.31255
G1 X140.379 Y149.052 E3.34988
G1 X139.203 Y148.514 E3.38721
G1 X138.149 Y147.764 E3.42454
G1 X137.257 Y146.828 E3.46187
G1 X136.557 Y145.740 E3.49919
G1 X136.076 Y144.539 E3.53652
G1 X135.832 Y143.269 E3.57385
G1 X135.832 Y141.975 E3.61118
G1 X136.076 Y140.705 E3.64851
G1 X136.557 Y139.504 E3.68584
G1 X137.257 Y138.416 E3.72317
G1 X138.149 Y137.480 E3.76050
G1 X139.203 Y136.730 E3.79783
G1 X140.420 Y136.174 E3.83645
G1 X141.638 Y135.887 E3.87255
G1 X142.893 Y135.828 E3.90882
G1 X144.208 Y136.010 E3.94712
G1 X145.431 Y136.433 E3.98448
G1 X146.551 Y137.080 E4.02181
G1 X147.529 Y137.927 E4.05914
G1 X148.328 Y138.944 E4.09646
G1 X148.921 Y140.093 E4.13379
G1 X149.285 Y141.334 E4.17112
G1 X149.408 Y142.622 E4.20845
G1 X149.285 Y143.910 E4.24578
G1 X148.921 Y145.151 E4.28311
G1 X148.328 Y146.300 E4.32044
G1 X147.529 Y147.317 E4.35777
G1 X146.551 Y148.164 E4.39510
G1 X145.431 Y148.811 E4.43243
G1 X144.209 Y149.234 E4.46975
G1 X142.988 Y149.410 E4.50535
G1 X142.917 Y149.169 F6000.000
G1 F1800
G1 X141.672 Y149.110 E4.54131
G1 X140.461 Y148.816 E4.57728
G1 X139.327 Y148.299 E4.61324
G1 X138.312 Y147.576 E4.64920
G1 X137.452 Y146.674 E4.68516
G1 X136.779 Y145.626 E4.72113
G1 X136.315 Y144.469 E4.75709
G1 X136.080 Y143.245 E4.79305
G1 X136.080 Y141.999 E4.82901
G1 X136.315 Y140.775 E4.86498
G1 X136.779 Y139.618 E4.90094
G1 X137.452 Y138.570 E4.93690
G1 X138.312 Y137.668 E4.97287
G1 X139.327 Y136.945 E5.00883
G1 X140.501 Y136.409 E5.04606
G1 X141.672 Y136.134 E5.08079
G1 X142.882 Y136.076 E5.11574
G1 X144.150 Y136.252 E5.15267
G1 X145.328 Y136.660 E5.18865
G1 X146.407 Y137.283 E5.22461
G1 X147.348 Y138.099 E5.26057
G1 X148.119 Y139.078 E5.29654
G1 X148.690 Y140.186 E5.33250
G1 X149.041 Y141.382 E5.36846
G1 X149.159 Y142.622 E5.40442
G1 X149.041 Y143.863 E5.44039
G1 X148.690 Y145.058 E5.47635
G1 X148.119 Y146.166 E5.51231
G1 X147.348 Y147.145 E5.54827
G1 X146.407 Y147.961 E5.58424
G1 X145.328 Y148.584 E5.62020
G1 X144.150 Y148.992 E5.65616
G1 X142.976 Y149.161 E5.69039
G1 X142.917 Y149.169 F6000.000
G1 E3.69039 F2400.00000
G92 E0
G1 X160.299 Y143.299 F6000.000
G1 E2.00000 F2400.00000
G1 F1800
G1 X160.213 Y142.850 E2.01318
G1 X160.213 Y142.394 E2.02637
G1 X160.299 Y141.945 E2.03955
G1 X160.469 Y141.521 E2.05273
G1 X160.716 Y141.137 E2.06591
G1 X161.031 Y140.806 E2.07910
G1 X161.403 Y140.541 E2.09228
G1 X161.819 Y140.351 E2.10546
G1 X162.263 Y140.244 E2.11865
G1 X162.708 Y140.222 E2.13151
G1 X163.170 Y140.286 E2.14496
G1 X163.603 Y140.436 E2.15819
G1 X163.998 Y140.665 E2.17137
G1 X164.344 Y140.964 E2.18456
G1 X164.626 Y141.323 E2.19774
G1 X164.835 Y141.729 E2.21092
G1 X164.964 Y142.167 E2.22411
G1 X165.007 Y142.622 E2.23729
G1 X164.964 Y143.077 E2.25047
G1 X164.835 Y143.515 E2.26365
G1 X164.626 Y143.921 E2.27684
G1 X164.344 Y144.280 E2.29002
G1 X163.998 Y144.579 E2.30320
G1 X163.603 Y144.808 E2.31639
G1 X163.171 Y144.957 E2.32957
G1 X162.719 Y145.022 E2.34275
G1 X162.263 Y145.000 E2.35593
G1 X161.819 Y144.893 E2.36912
G1 X161.403 Y144.703 E2.38230
G1 X161.031 Y144.438 E2.39548
G1 X160.716 Y144.107 E2.40867
G1 X160.469 Y143.723 E2.42185
G1 X160.321 Y143.355 E2.43330
G1 X160.538 Y143.229 F6000.000
G1 F1800
G1 X160.461 Y142.827 E2.44512
G1 X160.461 Y142.417 E2.45693
G1 X160.538 Y142.015 E2.46875
G1 X160.690 Y141.635 E2.48057
G1 X160.912 Y141.291 E2.49238
G1 X161.194 Y140.994 E2.50420
G1 X161.528 Y140.757 E2.51602
G1 X161.900 Y140.587 E2.52783
G1 X162.298 Y140.490 E2.53965
G1 X162.697 Y140.471 E2.55117
G1 X163.111 Y140.529 E2.56325
G1 X163.499 Y140.663 E2.57509
G1 X163.854 Y140.868 E2.58691
G1 X164.163 Y141.136 E2.59873
G1 X164.416 Y141.458 E2.61054
G1 X164.604 Y141.822 E2.62236
G1 X164.719 Y142.214 E2.63418
G1 X164.758 Y142.622 E2.64599
G1 X164.719 Y143.030 E2.65781
G1 X164.604 Y143.422 E2.66963
G1 X164.416 Y143.786 E2.68144
G1 X164.163 Y144.108 E2.69326
G1 X163.854 Y144.376 E2.70508
G1 X163.499 Y144.581 E2.71689
G1 X163.112 Y144.715 E2.72871
G1 X162.707 Y144.773 E2.74053
G1 X162.298 Y144.754 E2.75234
G1 X161.900 Y144.657 E2.76416
G1 X161.528 Y144.487 E2.77598
G1 X161.194 Y144.250 E2.78779
G1 X160.912 Y143.953 E2.79961
G1 X160.690 Y143.609 E2.81143
G1 X160.560 Y143.285 E2.82151
G1 X160.777 Y143.159 F6000.000
G1 F1800
G1 X160.709 Y142.803 E2.83196
G1 X160.709 Y142.441 E2.84241
G1 X160.777 Y142.085 E2.85286
G1 X160.912 Y141.749 E2.86331
G1 X161.107 Y141.445 E2.87376
G1 X161.357 Y141.183 E2.88421
G1 X161.652 Y140.973 E2.89466
G1 X161.982 Y140.822 E2.90511
G1 X162.334 Y140.737 E2.91556
G1 X162.686 Y140.720 E2.92573
G1 X163.053 Y140.771 E2.93645
G1 X163.396 Y140.889 E2.94691
G1 X163.709 Y141.071 E2.95736
G1 X163.983 Y141.308 E2.96781
G1 X164.207 Y141.592 E2.97826
G1 X164.373 Y141.914 E2.98871
G1 X164.475 Y142.262 E2.99916
G1 X164.509 Y142.622 E3.00961
G1 X164.475 Y142.982 E3.02006
G1 X164.373 Y143.330 E3.03051
G1 X164.207 Y143.652 E3.04096
G1 X163.983 Y143.936 E3.05141
G1 X163.709 Y144.174 E3.06186
G1 X163.396 Y144.355 E3.07231
G1 X163.054 Y144.473 E3.08276
G1 X162.695 Y144.525 E3.09321
G1 X162.334 Y144.507 E3.10366
G1 X161.982 Y144.422 E3.11411
G1 X161.652 Y144.272 E3.12456
G1 X161.357 Y144.062 E3.13501
G1 X161.107 Y143.799 E3.14546
G1 X160.912 Y143.495 E3.15591
G1 X160.799 Y143.214 E3.16463
G1 X160.777 Y143.159 F6000.000
G1 E1.16463 F2400.00000
G92 E0
G1 X163.614 Y145.996 F6000.000
G1 E2.00000 F2400.00000
G1 F1800
G1 X144.876 Y164.734 E2.76478
G1 X144.401 Y165.145 E2.78289
G1 X143.891 Y165.439 E2.79989
G1 X143.335 Y165.632 E2.81688
G1 X142.752 Y165.716 E2.83387
G1 X142.164 Y165.688 E2.85087
G1 X141.592 Y165.549 E2.86786
G1 X141.056 Y165.304 E2.88485
G1 X140.576 Y164.963 E2.90184
G1 X140.170 Y164.537 E2.91884
G1 X139.862 Y164.057 E2.93530
G1 X139.623 Y163.470 E2.95357
G1 X134.603 Y145.011 E3.50566
G1 X134.295 Y143.415 E3.55254
G1 X134.295 Y141.829 E3.59834
G1 X134.596 Y140.270 E3.64414
G1 X135.185 Y138.797 E3.68993
G1 X136.043 Y137.462 E3.73573
G1 X137.138 Y136.314 E3.78153
G1 X138.431 Y135.393 E3.82732
G1 X139.875 Y134.734 E3.87312
G1 X141.415 Y134.360 E3.91887
G1 X143.048 Y134.291 E3.96603
G1 X144.594 Y134.513 E4.01113
G1 X163.297 Y139.599 E4.57047
G1 X163.891 Y139.805 E4.58862
G1 X164.401 Y140.099 E4.60562
G1 X164.846 Y140.485 E4.62261
G1 X165.210 Y140.948 E4.63960
G1 X165.480 Y141.471 E4.65659
G1 X165.646 Y142.036 E4.67359
G1 X165.702 Y142.622 E4.69058
G1 X165.646 Y143.208 E4.70757
G1 X165.480 Y143.773 E4.72457
G1 X165.210 Y144.297 E4.74156
G1 X164.832 Y144.778 E4.75923
G1 X163.656 Y145.953 E4.80720
G1 X163.789 Y146.171 F6000.000
G1 F1800
G1 X145.045 Y164.915 E5.57223
G1 X144.546 Y165.348 E5.59129
G1 X143.995 Y165.666 E5.60964
G1 X143.394 Y165.874 E5.62800
G1 X142.764 Y165.964 E5.64636
G1 X142.128 Y165.934 E5.66472
G1 X141.510 Y165.784 E5.68308
