; generated by Slic3r 1.3.0 on 2023-07-29 at 15:02:05

; external perimeters extrusion width = 0.44mm (3.19mm^3/s)
; perimeters extrusion width = 0.51mm (7.54mm^3/s)
; infill extrusion width = 0.50mm (9.85mm^3/s)
; solid infill extrusion width = 0.51mm (2.51mm^3/s)
; top infill extrusion width = 0.51mm (1.88mm^3/s)

M107
M190 S63 ; set bed temperature and wait for it to be reached
M104 S203 ; set temperature
G28 ; home all axes
G1 Z5 F5000 ; lift nozzle

; Filament gcode

M109 S203 ; set temperature and wait for it to be reached
G21 ; set units to millimeters
G90 ; use absolute coordinates
M82 ; use absolute distances for extrusion
G92 E0
G1 Z0.280 F6000.000
G1 E-2.00000 F2400.00000
G92 E0
G1 X122.670 Y142.494 F6000.000
G1 E2.00000 F2400.00000
G1 F1800
G1 X123.603 Y141.686 E2.03563
G1 X124.223 Y141.245 E2.05759
G1 X125.309 Y140.620 E2.09373
G1 X125.984 Y140.311 E2.11517
G1 X127.151 Y139.907 E2.15081
G1 X127.890 Y139.728 E2.17275
G1 X129.113 Y139.552 E2.20840
G1 X130.181 Y139.509 E2.23926
G1 X170.181 Y139.509 E3.39364
G1 X171.105 Y139.575 E3.42038
G1 X171.858 Y139.683 E3.44233
G1 X173.059 Y139.974 E3.47797
G1 X173.777 Y140.223 E3.49992
G1 X174.900 Y140.736 E3.53555
G1 X175.559 Y141.116 E3.55751
G1 X176.565 Y141.832 E3.59315
G1 X177.140 Y142.330 E3.61509
G1 X177.992 Y143.224 E3.65073
G1 X178.462 Y143.822 E3.67268
G1 X179.130 Y144.861 E3.70832
G1 X179.478 Y145.537 E3.73026
G1 X179.937 Y146.683 E3.76590
G1 X180.151 Y147.413 E3.78785
G1 X180.385 Y148.626 E3.82349
G1 X180.457 Y149.383 E3.84544
G1 X180.457 Y150.617 E3.88107
G1 X180.385 Y151.375 E3.90302
G1 X180.151 Y152.587 E3.93866
G1 X179.942 Y153.300 E3.96009
G1 X179.478 Y154.463 E3.99624
G1 X179.129 Y155.140 E4.01820
G1 X178.462 Y156.178 E4.05383
G1 X177.992 Y156.776 E4.07578
G1 X177.140 Y157.669 E4.11141
G1 X176.565 Y158.168 E4.13336
G1 X175.559 Y158.884 E4.16900
G1 X174.901 Y159.264 E4.19095
G1 X173.777 Y159.777 E4.22659
G1 X173.059 Y160.026 E4.24853
G1 X171.858 Y160.317 E4.28417
G1 X171.106 Y160.425 E4.30612
G1 X170.181 Y160.491 E4.33287
G1 X130.181 Y160.491 E5.48725
G1 X129.113 Y160.448 E5.51811
G1 X127.890 Y160.272 E5.55375
G1 X127.151 Y160.093 E5.57570
G1 X125.984 Y159.689 E5.61133
G1 X125.292 Y159.373 E5.63328
G1 X124.223 Y158.755 E5.66892
G1 X123.604 Y158.314 E5.69087
G1 X122.670 Y157.506 E5.72651
G1 X122.145 Y156.955 E5.74847
G1 X121.382 Y155.985 E5.78409
G1 X120.981 Y155.360 E5.80553
G1 X120.405 Y154.247 E5.84168
G1 X120.122 Y153.541 E5.86364
G1 X119.775 Y152.356 E5.89926
G1 X119.634 Y151.627 E5.92070
G1 X119.513 Y150.380 E5.95685
G1 X119.513 Y149.620 E5.97879
G1 X119.631 Y148.390 E6.01443
G1 X119.775 Y147.644 E6.03639
G1 X120.122 Y146.459 E6.07202
G1 X120.398 Y145.769 E6.09345
G1 X120.971 Y144.655 E6.12960
G1 X121.382 Y144.015 E6.15155
G1 X122.145 Y143.045 E6.18719
G1 X122.629 Y142.538 E6.20740
G1 X122.850 Y142.665 F6000.000
G1 F1800
G1 X123.762 Y141.877 E6.24219
G1 X124.367 Y141.446 E6.26363
G1 X125.395 Y140.853 E6.29790
G1 X126.087 Y140.537 E6.31985
G1 X127.210 Y140.148 E6.35413
G1 X127.949 Y139.969 E6.37608
G1 X129.124 Y139.800 E6.41036
G1 X130.181 Y139.757 E6.44088
G1 X170.181 Y139.757 E7.59526
G1 X171.070 Y139.820 E7.62098
G1 X171.823 Y139.928 E7.64294
G1 X172.977 Y140.208 E7.67721
G1 X173.696 Y140.457 E7.69916
G1 X174.776 Y140.951 E7.73343
G1 X175.435 Y141.331 E7.75539
G1 X176.403 Y142.020 E7.78967
G1 X176.977 Y142.518 E7.81161
G1 X177.797 Y143.377 E7.84589
G1 X178.267 Y143.975 E7.86784
G1 X178.909 Y144.974 E7.90212
G1 X179.258 Y145.650 E7.92406
G1 X179.699 Y146.753 E7.95834
G1 X179.913 Y147.483 E7.98029
G1 X180.138 Y148.649 E8.01457
G1 X180.211 Y149.406 E8.03652
G1 X180.211 Y150.594 E8.07079
G1 X180.138 Y151.351 E8.09274
G1 X179.913 Y152.517 E8.12702
G1 X179.704 Y153.230 E8.14845
G1 X179.258 Y154.350 E8.18324
G1 X178.909 Y155.026 E8.20520
G1 X178.267 Y156.025 E8.23947
G1 X177.797 Y156.623 E8.26141
G1 X176.978 Y157.482 E8.29569
G1 X176.403 Y157.980 E8.31764
G1 X175.435 Y158.669 E8.35192
G1 X174.777 Y159.049 E8.37387
G1 X173.696 Y159.543 E8.40815
G1 X172.977 Y159.792 E8.43009
G1 X171.823 Y160.072 E8.46437
G1 X171.070 Y160.180 E8.48632
G1 X170.181 Y160.243 E8.51204
G1 X130.181 Y160.243 E9.66642
G1 X129.124 Y160.200 E9.69695
G1 X127.949 Y160.031 E9.73123
G1 X127.210 Y159.852 E9.75318
G1 X126.087 Y159.463 E9.78745
G1 X125.395 Y159.147 E9.80940
G1 X124.367 Y158.553 E9.84368
G1 X123.747 Y158.112 E9.86563
G1 X122.850 Y157.335 E9.89991
G1 X122.325 Y156.784 E9.92187
G1 X121.591 Y155.851 E9.95613
G1 X121.189 Y155.226 E9.97757
G1 X120.635 Y154.155 E10.01236
G1 X120.352 Y153.449 E10.03431
G1 X120.018 Y152.309 E10.06858
G1 X119.877 Y151.580 E10.09002
G1 X119.761 Y150.380 E10.12480
G1 X119.761 Y149.620 E10.14675
G1 X119.874 Y148.437 E10.18103
G1 X120.018 Y147.690 E10.20298
G1 X120.353 Y146.551 E10.23725
G1 X120.629 Y145.861 E10.25869
G1 X121.180 Y144.789 E10.29348
G1 X121.591 Y144.149 E10.31543
G1 X122.325 Y143.216 E10.34970
G1 X122.808 Y142.709 E10.36992
G1 E8.36992 F2400.00000
G92 E0
G1 X151.385 Y151.957 F6000.000
G1 E2.00000 F2400.00000
G1 F1800
G1 X150.989 Y152.186 E2.01318
G1 X150.557 Y152.335 E2.02637
G1 X150.105 Y152.400 E2.03955
G1 X149.649 Y152.378 E2.05273
G1 X149.205 Y152.271 E2.06591
G1 X148.790 Y152.081 E2.07910
G1 X148.417 Y151.816 E2.09228
G1 X148.102 Y151.485 E2.10546
G1 X147.855 Y151.101 E2.11865
G1 X147.685 Y150.677 E2.13183
G1 X147.599 Y150.228 E2.14501
G1 X147.599 Y149.772 E2.15820
G1 X147.685 Y149.323 E2.17138
G1 X147.855 Y148.899 E2.18456
G1 X148.102 Y148.515 E2.19774
G1 X148.417 Y148.184 E2.21093
G1 X148.790 Y147.919 E2.22411
G1 X149.205 Y147.729 E2.23729
G1 X149.649 Y147.622 E2.25048
G1 X150.096 Y147.600 E2.26339
G1 X150.556 Y147.664 E2.27680
G1 X150.989 Y147.814 E2.29002
G1 X151.385 Y148.043 E2.30320
G1 X151.730 Y148.342 E2.31639
G1 X152.012 Y148.701 E2.32957
G1 X152.222 Y149.107 E2.34275
G1 X152.350 Y149.545 E2.35593
G1 X152.394 Y150.000 E2.36912
G1 X152.350 Y150.455 E2.38230
G1 X152.222 Y150.893 E2.39548
G1 X152.012 Y151.299 E2.40867
G1 X151.730 Y151.658 E2.42185
G1 X151.430 Y151.918 E2.43330
G1 X151.240 Y151.754 F6000.000
G1 F1800
G1 X150.886 Y151.959 E2.44512
G1 X150.499 Y152.093 E2.45693
G1 X150.093 Y152.151 E2.46875
G1 X149.684 Y152.132 E2.48057
G1 X149.287 Y152.035 E2.49238
G1 X148.914 Y151.865 E2.50420
G1 X148.581 Y151.628 E2.51602
G1 X148.298 Y151.331 E2.52783
G1 X148.077 Y150.987 E2.53965
G1 X147.924 Y150.607 E2.55147
G1 X147.847 Y150.205 E2.56328
G1 X147.847 Y149.795 E2.57510
G1 X147.924 Y149.393 E2.58692
G1 X148.077 Y149.013 E2.59873
G1 X148.298 Y148.669 E2.61055
G1 X148.581 Y148.372 E2.62237
G1 X148.914 Y148.135 E2.63418
G1 X149.287 Y147.965 E2.64600
G1 X149.684 Y147.868 E2.65782
G1 X150.085 Y147.849 E2.66938
G1 X150.498 Y147.907 E2.68142
G1 X150.886 Y148.041 E2.69326
G1 X151.240 Y148.246 E2.70508
G1 X151.550 Y148.514 E2.71689
G1 X151.803 Y148.836 E2.72871
G1 X151.990 Y149.200 E2.74053
G1 X152.106 Y149.592 E2.75234
G1 X152.145 Y150.000 E2.76416
G1 X152.106 Y150.408 E2.77598
G1 X151.990 Y150.800 E2.78779
G1 X151.803 Y151.164 E2.79961
G1 X151.550 Y151.486 E2.81143
G1 X151.286 Y151.715 E2.82151
G1 X151.096 Y151.552 F6000.000
G1 F1800
G1 X150.782 Y151.733 E2.83196
G1 X150.440 Y151.851 E2.84241
G1 X150.082 Y151.903 E2.85286
G1 X149.720 Y151.885 E2.86331
G1 X149.368 Y151.800 E2.87376
G1 X149.039 Y151.650 E2.88421
G1 X148.744 Y151.439 E2.89466
G1 X148.494 Y151.177 E2.90511
G1 X148.298 Y150.873 E2.91556
G1 X148.163 Y150.537 E2.92601
G1 X148.095 Y150.181 E2.93646
G1 X148.095 Y149.819 E2.94691
G1 X148.163 Y149.463 E2.95736
G1 X148.298 Y149.127 E2.96781
G1 X148.494 Y148.823 E2.97827
G1 X148.744 Y148.561 E2.98872
G1 X149.039 Y148.350 E2.99917
G1 X149.368 Y148.200 E3.00962
G1 X149.720 Y148.115 E3.02007
G1 X150.073 Y148.098 E3.03028
G1 X150.440 Y148.149 E3.04095
G1 X150.782 Y148.267 E3.05141
G1 X151.096 Y148.448 E3.06186
G1 X151.369 Y148.686 E3.07231
G1 X151.593 Y148.970 E3.08276
G1 X151.759 Y149.292 E3.09321
G1 X151.861 Y149.640 E3.10366
G1 X151.896 Y150.000 E3.11411
G1 X151.861 Y150.360 E3.12456
G1 X151.759 Y150.708 E3.13501
G1 X151.593 Y151.030 E3.14546
G1 X151.369 Y151.314 E3.15591
G1 X151.141 Y151.512 E3.16463
G1 X151.096 Y151.552 F6000.000
G1 E1.16463 F2400.00000
G92 E0
G1 X159.599 Y150.228 F6000.000
G1 E2.00000 F2400.00000
G1 F1800
G1 X159.599 Y149.772 E2.01318
G1 X159.685 Y149.323 E2.02637
G1 X159.855 Y148.899 E2.03955
G1 X160.102 Y148.515 E2.05273
G1 X160.417 Y148.184 E2.06591
G1 X160.790 Y147.919 E2.07910
G1 X161.205 Y147.729 E2.09228
G1 X161.649 Y147.622 E2.10546
G1 X162.096 Y147.600 E2.11838
G1 X162.556 Y147.664 E2.13178
G1 X162.989 Y147.814 E2.14501
G1 X163.385 Y148.043 E2.15819
G1 X163.730 Y148.342 E2.17137
G1 X164.012 Y148.701 E2.18456
G1 X164.222 Y149.107 E2.19774
G1 X164.350 Y149.545 E2.21092
G1 X164.394 Y150.000 E2.22411
G1 X164.350 Y150.455 E2.23729
G1 X164.222 Y150.893 E2.25047
G1 X164.012 Y151.299 E2.26365
G1 X163.730 Y151.658 E2.27684
G1 X163.385 Y151.957 E2.29002
G1 X162.989 Y152.186 E2.30320
G1 X162.557 Y152.335 E2.31639
G1 X162.105 Y152.400 E2.32957
G1 X161.649 Y152.378 E2.34275
G1 X161.205 Y152.271 E2.35593
G1 X160.790 Y152.081 E2.36912
G1 X160.417 Y151.816 E2.38230
G1 X160.102 Y151.485 E2.39548
G1 X159.855 Y151.101 E2.40867
G1 X159.685 Y150.677 E2.42185
G1 X159.610 Y150.287 E2.43330
G1 X159.847 Y150.205 F6000.000
G1 F1800
G1 X159.847 Y149.795 E2.44512
G1 X159.924 Y149.393 E2.45693
G1 X160.077 Y149.013 E2.46875
G1 X160.298 Y148.669 E2.48057
G1 X160.581 Y148.372 E2.49238
G1 X160.914 Y148.135 E2.50420
G1 X161.287 Y147.965 E2.51602
G1 X161.684 Y147.868 E2.52783
G1 X162.085 Y147.849 E2.53940
G1 X162.498 Y147.907 E2.55144
G1 X162.886 Y148.041 E2.56328
G1 X163.240 Y148.246 E2.57510
G1 X163.550 Y148.514 E2.58691
G1 X163.803 Y148.836 E2.59873
G1 X163.990 Y149.200 E2.61055
G1 X164.106 Y149.592 E2.62236
G1 X164.145 Y150.000 E2.63418
G1 X164.106 Y150.408 E2.64600
G1 X163.990 Y150.800 E2.65781
G1 X163.803 Y151.164 E2.66963
G1 X163.550 Y151.486 E2.68144
G1 X163.240 Y151.754 E2.69326
G1 X162.886 Y151.959 E2.70508
G1 X162.499 Y152.093 E2.71689
G1 X162.093 Y152.151 E2.72871
G1 X161.684 Y152.132 E2.74053
G1 X161.287 Y152.035 E2.75234
G1 X160.914 Y151.865 E2.76416
G1 X160.581 Y151.628 E2.77598
G1 X160.298 Y151.331 E2.78779
G1 X160.077 Y150.987 E2.79961
G1 X159.924 Y150.607 E2.81143
G1 X159.858 Y150.264 E2.82151
G1 X160.095 Y150.181 F6000.000
G1 F1800
G1 X160.095 Y149.819 E2.83196
G1 X160.163 Y149.463 E2.84241
G1 X160.298 Y149.127 E2.85286
G1 X160.494 Y148.823 E2.86331
G1 X160.744 Y148.561 E2.87376
G1 X161.039 Y148.350 E2.88421
G1 X161.368 Y148.200 E2.89466
G1 X161.720 Y148.115 E2.90511
G1 X162.073 Y148.098 E2.91533
G1 X162.440 Y148.149 E2.92600
G1 X162.782 Y148.267 E2.93646
G1 X163.096 Y148.448 E2.94691
G1 X163.369 Y148.686 E2.95736
G1 X163.593 Y148.970 E2.96781
G1 X163.759 Y149.292 E2.97826
G1 X163.861 Y149.640 E2.98871
G1 X163.896 Y150.000 E2.99916
G1 X163.861 Y150.360 E3.00961
G1 X163.759 Y150.708 E3.02006
G1 X163.593 Y151.030 E3.03051
G1 X163.369 Y151.314 E3.04096
G1 X163.096 Y151.552 E3.05141
G1 X162.782 Y151.733 E3.06186
G1 X162.440 Y151.851 E3.07231
G1 X162.082 Y151.903 E3.08276
G1 X161.720 Y151.885 E3.09321
G1 X161.368 Y151.800 E3.10366
G1 X161.039 Y151.650 E3.11411
G1 X160.744 Y151.439 E3.12456
G1 X160.494 Y151.177 E3.13501
G1 X160.298 Y150.873 E3.14546
G1 X160.163 Y150.537 E3.15591
G1 X160.106 Y150.240 E3.16463
G1 X160.095 Y150.181 F6000.000
G1 E1.16463 F2400.00000
G92 E0
G1 X167.599 Y150.181 F6000.000
G1 E2.00000 F2400.00000
G1 F1800
G1 X167.599 Y149.772 E2.01182
G1 X167.685 Y149.323 E2.02500
G1 X167.855 Y148.899 E2.03818
G1 X168.102 Y148.515 E2.05137
G1 X168.417 Y148.184 E2.06455
G1 X168.790 Y147.919 E2.07773
G1 X169.205 Y147.729 E2.09091
G1 X169.649 Y147.622 E2.10410
G1 X170.096 Y147.600 E2.11701
G1 X170.556 Y147.664 E2.13042
G1 X170.989 Y147.814 E2.14364
G1 X171.385 Y148.043 E2.15682
G1 X171.730 Y148.342 E2.17001
G1 X172.012 Y148.701 E2.18319
G1 X172.222 Y149.107 E2.19637
G1 X172.350 Y149.545 E2.20956
G1 X172.394 Y150.000 E2.22274
G1 X172.350 Y150.455 E2.23592
G1 X172.222 Y150.893 E2.24911
G1 X172.012 Y151.299 E2.26229
G1 X171.730 Y151.658 E2.27547
G1 X171.385 Y151.957 E2.28865
G1 X170.989 Y152.186 E2.30184
G1 X170.557 Y152.335 E2.31502
G1 X170.105 Y152.400 E2.32820
G1 X169.649 Y152.378 E2.34139
G1 X169.205 Y152.271 E2.35457
G1 X168.790 Y152.081 E2.36775
G1 X168.417 Y151.816 E2.38093
G1 X168.102 Y151.485 E2.39412
G1 X167.855 Y151.101 E2.40730
G1 X167.685 Y150.677 E2.42048
G1 X167.601 Y150.241 E2.43330
G1 X167.847 Y150.181 F6000.000
G1 F1800
G1 X167.847 Y149.795 E2.44443
G1 X167.924 Y149.393 E2.45625
G1 X168.077 Y149.013 E2.46807
G1 X168.298 Y148.669 E2.47988
G1 X168.581 Y148.372 E2.49170
G1 X168.914 Y148.135 E2.50352
G1 X169.287 Y147.965 E2.51533
G1 X169.684 Y147.868 E2.52715
G1 X170.085 Y147.849 E2.53872
G1 X170.498 Y147.907 E2.55075
G1 X170.886 Y148.041 E2.56260
G1 X171.240 Y148.246 E2.57441
G1 X171.550 Y148.514 E2.58623
G1 X171.803 Y148.836 E2.59805
G1 X171.990 Y149.200 E2.60986
G1 X172.106 Y149.592 E2.62168
G1 X172.145 Y150.000 E2.63350
G1 X172.106 Y150.408 E2.64531
G1 X171.990 Y150.800 E2.65713
G1 X171.803 Y151.164 E2.66895
G1 X171.550 Y151.486 E2.68076
G1 X171.240 Y151.754 E2.69258
G1 X170.886 Y151.959 E2.70439
G1 X170.499 Y152.093 E2.71621
G1 X170.093 Y152.151 E2.72803
G1 X169.684 Y152.132 E2.73984
G1 X169.287 Y152.035 E2.75166
G1 X168.914 Y151.865 E2.76348
G1 X168.581 Y151.628 E2.77529
G1 X168.298 Y151.331 E2.78711
G1 X168.077 Y150.987 E2.79893
G1 X167.924 Y150.607 E2.81074
G1 X167.854 Y150.240 E2.82151
G1 X168.095 Y150.181 F6000.000
G1 F1800
G1 X168.095 Y149.819 E2.83196
G1 X168.163 Y149.463 E2.84241
G1 X168.298 Y149.127 E2.85286
G1 X168.494 Y148.823 E2.86331
G1 X168.744 Y148.561 E2.87376
G1 X169.039 Y148.350 E2.88421
G1 X169.368 Y148.200 E2.89466
G1 X169.720 Y148.115 E2.90511
G1 X170.073 Y148.098 E2.91533
G1 X170.440 Y148.149 E2.92600
G1 X170.782 Y148.267 E2.93646
G1 X171.096 Y148.448 E2.94691
G1 X171.369 Y148.686 E2.95736
G1 X171.593 Y148.970 E2.96781
G1 X171.759 Y149.292 E2.97826
G1 X171.861 Y149.640 E2.98871
G1 X171.896 Y150.000 E2.99916
G1 X171.861 Y150.360 E3.00961
G1 X171.759 Y150.708 E3.02006
G1 X171.593 Y151.030 E3.03051
G1 X171.369 Y151.314 E3.04096
G1 X171.096 Y151.552 E3.05141
G1 X170.782 Y151.733 E3.06186
G1 X170.440 Y151.851 E3.07231
G1 X170.082 Y151.903 E3.08276
G1 X169.720 Y151.885 E3.09321
G1 X169.368 Y151.800 E3.10366
G1 X169.039 Y151.650 E3.11411
G1 X168.744 Y151.439 E3.12456
G1 X168.494 Y151.177 E3.13501
G1 X168.298 Y150.873 E3.14546
G1 X168.163 Y150.537 E3.15591
G1 X168.106 Y150.240 E3.16463
G1 X168.095 Y150.181 F6000.000
G1 E1.16463 F2400.00000
G92 E0
G1 X132.394 Y150.000 F6000.000
G1 E2.00000 F2400.00000
G1 F1800
G1 X132.350 Y150.455 E2.01318
G1 X132.222 Y150.893 E2.02637
G1 X132.012 Y151.299 E2.03955
G1 X131.730 Y151.658 E2.05273
G1 X131.385 Y151.957 E2.06591
G1 X130.989 Y152.186 E2.07910
G1 X130.557 Y152.335 E2.09228
G1 X130.105 Y152.400 E2.10546
G1 X129.649 Y152.378 E2.11865
G1 X129.205 Y152.271 E2.13183
G1 X128.790 Y152.081 E2.14501
G1 X128.417 Y151.816 E2.15820
G1 X128.102 Y151.485 E2.17138
G1 X127.855 Y151.101 E2.18456
G1 X127.685 Y150.677 E2.19774
G1 X127.599 Y150.228 E2.21093
G1 X127.599 Y149.772 E2.22411
G1 X127.685 Y149.323 E2.23729
G1 X127.855 Y148.899 E2.25048
G1 X128.102 Y148.515 E2.26366
G1 X128.417 Y148.184 E2.27684
G1 X128.790 Y147.919 E2.29002
G1 X129.205 Y147.729 E2.30321
G1 X129.649 Y147.622 E2.31639
G1 X130.096 Y147.600 E2.32931
G1 X130.556 Y147.664 E2.34271
G1 X130.989 Y147.814 E2.35594
G1 X131.385 Y148.043 E2.36912
G1 X131.730 Y148.342 E2.38230
G1 X132.012 Y148.701 E2.39548
G1 X132.222 Y149.107 E2.40867
G1 X132.350 Y149.545 E2.42185
G1 X132.388 Y149.940 E2.43330
G1 X132.145 Y150.000 F6000.000
G1 F1800
G1 X132.106 Y150.408 E2.44512
G1 X131.990 Y150.800 E2.45693
G1 X131.803 Y151.164 E2.46875
G1 X131.550 Y151.486 E2.48057
G1 X131.240 Y151.754 E2.49238
G1 X130.886 Y151.959 E2.50420
G1 X130.499 Y152.093 E2.51602
G1 X130.093 Y152.151 E2.52783
G1 X129.684 Y152.132 E2.53965
G1 X129.287 Y152.035 E2.55147
G1 X128.914 Y151.865 E2.56328
G1 X128.581 Y151.628 E2.57510
G1 X128.298 Y151.331 E2.58692
G1 X128.077 Y150.987 E2.59873
G1 X127.924 Y150.607 E2.61055
