; generated by Slic3r 1.3.0 on 2023-07-29 at 15:01:41

; external perimeters extrusion width = 0.44mm (3.19mm^3/s)
; perimeters extrusion width = 0.51mm (7.54mm^3/s)
; infill extrusion width = 0.50mm (9.85mm^3/s)
; solid infill extrusion width = 0.51mm (2.51mm^3/s)
; top infill extrusion width = 0.51mm (1.88mm^3/s)

M107
M190 S63 ; set bed temperature and wait for it to be reached
M104 S203 ; set temperature
G28 ; home all axes
G1 Z5 F5000 ; lift nozzle

; Filament gcode

M109 S203 ; set temperature and wait for it to be reached
G21 ; set units to millimeters
G90 ; use absolute coordinates
M82 ; use absolute distances for extrusion
G92 E0
G1 Z0.280 F6000.000
G1 E-2.00000 F2400.00000
G92 E0
G1 X110.604 Y141.686 F6000.000
G1 E2.00000 F2400.00000
G1 F1800
G1 X111.223 Y141.245 E2.02195
G1 X112.292 Y140.627 E2.05759
G1 X112.984 Y140.311 E2.07953
G1 X114.151 Y139.907 E2.11517
G1 X114.890 Y139.728 E2.13712
G1 X116.113 Y139.552 E2.17276
G1 X117.148 Y139.509 E2.20267
G1 X157.474 Y139.303 E3.36648
G1 X159.415 Y139.306 E3.42248
G1 X162.170 Y139.403 E3.50205
G1 X175.809 Y140.481 E3.89688
G1 X187.854 Y142.096 E4.24760
G1 X190.017 Y142.786 E4.31314
G1 X191.811 Y144.179 E4.37867
G1 X193.015 Y146.104 E4.44421
G1 X193.487 Y148.534 E4.51564
G1 X193.487 Y151.466 E4.60026
G1 X193.090 Y153.702 E4.66580
G1 X191.948 Y155.665 E4.73133
G1 X190.200 Y157.114 E4.79687
G1 X187.854 Y157.904 E4.86830
G1 X175.809 Y159.519 E5.21903
G1 X162.170 Y160.597 E5.61386
G1 X159.204 Y160.697 E5.69952
G1 X117.148 Y160.491 E6.91324
G1 X116.113 Y160.448 E6.94315
G1 X114.890 Y160.272 E6.97879
G1 X114.151 Y160.093 E7.00073
G1 X112.984 Y159.689 E7.03637
G1 X112.292 Y159.373 E7.05832
G1 X111.223 Y158.755 E7.09396
G1 X110.604 Y158.314 E7.11590
G1 X109.670 Y157.506 E7.15154
G1 X109.145 Y156.955 E7.17350
G1 X108.382 Y155.985 E7.20913
G1 X107.971 Y155.345 E7.23108
G1 X107.405 Y154.247 E7.26672
G1 X107.122 Y153.541 E7.28867
G1 X106.775 Y152.356 E7.32430
G1 X106.634 Y151.627 E7.34575
G1 X106.513 Y150.380 E7.38188
G1 X106.513 Y149.620 E7.40383
G1 X106.631 Y148.390 E7.43947
G1 X106.775 Y147.644 E7.46142
G1 X107.122 Y146.459 E7.49706
G1 X107.398 Y145.769 E7.51849
G1 X107.971 Y144.655 E7.55464
G1 X108.382 Y144.015 E7.57659
G1 X109.145 Y143.045 E7.61223
G1 X109.670 Y142.494 E7.63417
G1 X110.558 Y141.725 E7.66808
G1 X110.747 Y141.888 F6000.000
G1 F1800
G1 X111.367 Y141.447 E7.69003
G1 X112.395 Y140.853 E7.72431
G1 X113.087 Y140.537 E7.74625
G1 X114.210 Y140.148 E7.78053
G1 X114.949 Y139.969 E7.80248
G1 X116.124 Y139.800 E7.83676
G1 X117.149 Y139.757 E7.86636
G1 X159.407 Y139.554 E9.08590
G1 X162.151 Y139.650 E9.16514
G1 X175.776 Y140.727 E9.55958
G1 X187.821 Y142.341 E9.91031
G1 X189.940 Y143.026 E9.97457
G1 X191.684 Y144.410 E10.03883
G1 X192.833 Y146.318 E10.10309
G1 X193.239 Y148.534 E10.16812
G1 X193.239 Y151.466 E10.25275
G1 X192.842 Y153.657 E10.31701
G1 X191.702 Y155.570 E10.38127
G1 X189.964 Y156.962 E10.44553
G1 X187.821 Y157.659 E10.51056
G1 X175.776 Y159.273 E10.86129
G1 X162.151 Y160.350 E11.25572
G1 X159.204 Y160.449 E11.34083
G1 X117.149 Y160.243 E12.55450
G1 X116.124 Y160.200 E12.58411
G1 X114.949 Y160.031 E12.61839
G1 X114.210 Y159.852 E12.64034
G1 X113.087 Y159.463 E12.67461
G1 X112.395 Y159.147 E12.69656
G1 X111.367 Y158.553 E12.73084
G1 X110.747 Y158.112 E12.75279
G1 X109.850 Y157.335 E12.78707
G1 X109.325 Y156.784 E12.80902
G1 X108.591 Y155.851 E12.84329
G1 X108.179 Y155.211 E12.86524
G1 X107.635 Y154.155 E12.89952
G1 X107.352 Y153.449 E12.92148
G1 X107.018 Y152.309 E12.95574
G1 X106.877 Y151.580 E12.97718
G1 X106.761 Y150.380 E13.01197
G1 X106.761 Y149.620 E13.03391
G1 X106.874 Y148.437 E13.06819
G1 X107.018 Y147.691 E13.09014
G1 X107.353 Y146.551 E13.12442
G1 X107.629 Y145.861 E13.14585
G1 X108.180 Y144.789 E13.18064
G1 X108.591 Y144.149 E13.20260
G1 X109.325 Y143.216 E13.23687
G1 X109.850 Y142.665 E13.25881
G1 X110.702 Y141.927 E13.29136
G1 E11.29136 F2400.00000
G92 E0
G1 X138.385 Y151.957 F6000.000
G1 E2.00000 F2400.00000
G1 F1800
G1 X137.989 Y152.186 E2.01318
G1 X137.557 Y152.335 E2.02637
G1 X137.105 Y152.400 E2.03955
G1 X136.649 Y152.378 E2.05273
G1 X136.205 Y152.271 E2.06591
G1 X135.790 Y152.081 E2.07910
G1 X135.417 Y151.816 E2.09228
G1 X135.102 Y151.485 E2.10546
G1 X134.855 Y151.101 E2.11865
G1 X134.685 Y150.677 E2.13183
G1 X134.599 Y150.228 E2.14501
G1 X134.599 Y149.772 E2.15819
G1 X134.685 Y149.323 E2.17138
G1 X134.855 Y148.899 E2.18456
G1 X135.102 Y148.515 E2.19774
G1 X135.417 Y148.184 E2.21093
G1 X135.790 Y147.919 E2.22411
G1 X136.205 Y147.729 E2.23729
G1 X136.649 Y147.622 E2.25048
G1 X137.096 Y147.600 E2.26339
G1 X137.556 Y147.664 E2.27680
G1 X137.989 Y147.814 E2.29002
G1 X138.385 Y148.043 E2.30320
G1 X138.730 Y148.342 E2.31639
G1 X139.012 Y148.701 E2.32957
G1 X139.222 Y149.107 E2.34275
G1 X139.350 Y149.545 E2.35593
G1 X139.394 Y150.000 E2.36912
G1 X139.350 Y150.455 E2.38230
G1 X139.222 Y150.893 E2.39548
G1 X139.012 Y151.299 E2.40867
G1 X138.730 Y151.658 E2.42185
G1 X138.430 Y151.918 E2.43330
G1 X138.240 Y151.754 F6000.000
G1 F1800
G1 X137.886 Y151.959 E2.44512
G1 X137.499 Y152.093 E2.45693
G1 X137.093 Y152.151 E2.46875
G1 X136.684 Y152.132 E2.48057
G1 X136.287 Y152.035 E2.49238
G1 X135.914 Y151.865 E2.50420
G1 X135.581 Y151.628 E2.51602
G1 X135.298 Y151.331 E2.52783
G1 X135.077 Y150.987 E2.53965
G1 X134.924 Y150.607 E2.55147
G1 X134.847 Y150.205 E2.56328
G1 X134.847 Y149.795 E2.57510
G1 X134.924 Y149.393 E2.58692
G1 X135.077 Y149.013 E2.59873
G1 X135.298 Y148.669 E2.61055
G1 X135.581 Y148.372 E2.62237
G1 X135.914 Y148.135 E2.63418
G1 X136.287 Y147.965 E2.64600
G1 X136.684 Y147.868 E2.65782
G1 X137.085 Y147.849 E2.66938
G1 X137.498 Y147.907 E2.68142
G1 X137.886 Y148.041 E2.69326
G1 X138.240 Y148.246 E2.70508
G1 X138.550 Y148.514 E2.71689
G1 X138.803 Y148.836 E2.72871
G1 X138.990 Y149.200 E2.74053
G1 X139.106 Y149.592 E2.75234
G1 X139.145 Y150.000 E2.76416
G1 X139.106 Y150.408 E2.77598
G1 X138.990 Y150.800 E2.78779
G1 X138.803 Y151.164 E2.79961
G1 X138.550 Y151.486 E2.81143
G1 X138.286 Y151.715 E2.82151
G1 X138.096 Y151.552 F6000.000
G1 F1800
G1 X137.782 Y151.733 E2.83196
G1 X137.440 Y151.851 E2.84241
G1 X137.082 Y151.903 E2.85286
G1 X136.720 Y151.885 E2.86331
G1 X136.368 Y151.800 E2.87376
G1 X136.039 Y151.650 E2.88421
G1 X135.744 Y151.439 E2.89466
G1 X135.494 Y151.177 E2.90511
G1 X135.298 Y150.873 E2.91556
G1 X135.163 Y150.537 E2.92601
G1 X135.095 Y150.181 E2.93646
G1 X135.095 Y149.819 E2.94691
G1 X135.163 Y149.463 E2.95736
G1 X135.298 Y149.127 E2.96781
G1 X135.494 Y148.823 E2.97827
G1 X135.744 Y148.561 E2.98872
G1 X136.039 Y148.350 E2.99917
G1 X136.368 Y148.200 E3.00962
G1 X136.720 Y148.115 E3.02007
G1 X137.073 Y148.098 E3.03028
G1 X137.440 Y148.149 E3.04095
G1 X137.782 Y148.267 E3.05141
G1 X138.096 Y148.448 E3.06186
G1 X138.369 Y148.686 E3.07231
G1 X138.593 Y148.970 E3.08276
G1 X138.759 Y149.292 E3.09321
G1 X138.861 Y149.640 E3.10366
G1 X138.896 Y150.000 E3.11411
G1 X138.861 Y150.360 E3.12456
G1 X138.759 Y150.708 E3.13501
G1 X138.593 Y151.030 E3.14546
G1 X138.369 Y151.314 E3.15591
G1 X138.141 Y151.512 E3.16463
G1 X138.096 Y151.552 F6000.000
G1 E1.16463 F2400.00000
G92 E0
G1 X146.599 Y150.228 F6000.000
G1 E2.00000 F2400.00000
G1 F1800
G1 X146.599 Y149.772 E2.01318
G1 X146.685 Y149.323 E2.02637
G1 X146.855 Y148.899 E2.03955
G1 X147.102 Y148.515 E2.05273
G1 X147.417 Y148.184 E2.06591
G1 X147.790 Y147.919 E2.07910
G1 X148.205 Y147.729 E2.09228
G1 X148.649 Y147.622 E2.10546
G1 X149.105 Y147.600 E2.11865
G1 X149.557 Y147.665 E2.13183
G1 X149.989 Y147.814 E2.14501
G1 X150.385 Y148.043 E2.15819
G1 X150.730 Y148.342 E2.17138
G1 X151.012 Y148.701 E2.18456
G1 X151.222 Y149.107 E2.19774
G1 X151.350 Y149.545 E2.21093
G1 X151.394 Y150.000 E2.22411
G1 X151.350 Y150.455 E2.23729
G1 X151.222 Y150.893 E2.25048
G1 X151.012 Y151.299 E2.26366
G1 X150.730 Y151.658 E2.27684
G1 X150.385 Y151.957 E2.29002
G1 X149.989 Y152.186 E2.30321
G1 X149.557 Y152.335 E2.31639
G1 X149.105 Y152.400 E2.32957
G1 X148.649 Y152.378 E2.34276
G1 X148.205 Y152.271 E2.35594
G1 X147.790 Y152.081 E2.36912
G1 X147.417 Y151.816 E2.38230
G1 X147.102 Y151.485 E2.39549
G1 X146.855 Y151.101 E2.40867
G1 X146.685 Y150.677 E2.42185
G1 X146.610 Y150.287 E2.43330
G1 X146.847 Y150.205 F6000.000
G1 F1800
G1 X146.847 Y149.795 E2.44512
G1 X146.924 Y149.393 E2.45694
G1 X147.077 Y149.013 E2.46875
G1 X147.298 Y148.669 E2.48057
G1 X147.581 Y148.372 E2.49239
G1 X147.914 Y148.135 E2.50420
G1 X148.287 Y147.965 E2.51602
G1 X148.684 Y147.868 E2.52784
G1 X149.093 Y147.849 E2.53965
G1 X149.499 Y147.907 E2.55147
G1 X149.886 Y148.041 E2.56329
G1 X150.240 Y148.246 E2.57510
G1 X150.550 Y148.514 E2.58692
G1 X150.803 Y148.836 E2.59874
G1 X150.990 Y149.200 E2.61055
G1 X151.106 Y149.592 E2.62237
G1 X151.145 Y150.000 E2.63419
G1 X151.106 Y150.408 E2.64600
G1 X150.990 Y150.800 E2.65782
G1 X150.803 Y151.164 E2.66964
G1 X150.550 Y151.486 E2.68145
G1 X150.240 Y151.754 E2.69327
G1 X149.886 Y151.959 E2.70509
G1 X149.499 Y152.093 E2.71690
G1 X149.093 Y152.151 E2.72872
G1 X148.684 Y152.132 E2.74054
G1 X148.287 Y152.035 E2.75235
G1 X147.914 Y151.865 E2.76417
G1 X147.581 Y151.628 E2.77599
G1 X147.298 Y151.331 E2.78780
G1 X147.077 Y150.987 E2.79962
G1 X146.924 Y150.607 E2.81144
G1 X146.858 Y150.264 E2.82152
G1 X147.095 Y150.181 F6000.000
G1 F1800
G1 X147.095 Y149.819 E2.83197
G1 X147.163 Y149.463 E2.84242
G1 X147.298 Y149.127 E2.85287
G1 X147.494 Y148.823 E2.86332
G1 X147.744 Y148.561 E2.87377
G1 X148.039 Y148.350 E2.88422
G1 X148.368 Y148.200 E2.89467
G1 X148.720 Y148.115 E2.90512
G1 X149.082 Y148.097 E2.91557
G1 X149.440 Y148.149 E2.92602
G1 X149.782 Y148.267 E2.93647
G1 X150.096 Y148.448 E2.94692
G1 X150.369 Y148.686 E2.95737
G1 X150.593 Y148.970 E2.96782
G1 X150.759 Y149.292 E2.97827
G1 X150.861 Y149.640 E2.98872
G1 X150.896 Y150.000 E2.99917
G1 X150.861 Y150.360 E3.00962
G1 X150.759 Y150.708 E3.02007
G1 X150.593 Y151.030 E3.03052
G1 X150.369 Y151.314 E3.04097
G1 X150.096 Y151.552 E3.05142
G1 X149.782 Y151.733 E3.06187
G1 X149.440 Y151.851 E3.07233
G1 X149.082 Y151.903 E3.08278
G1 X148.720 Y151.885 E3.09323
G1 X148.368 Y151.800 E3.10368
G1 X148.039 Y151.650 E3.11413
G1 X147.744 Y151.439 E3.12458
G1 X147.494 Y151.177 E3.13503
G1 X147.298 Y150.873 E3.14548
G1 X147.163 Y150.537 E3.15593
G1 X147.106 Y150.240 E3.16465
G1 X147.095 Y150.181 F6000.000
G1 E1.16465 F2400.00000
G92 E0
G1 X154.599 Y150.181 F6000.000
G1 E2.00000 F2400.00000
G1 F1800
G1 X154.599 Y149.772 E2.01182
G1 X154.685 Y149.323 E2.02500
G1 X154.855 Y148.899 E2.03818
G1 X155.102 Y148.515 E2.05137
G1 X155.417 Y148.184 E2.06455
G1 X155.790 Y147.919 E2.07773
G1 X156.205 Y147.729 E2.09091
G1 X156.649 Y147.622 E2.10410
G1 X157.105 Y147.600 E2.11728
G1 X157.557 Y147.665 E2.13046
G1 X157.989 Y147.814 E2.14365
G1 X158.385 Y148.043 E2.15683
G1 X158.730 Y148.342 E2.17001
G1 X159.012 Y148.701 E2.18319
G1 X159.222 Y149.107 E2.19638
G1 X159.350 Y149.545 E2.20956
G1 X159.394 Y150.000 E2.22274
G1 X159.350 Y150.455 E2.23593
G1 X159.222 Y150.893 E2.24911
G1 X159.012 Y151.299 E2.26229
G1 X158.730 Y151.658 E2.27548
G1 X158.385 Y151.957 E2.28866
G1 X157.989 Y152.186 E2.30184
G1 X157.557 Y152.335 E2.31502
G1 X157.105 Y152.400 E2.32821
G1 X156.649 Y152.378 E2.34139
G1 X156.205 Y152.271 E2.35457
G1 X155.790 Y152.081 E2.36776
G1 X155.417 Y151.816 E2.38094
G1 X155.102 Y151.485 E2.39412
G1 X154.855 Y151.101 E2.40730
G1 X154.685 Y150.677 E2.42049
G1 X154.601 Y150.241 E2.43330
G1 X154.847 Y150.181 F6000.000
G1 F1800
G1 X154.847 Y149.795 E2.44444
G1 X154.924 Y149.393 E2.45625
G1 X155.077 Y149.013 E2.46807
G1 X155.298 Y148.669 E2.47989
G1 X155.581 Y148.372 E2.49170
G1 X155.914 Y148.135 E2.50352
G1 X156.287 Y147.965 E2.51534
G1 X156.684 Y147.868 E2.52715
G1 X157.093 Y147.849 E2.53897
G1 X157.499 Y147.907 E2.55079
G1 X157.886 Y148.041 E2.56260
G1 X158.240 Y148.246 E2.57442
G1 X158.550 Y148.514 E2.58624
G1 X158.803 Y148.836 E2.59805
G1 X158.990 Y149.200 E2.60987
G1 X159.106 Y149.592 E2.62169
G1 X159.145 Y150.000 E2.63350
G1 X159.106 Y150.408 E2.64532
G1 X158.990 Y150.800 E2.65714
G1 X158.803 Y151.164 E2.66895
G1 X158.550 Y151.486 E2.68077
G1 X158.240 Y151.754 E2.69259
G1 X157.886 Y151.959 E2.70440
G1 X157.499 Y152.093 E2.71622
G1 X157.093 Y152.151 E2.72804
G1 X156.684 Y152.132 E2.73985
G1 X156.287 Y152.035 E2.75167
G1 X155.914 Y151.865 E2.76349
G1 X155.581 Y151.628 E2.77530
G1 X155.298 Y151.331 E2.78712
G1 X155.077 Y150.987 E2.79894
G1 X154.924 Y150.607 E2.81075
G1 X154.854 Y150.240 E2.82152
G1 X155.095 Y150.181 F6000.000
G1 F1800
G1 X155.095 Y149.819 E2.83197
G1 X155.163 Y149.463 E2.84242
G1 X155.298 Y149.127 E2.85287
G1 X155.494 Y148.823 E2.86332
G1 X155.744 Y148.561 E2.87377
G1 X156.039 Y148.350 E2.88422
G1 X156.368 Y148.200 E2.89467
G1 X156.720 Y148.115 E2.90512
G1 X157.082 Y148.097 E2.91557
G1 X157.440 Y148.149 E2.92602
G1 X157.782 Y148.267 E2.93647
G1 X158.096 Y148.448 E2.94692
G1 X158.369 Y148.686 E2.95737
G1 X158.593 Y148.970 E2.96782
G1 X158.759 Y149.292 E2.97827
G1 X158.861 Y149.640 E2.98872
G1 X158.896 Y150.000 E2.99917
G1 X158.861 Y150.360 E3.00962
G1 X158.759 Y150.708 E3.02007
G1 X158.593 Y151.030 E3.03052
G1 X158.369 Y151.314 E3.04097
G1 X158.096 Y151.552 E3.05142
G1 X157.782 Y151.733 E3.06187
G1 X157.440 Y151.851 E3.07232
G1 X157.082 Y151.903 E3.08278
G1 X156.720 Y151.885 E3.09323
G1 X156.368 Y151.800 E3.10368
G1 X156.039 Y151.650 E3.11413
G1 X155.744 Y151.439 E3.12458
G1 X155.494 Y151.177 E3.13503
G1 X155.298 Y150.873 E3.14548
G1 X155.163 Y150.537 E3.15593
G1 X155.106 Y150.240 E3.16465
G1 X155.095 Y150.181 F6000.000
G1 E1.16465 F2400.00000
G92 E0
G1 X119.394 Y150.000 F6000.000
G1 E2.00000 F2400.00000
G1 F1800
G1 X119.350 Y150.455 E2.01318
G1 X119.222 Y150.893 E2.02637
G1 X119.012 Y151.299 E2.03955
G1 X118.730 Y151.658 E2.05273
G1 X118.385 Y151.957 E2.06591
G1 X117.989 Y152.186 E2.07910
G1 X117.557 Y152.335 E2.09228
G1 X117.105 Y152.400 E2.10546
G1 X116.649 Y152.378 E2.11865
G1 X116.205 Y152.271 E2.13183
G1 X115.790 Y152.081 E2.14501
G1 X115.417 Y151.816 E2.15820
G1 X115.102 Y151.485 E2.17138
G1 X114.855 Y151.101 E2.18456
G1 X114.685 Y150.677 E2.19774
G1 X114.599 Y150.228 E2.21093
G1 X114.599 Y149.772 E2.22411
G1 X114.685 Y149.323 E2.23729
G1 X114.855 Y148.899 E2.25048
G1 X115.102 Y148.515 E2.26366
G1 X115.417 Y148.184 E2.27684
G1 X115.790 Y147.919 E2.29002
G1 X116.205 Y147.729 E2.30321
G1 X116.649 Y147.622 E2.31639
G1 X117.096 Y147.600 E2.32931
G1 X117.556 Y147.664 E2.34271
G1 X117.989 Y147.814 E2.35594
G1 X118.385 Y148.043 E2.36912
G1 X118.730 Y148.342 E2.38230
G1 X119.012 Y148.701 E2.39548
G1 X119.222 Y149.107 E2.40867
G1 X119.350 Y149.545 E2.42185
G1 X119.388 Y149.940 E2.43330
G1 X119.145 Y150.000 F6000.000
G1 F1800
G1 X119.106 Y150.408 E2.44512
G1 X118.990 Y150.800 E2.45693
G1 X118.803 Y151.164 E2.46875
G1 X118.550 Y151.486 E2.48057
G1 X118.240 Y151.754 E2.49238
G1 X117.886 Y151.959 E2.50420
G1 X117.499 Y152.093 E2.51602
G1 X117.093 Y152.151 E2.52783
G1 X116.684 Y152.132 E2.53965
G1 X116.287 Y152.035 E2.55147
G1 X115.914 Y151.865 E2.56328
G1 X115.581 Y151.628 E2.57510
G1 X115.298 Y151.331 E2.58692
G1 X115.077 Y150.987 E2.59873
G1 X114.924 Y150.607 E2.61055
G1 X114.847 Y150.205 E2.62237
G1 X114.847 Y149.795 E2.63418
G1 X114.924 Y149.393 E2.64600
G1 X115.077 Y149.013 E2.65782
G1 X115.298 Y148.669 E2.66963
G1 X115.581 Y148.372 E2.68145
G1 X115.914 Y148.135 E2.69327
G1 X116.287 Y147.965 E2.70508
G1 X116.684 Y147.868 E2.71690
G1 X117.085 Y147.849 E2.72847
G1 X117.498 Y147.907 E2.74050
G1 X117.886 Y148.041 E2.75234
G1 X118.240 Y148.246 E2.76416
G1 X118.550 Y148.514 E2.77598
G1 X118.803 Y148.836 E2.78779
G1 X118.990 Y149.200 E2.79961
G1 X119.106 Y149.592 E2.81143
G1 X119.139 Y149.940 E2.82151
G1 X118.896 Y150.000 F6000.000
G1 F1800
G1 X118.861 Y150.360 E2.83196
G1 X118.759 Y150.708 E2.84241
G1 X118.593 Y151.030 E2.85286
G1 X118.369 Y151.314 E2.86331
G1 X118.096 Y151.552 E2.87376
G1 X117.782 Y151.733 E2.88421
G1 X117.440 Y151.851 E2.89466
G1 X117.082 Y151.903 E2.90511
G1 X116.720 Y151.885 E2.91556
G1 X116.368 Y151.800 E2.92601
G1 X116.039 Y151.650 E2.93646
G1 X115.744 Y151.439 E2.94691
G1 X115.494 Y151.177 E2.95736
G1 X115.298 Y150.873 E2.96782
