; generated by Slic3r 1.3.0 on 2024-03-04 at 20:56:00

; external perimeters extrusion width = 0.44mm (3.19mm^3/s)
; perimeters extrusion width = 0.51mm (7.54mm^3/s)
; infill extrusion width = 0.50mm (9.85mm^3/s)
; solid infill extrusion width = 0.51mm (2.51mm^3/s)
; top infill extrusion width = 0.51mm (1.88mm^3/s)

M107
M190 S63 ; set bed temperature and wait for it to be reached
M104 S203 ; set temperature
G28 ; home all axes
G1 Z5 F5000 ; lift nozzle

; Filament gcode

M109 S203 ; set temperature and wait for it to be reached
G21 ; set units to millimeters
G90 ; use absolute coordinates
M82 ; use absolute distances for extrusion
G92 E0
G1 Z0.280 F6000.000
G1 E-2.00000 F2400.00000
G92 E0
G1 X108.693 Y123.452 F6000.000
G1 E2.00000 F2400.00000
G1 F1800
G1 X110.441 Y122.002 E2.06553
G1 X113.650 Y121.154 E2.16131
G1 X129.650 Y121.154 E2.62306
G1 X186.465 Y122.155 E4.26296
G1 X188.693 Y122.591 E4.32849
G1 X190.635 Y123.768 E4.39403
G1 X192.054 Y125.541 E4.45956
G1 X192.846 Y128.650 E4.55214
G1 X192.846 Y172.350 E5.81330
G1 X192.449 Y174.586 E5.87884
G1 X191.307 Y176.548 E5.94437
G1 X189.559 Y177.998 E6.00991
G1 X186.350 Y178.846 E6.10568
G1 X170.350 Y178.846 E6.56743
G1 X168.114 Y178.449 E6.63297
G1 X166.562 Y177.627 E6.68365
G1 X109.862 Y136.927 E8.69791
G1 X108.277 Y135.301 E8.76344
G1 X107.349 Y133.228 E8.82898
G1 X107.154 Y131.650 E8.87488
G1 X107.154 Y127.650 E8.99031
G1 X107.551 Y125.414 E9.05585
G1 X108.663 Y123.503 E9.11965
G1 X108.939 Y123.546 F6000.000
G1 F1800
G1 X110.677 Y122.155 E9.18391
G1 X113.650 Y121.402 E9.27241
G1 X129.650 Y121.402 E9.73416
G1 X186.460 Y122.403 E11.37393
G1 X188.644 Y122.838 E11.43819
G1 X190.536 Y124.012 E11.50246
G1 X191.897 Y125.775 E11.56672
G1 X192.598 Y128.650 E11.65213
G1 X192.598 Y172.350 E12.91329
G1 X192.201 Y174.541 E12.97755
G1 X191.061 Y176.454 E13.04181
G1 X189.323 Y177.845 E13.10608
G1 X186.350 Y178.598 E13.19457
G1 X170.350 Y178.598 E13.65633
G1 X168.159 Y178.201 E13.72059
G1 X166.707 Y177.426 E13.76810
G1 X110.007 Y136.726 E15.78236
G1 X108.458 Y135.126 E15.84662
G1 X107.569 Y133.084 E15.91088
G1 X107.402 Y131.650 E15.95255
G1 X107.402 Y127.650 E16.06799
G1 X107.799 Y125.459 E16.13225
G1 X108.908 Y123.598 E16.19478
G1 E14.19478 F2400.00000
G92 E0
G1 X174.741 Y168.323 F6000.000
G1 E2.00000 F2400.00000
G1 F1800
G1 X174.640 Y168.381 E2.00336
G1 X174.299 Y168.499 E2.01380
G1 X173.941 Y168.551 E2.02424
G1 X173.579 Y168.533 E2.03468
G1 X173.228 Y168.448 E2.04512
G1 X172.899 Y168.298 E2.05555
G1 X172.604 Y168.088 E2.06599
G1 X172.354 Y167.826 E2.07643
G1 X172.159 Y167.522 E2.08687
G1 X172.024 Y167.186 E2.09731
G1 X171.956 Y166.831 E2.10775
G1 X171.956 Y166.469 E2.11819
G1 X172.024 Y166.114 E2.12863
G1 X172.159 Y165.778 E2.13907
G1 X172.354 Y165.474 E2.14951
G1 X172.604 Y165.212 E2.15995
G1 X172.899 Y165.002 E2.17039
G1 X173.228 Y164.852 E2.18083
G1 X173.579 Y164.767 E2.19127
G1 X173.941 Y164.749 E2.20171
G1 X174.299 Y164.801 E2.21215
G1 X174.640 Y164.919 E2.22259
G1 X174.954 Y165.100 E2.23303
G1 X175.227 Y165.337 E2.24347
G1 X175.451 Y165.621 E2.25391
G1 X175.616 Y165.943 E2.26435
G1 X175.718 Y166.290 E2.27479
G1 X175.753 Y166.650 E2.28523
G1 X175.718 Y167.010 E2.29567
G1 X175.616 Y167.357 E2.30611
G1 X175.451 Y167.679 E2.31655
G1 X175.227 Y167.963 E2.32699
G1 X174.954 Y168.200 E2.33743
G1 X174.793 Y168.293 E2.34278
G1 X174.617 Y168.108 F6000.000
G1 F1800
G1 X174.537 Y168.154 E2.34545
G1 X174.240 Y168.257 E2.35452
G1 X173.929 Y168.302 E2.36360
G1 X173.615 Y168.287 E2.37267
G1 X173.309 Y168.213 E2.38174
G1 X173.023 Y168.082 E2.39082
G1 X172.767 Y167.900 E2.39989
G1 X172.550 Y167.672 E2.40896
G1 X172.380 Y167.408 E2.41804
G1 X172.263 Y167.116 E2.42711
G1 X172.204 Y166.807 E2.43618
G1 X172.204 Y166.493 E2.44526
G1 X172.263 Y166.184 E2.45433
G1 X172.380 Y165.892 E2.46340
G1 X172.550 Y165.628 E2.47248
G1 X172.767 Y165.400 E2.48155
G1 X173.023 Y165.218 E2.49062
G1 X173.309 Y165.087 E2.49970
G1 X173.615 Y165.013 E2.50877
G1 X173.929 Y164.998 E2.51784
G1 X174.240 Y165.043 E2.52692
G1 X174.537 Y165.146 E2.53599
G1 X174.809 Y165.303 E2.54506
G1 X175.047 Y165.509 E2.55414
G1 X175.241 Y165.756 E2.56321
G1 X175.385 Y166.035 E2.57228
G1 X175.474 Y166.337 E2.58136
G1 X175.504 Y166.650 E2.59043
G1 X175.474 Y166.963 E2.59950
G1 X175.385 Y167.265 E2.60858
G1 X175.241 Y167.544 E2.61765
G1 X175.047 Y167.791 E2.62672
G1 X174.809 Y167.997 E2.63580
G1 X174.669 Y168.078 E2.64046
G1 X174.493 Y167.893 F6000.000
G1 F1800
G1 X174.181 Y168.015 E2.65013
G1 X173.917 Y168.053 E2.65784
G1 X173.650 Y168.040 E2.66555
G1 X173.391 Y167.977 E2.67325
G1 X173.148 Y167.867 E2.68096
G1 X172.930 Y167.712 E2.68867
G1 X172.746 Y167.518 E2.69637
G1 X172.601 Y167.294 E2.70408
G1 X172.502 Y167.046 E2.71179
G1 X172.452 Y166.784 E2.71950
G1 X172.452 Y166.516 E2.72720
G1 X172.502 Y166.254 E2.73491
G1 X172.601 Y166.006 E2.74262
G1 X172.746 Y165.782 E2.75032
G1 X172.930 Y165.588 E2.75803
G1 X173.148 Y165.433 E2.76574
G1 X173.391 Y165.323 E2.77344
G1 X173.650 Y165.260 E2.78115
G1 X173.917 Y165.247 E2.78886
G1 X174.181 Y165.285 E2.79656
G1 X174.434 Y165.372 E2.80427
G1 X174.665 Y165.506 E2.81198
G1 X174.867 Y165.681 E2.81969
G1 X175.032 Y165.891 E2.82739
G1 X175.154 Y166.128 E2.83510
G1 X175.229 Y166.384 E2.84281
G1 X175.255 Y166.650 E2.85051
G1 X175.229 Y166.916 E2.85822
G1 X175.154 Y167.172 E2.86593
G1 X175.032 Y167.409 E2.87363
G1 X174.867 Y167.619 E2.88134
G1 X174.665 Y167.794 E2.88905
G1 X174.545 Y167.863 E2.89303
G1 X174.496 Y167.962 F6000.000
G1 E0.89303 F2400.00000
G92 E0
G1 X173.941 Y158.551 F6000.000
G1 E2.00000 F2400.00000
G1 F1800
G1 X173.579 Y158.533 E2.01044
G1 X173.228 Y158.448 E2.02088
G1 X172.899 Y158.298 E2.03132
G1 X172.604 Y158.088 E2.04176
G1 X172.354 Y157.826 E2.05220
G1 X172.159 Y157.522 E2.06264
G1 X172.024 Y157.186 E2.07308
G1 X171.956 Y156.831 E2.08352
G1 X171.956 Y156.469 E2.09396
G1 X172.024 Y156.114 E2.10440
G1 X172.159 Y155.778 E2.11484
G1 X172.354 Y155.474 E2.12528
G1 X172.604 Y155.212 E2.13571
G1 X172.899 Y155.002 E2.14615
G1 X173.228 Y154.852 E2.15659
G1 X173.579 Y154.767 E2.16703
G1 X173.941 Y154.749 E2.17747
G1 X174.299 Y154.801 E2.18791
G1 X174.640 Y154.919 E2.19835
G1 X174.954 Y155.100 E2.20879
G1 X175.227 Y155.337 E2.21923
G1 X175.451 Y155.621 E2.22967
G1 X175.616 Y155.943 E2.24011
G1 X175.718 Y156.290 E2.25055
G1 X175.753 Y156.650 E2.26099
G1 X175.718 Y157.010 E2.27143
G1 X175.616 Y157.357 E2.28187
G1 X175.451 Y157.679 E2.29231
G1 X175.227 Y157.963 E2.30275
G1 X174.954 Y158.200 E2.31319
G1 X174.640 Y158.381 E2.32363
G1 X174.299 Y158.499 E2.33407
G1 X174.000 Y158.542 E2.34278
G1 X173.929 Y158.302 F6000.000
G1 F1800
G1 X173.615 Y158.287 E2.35185
G1 X173.309 Y158.213 E2.36092
G1 X173.023 Y158.082 E2.37000
G1 X172.767 Y157.900 E2.37907
G1 X172.550 Y157.672 E2.38814
G1 X172.380 Y157.408 E2.39722
G1 X172.263 Y157.116 E2.40629
G1 X172.204 Y156.807 E2.41536
G1 X172.204 Y156.493 E2.42444
G1 X172.263 Y156.184 E2.43351
G1 X172.380 Y155.892 E2.44258
G1 X172.550 Y155.628 E2.45166
G1 X172.767 Y155.400 E2.46073
G1 X173.023 Y155.218 E2.46980
G1 X173.309 Y155.087 E2.47888
G1 X173.615 Y155.013 E2.48795
G1 X173.929 Y154.998 E2.49702
G1 X174.240 Y155.043 E2.50610
G1 X174.537 Y155.146 E2.51517
G1 X174.809 Y155.303 E2.52424
G1 X175.047 Y155.509 E2.53332
G1 X175.241 Y155.756 E2.54239
G1 X175.385 Y156.035 E2.55146
G1 X175.474 Y156.337 E2.56054
G1 X175.504 Y156.650 E2.56961
G1 X175.474 Y156.963 E2.57868
G1 X175.385 Y157.265 E2.58776
G1 X175.241 Y157.544 E2.59683
G1 X175.047 Y157.791 E2.60590
G1 X174.809 Y157.997 E2.61498
G1 X174.537 Y158.154 E2.62405
G1 X174.240 Y158.257 E2.63312
G1 X173.988 Y158.293 E2.64046
G1 X173.917 Y158.053 F6000.000
G1 F1800
G1 X173.650 Y158.040 E2.64817
G1 X173.391 Y157.977 E2.65588
G1 X173.148 Y157.866 E2.66359
G1 X172.930 Y157.712 E2.67129
G1 X172.746 Y157.518 E2.67900
G1 X172.601 Y157.294 E2.68671
G1 X172.502 Y157.046 E2.69441
G1 X172.452 Y156.784 E2.70212
G1 X172.452 Y156.516 E2.70983
G1 X172.502 Y156.254 E2.71753
G1 X172.601 Y156.006 E2.72524
G1 X172.746 Y155.782 E2.73295
G1 X172.930 Y155.588 E2.74065
G1 X173.148 Y155.433 E2.74836
G1 X173.391 Y155.323 E2.75607
G1 X173.650 Y155.260 E2.76378
G1 X173.917 Y155.247 E2.77148
G1 X174.181 Y155.285 E2.77919
G1 X174.434 Y155.372 E2.78690
G1 X174.665 Y155.506 E2.79460
G1 X174.867 Y155.681 E2.80231
G1 X175.032 Y155.891 E2.81002
G1 X175.154 Y156.128 E2.81772
G1 X175.229 Y156.384 E2.82543
G1 X175.255 Y156.650 E2.83314
G1 X175.229 Y156.916 E2.84084
G1 X175.154 Y157.172 E2.84855
G1 X175.032 Y157.409 E2.85626
G1 X174.867 Y157.619 E2.86397
G1 X174.665 Y157.794 E2.87167
G1 X174.434 Y157.928 E2.87938
G1 X174.181 Y158.015 E2.88709
G1 X173.976 Y158.045 E2.89306
G1 X173.917 Y158.053 F6000.000
G1 E0.89306 F2400.00000
G92 E0
G1 X173.941 Y148.551 F6000.000
G1 E2.00000 F2400.00000
G1 F1800
G1 X173.579 Y148.533 E2.01044
G1 X173.228 Y148.448 E2.02088
G1 X172.899 Y148.298 E2.03132
G1 X172.604 Y148.088 E2.04176
G1 X172.354 Y147.826 E2.05220
G1 X172.159 Y147.522 E2.06264
G1 X172.024 Y147.186 E2.07308
G1 X171.956 Y146.831 E2.08352
G1 X171.956 Y146.469 E2.09396
G1 X172.024 Y146.114 E2.10440
G1 X172.159 Y145.778 E2.11484
G1 X172.354 Y145.474 E2.12528
G1 X172.604 Y145.212 E2.13571
G1 X172.899 Y145.002 E2.14615
G1 X173.228 Y144.852 E2.15659
G1 X173.579 Y144.767 E2.16703
G1 X173.941 Y144.749 E2.17747
G1 X174.299 Y144.801 E2.18791
G1 X174.640 Y144.919 E2.19835
G1 X174.954 Y145.100 E2.20879
G1 X175.227 Y145.337 E2.21923
G1 X175.451 Y145.621 E2.22967
G1 X175.616 Y145.943 E2.24011
G1 X175.718 Y146.290 E2.25055
G1 X175.753 Y146.650 E2.26099
G1 X175.718 Y147.010 E2.27143
G1 X175.616 Y147.357 E2.28187
G1 X175.451 Y147.679 E2.29231
G1 X175.227 Y147.963 E2.30275
G1 X174.954 Y148.200 E2.31319
G1 X174.640 Y148.381 E2.32363
G1 X174.299 Y148.499 E2.33407
G1 X174.000 Y148.542 E2.34278
G1 X173.929 Y148.302 F6000.000
G1 F1800
G1 X173.615 Y148.287 E2.35185
G1 X173.309 Y148.213 E2.36092
G1 X173.023 Y148.082 E2.37000
G1 X172.767 Y147.900 E2.37907
G1 X172.550 Y147.672 E2.38814
G1 X172.380 Y147.408 E2.39722
G1 X172.263 Y147.116 E2.40629
G1 X172.204 Y146.807 E2.41536
G1 X172.204 Y146.493 E2.42444
G1 X172.263 Y146.184 E2.43351
G1 X172.380 Y145.892 E2.44258
G1 X172.550 Y145.628 E2.45166
G1 X172.767 Y145.400 E2.46073
G1 X173.023 Y145.218 E2.46980
G1 X173.309 Y145.087 E2.47888
G1 X173.615 Y145.013 E2.48795
G1 X173.929 Y144.998 E2.49702
G1 X174.240 Y145.043 E2.50610
G1 X174.537 Y145.146 E2.51517
G1 X174.809 Y145.303 E2.52424
G1 X175.047 Y145.509 E2.53332
G1 X175.241 Y145.756 E2.54239
G1 X175.385 Y146.035 E2.55146
G1 X175.474 Y146.337 E2.56054
G1 X175.504 Y146.650 E2.56961
G1 X175.474 Y146.963 E2.57868
G1 X175.385 Y147.265 E2.58776
G1 X175.241 Y147.544 E2.59683
G1 X175.047 Y147.791 E2.60590
G1 X174.809 Y147.997 E2.61498
G1 X174.537 Y148.154 E2.62405
G1 X174.240 Y148.257 E2.63312
G1 X173.988 Y148.293 E2.64046
G1 X173.917 Y148.053 F6000.000
G1 F1800
G1 X173.650 Y148.040 E2.64817
G1 X173.391 Y147.977 E2.65588
G1 X173.148 Y147.866 E2.66359
G1 X172.930 Y147.712 E2.67129
G1 X172.746 Y147.518 E2.67900
G1 X172.601 Y147.294 E2.68671
G1 X172.502 Y147.046 E2.69441
G1 X172.452 Y146.784 E2.70212
G1 X172.452 Y146.516 E2.70983
G1 X172.502 Y146.254 E2.71753
G1 X172.601 Y146.006 E2.72524
G1 X172.746 Y145.782 E2.73295
G1 X172.930 Y145.588 E2.74065
G1 X173.148 Y145.433 E2.74836
G1 X173.391 Y145.323 E2.75607
G1 X173.650 Y145.260 E2.76378
G1 X173.917 Y145.247 E2.77148
G1 X174.181 Y145.285 E2.77919
G1 X174.434 Y145.372 E2.78690
G1 X174.665 Y145.506 E2.79460
G1 X174.867 Y145.681 E2.80231
G1 X175.032 Y145.891 E2.81002
G1 X175.154 Y146.128 E2.81772
G1 X175.229 Y146.384 E2.82543
G1 X175.255 Y146.650 E2.83314
G1 X175.229 Y146.916 E2.84084
G1 X175.154 Y147.172 E2.84855
G1 X175.032 Y147.409 E2.85626
G1 X174.867 Y147.619 E2.86397
G1 X174.665 Y147.794 E2.87167
G1 X174.434 Y147.928 E2.87938
G1 X174.181 Y148.015 E2.88709
G1 X173.976 Y148.045 E2.89306
G1 X173.917 Y148.053 F6000.000
G1 E0.89306 F2400.00000
G92 E0
G1 X173.941 Y138.551 F6000.000
G1 E2.00000 F2400.00000
G1 F1800
G1 X173.579 Y138.533 E2.01044
G1 X173.228 Y138.448 E2.02088
G1 X172.899 Y138.298 E2.03132
G1 X172.604 Y138.088 E2.04176
G1 X172.354 Y137.826 E2.05220
G1 X172.159 Y137.522 E2.06264
G1 X172.024 Y137.186 E2.07308
G1 X171.956 Y136.831 E2.08352
G1 X171.956 Y136.469 E2.09396
G1 X172.024 Y136.114 E2.10440
G1 X172.159 Y135.778 E2.11484
G1 X172.354 Y135.474 E2.12528
G1 X172.604 Y135.212 E2.13572
G1 X172.899 Y135.002 E2.14616
G1 X173.228 Y134.852 E2.15659
G1 X173.579 Y134.767 E2.16703
G1 X173.941 Y134.749 E2.17747
G1 X174.299 Y134.801 E2.18791
G1 X174.640 Y134.919 E2.19835
G1 X174.954 Y135.100 E2.20879
G1 X175.227 Y135.337 E2.21923
G1 X175.451 Y135.621 E2.22967
G1 X175.616 Y135.943 E2.24011
G1 X175.718 Y136.290 E2.25055
G1 X175.753 Y136.650 E2.26099
G1 X175.718 Y137.010 E2.27143
G1 X175.616 Y137.357 E2.28187
G1 X175.451 Y137.679 E2.29231
G1 X175.227 Y137.963 E2.30275
G1 X174.954 Y138.200 E2.31319
G1 X174.640 Y138.381 E2.32363
G1 X174.299 Y138.499 E2.33407
G1 X174.000 Y138.542 E2.34278
G1 X173.929 Y138.302 F6000.000
G1 F1800
G1 X173.615 Y138.287 E2.35185
G1 X173.309 Y138.213 E2.36092
G1 X173.023 Y138.082 E2.37000
G1 X172.767 Y137.900 E2.37907
G1 X172.550 Y137.672 E2.38814
G1 X172.380 Y137.408 E2.39722
G1 X172.263 Y137.116 E2.40629
G1 X172.204 Y136.807 E2.41536
G1 X172.204 Y136.493 E2.42444
G1 X172.263 Y136.184 E2.43351
G1 X172.380 Y135.892 E2.44258
G1 X172.550 Y135.628 E2.45166
G1 X172.767 Y135.400 E2.46073
G1 X173.023 Y135.218 E2.46980
G1 X173.309 Y135.087 E2.47888
G1 X173.615 Y135.013 E2.48795
G1 X173.929 Y134.998 E2.49702
G1 X174.240 Y135.043 E2.50610
G1 X174.537 Y135.146 E2.51517
G1 X174.809 Y135.303 E2.52424
G1 X175.047 Y135.509 E2.53332
G1 X175.241 Y135.756 E2.54239
G1 X175.385 Y136.035 E2.55146
G1 X175.474 Y136.337 E2.56054
G1 X175.504 Y136.650 E2.56961
G1 X175.474 Y136.963 E2.57868
G1 X175.385 Y137.265 E2.58776
G1 X175.241 Y137.544 E2.59683
G1 X175.047 Y137.791 E2.60590
G1 X174.809 Y137.997 E2.61498
G1 X174.537 Y138.154 E2.62405
G1 X174.240 Y138.257 E2.63312
G1 X173.988 Y138.293 E2.64046
G1 X173.917 Y138.053 F6000.000
G1 F1800
G1 X173.650 Y138.040 E2.64817
G1 X173.391 Y137.977 E2.65588
G1 X173.148 Y137.867 E2.66359
G1 X172.930 Y137.712 E2.67129
G1 X172.746 Y137.518 E2.67900
G1 X172.601 Y137.294 E2.68671
G1 X172.502 Y137.046 E2.69441
G1 X172.452 Y136.784 E2.70212
G1 X172.452 Y136.516 E2.70983
G1 X172.502 Y136.254 E2.71753
G1 X172.601 Y136.006 E2.72524
G1 X172.746 Y135.782 E2.73295
G1 X172.930 Y135.588 E2.74065
G1 X173.148 Y135.433 E2.74836
G1 X173.391 Y135.323 E2.75607
G1 X173.650 Y135.260 E2.76378
G1 X173.917 Y135.247 E2.77148
G1 X174.181 Y135.285 E2.77919
G1 X174.434 Y135.372 E2.78690
G1 X174.665 Y135.506 E2.79460
G1 X174.867 Y135.681 E2.80231
G1 X175.032 Y135.891 E2.81002
G1 X175.154 Y136.128 E2.81772
G1 X175.229 Y136.384 E2.82543
G1 X175.255 Y136.650 E2.83314
G1 X175.229 Y136.916 E2.84084
G1 X175.154 Y137.172 E2.84855
G1 X175.032 Y137.409 E2.85626
G1 X174.867 Y137.619 E2.86397
G1 X174.665 Y137.794 E2.87167
G1 X174.434 Y137.928 E2.87938
G1 X174.181 Y138.015 E2.88709
G1 X173.976 Y138.045 E2.89306
G1 X173.917 Y138.053 F6000.000
G1 E0.89306 F2400.00000
G92 E0
G1 X171.000 Y131.000 F6000.000
G1 E2.00000 F2400.00000
G1 F1800
G1 X114.300 Y131.000 E3.63633
G1 X114.300 Y128.300 E3.71426
G1 X129.000 Y128.300 E4.13851
G1 X129.000 Y129.300 E4.16737
G1 X185.700 Y129.300 E5.80370
G1 X185.700 Y171.700 E7.02735
G1 X171.000 Y171.700 E7.45160
G1 X171.000 Y131.060 E8.62445
G1 X170.752 Y131.248 F6000.000
G1 F1800
G1 X114.052 Y131.248 E10.26078
G1 X114.052 Y128.052 E10.35302
G1 X129.248 Y128.052 E10.79158
G1 X129.248 Y129.052 E10.82044
G1 X185.948 Y129.052 E12.45677
G1 X185.948 Y171.948 E13.69473
G1 X170.752 Y171.948 E14.13329
G1 X170.752 Y131.308 E15.30614
G1 X170.504 Y131.496 F6000.000
G1 F1800
G1 X113.804 Y131.496 E16.94247
G1 X113.804 Y127.804 E17.04902
G1 X129.496 Y127.804 E17.50188
G1 X129.496 Y128.804 E17.53074
G1 X186.196 Y128.804 E19.16707
G1 X186.196 Y172.196 E20.41935
G1 X170.504 Y172.196 E20.87221
G1 X170.504 Y131.556 E22.04506
G1 X170.455 Y131.099 F6000.000
G1 E20.04506 F2400.00000
G92 E0
G1 X171.941 Y135.787 F6000.000
G1 E2.00000 F2400.00000
