; generated by Slic3r 1.3.0 on 2023-07-16 at 18:03:20

; external perimeters extrusion width = 0.44mm (3.19mm^3/s)
; perimeters extrusion width = 0.51mm (7.54mm^3/s)
; infill extrusion width = 0.50mm (9.85mm^3/s)
; solid infill extrusion width = 0.51mm (2.51mm^3/s)
; top infill extrusion width = 0.51mm (1.88mm^3/s)

M107
M190 S63 ; set bed temperature and wait for it to be reached
M104 S203 ; set temperature
G28 ; home all axes
G1 Z5 F5000 ; lift nozzle

; Filament gcode

M109 S203 ; set temperature and wait for it to be reached
G21 ; set units to millimeters
G90 ; use absolute coordinates
M82 ; use absolute distances for extrusion
G92 E0
G1 Z0.280 F6000.000
G1 E-2.00000 F2400.00000
G92 E0
G1 X136.043 Y125.802 F6000.000
G1 E2.00000 F2400.00000
G1 F1800
G1 X137.791 Y124.352 E2.06553
G1 X141.000 Y123.504 E2.16131
G1 X159.000 Y123.504 E2.68078
G1 X161.236 Y123.901 E2.74632
G1 X163.198 Y125.043 E2.81185
G1 X164.648 Y126.791 E2.87739
G1 X165.496 Y130.000 E2.97317
G1 X165.496 Y170.000 E4.12755
G1 X165.099 Y172.236 E4.19308
G1 X163.957 Y174.198 E4.25862
G1 X162.209 Y175.648 E4.32415
G1 X159.000 Y176.496 E4.41993
G1 X141.000 Y176.496 E4.93940
G1 X138.764 Y176.099 E5.00493
G1 X136.802 Y174.957 E5.07047
G1 X135.352 Y173.209 E5.13600
G1 X134.504 Y170.000 E5.23178
G1 X134.504 Y130.000 E6.38616
G1 X134.901 Y127.764 E6.45170
G1 X136.013 Y125.853 E6.51550
G1 X136.289 Y125.896 F6000.000
G1 F1800
G1 X138.027 Y124.505 E6.57976
G1 X141.000 Y123.752 E6.66826
G1 X159.000 Y123.752 E7.18773
G1 X161.191 Y124.149 E7.25199
G1 X163.104 Y125.289 E7.31625
G1 X164.495 Y127.027 E7.38052
G1 X165.248 Y130.000 E7.46901
G1 X165.248 Y170.000 E8.62339
G1 X164.851 Y172.191 E8.68766
G1 X163.711 Y174.104 E8.75192
G1 X161.973 Y175.495 E8.81618
G1 X159.000 Y176.248 E8.90468
G1 X141.000 Y176.248 E9.42415
G1 X138.809 Y175.851 E9.48841
G1 X136.896 Y174.711 E9.55267
G1 X135.505 Y172.973 E9.61694
G1 X134.752 Y170.000 E9.70543
G1 X134.752 Y130.000 E10.85981
G1 X135.149 Y127.809 E10.92408
G1 X136.258 Y125.948 E10.98661
G1 E8.98661 F2400.00000
G92 E0
G1 X158.350 Y169.350 F6000.000
G1 E2.00000 F2400.00000
G1 F1800
G1 X141.650 Y169.350 E2.48196
G1 X141.650 Y130.650 E3.59884
G1 X158.350 Y130.650 E4.08080
G1 X158.350 Y169.290 E5.19594
G1 X158.598 Y169.598 F6000.000
G1 F1800
G1 X141.402 Y169.598 E5.69221
G1 X141.402 Y130.402 E6.82340
G1 X158.598 Y130.402 E7.31967
G1 X158.598 Y169.538 E8.44912
G1 X158.846 Y169.846 F6000.000
G1 F1800
G1 X141.154 Y169.846 E8.95970
G1 X141.154 Y130.154 E10.10519
G1 X158.846 Y130.154 E10.61578
G1 X158.846 Y169.786 E11.75953
G1 X158.475 Y169.696 F6000.000
G1 X158.014 Y169.190 F6000.000
G1 F1800
G1 X158.190 Y169.014 E11.76670
G1 X158.190 Y168.663 E11.77685
G1 X157.663 Y169.190 E11.79836
G1 X157.312 Y169.190 E11.80850
G1 X158.190 Y168.312 E11.84436
G1 X158.190 Y167.961 E11.85450
G1 X156.961 Y169.190 E11.90470
G1 X156.610 Y169.190 E11.91485
G1 X158.190 Y167.610 E11.97939
G1 X158.190 Y167.259 E11.98953
G1 X156.259 Y169.190 E12.06842
G1 X155.908 Y169.190 E12.07856
G1 X158.190 Y166.908 E12.17180
G1 X158.190 Y166.557 E12.18194
G1 X155.557 Y169.190 E12.28952
G1 X155.206 Y169.190 E12.29966
G1 X158.190 Y166.206 E12.42158
G1 X158.190 Y165.855 E12.43172
G1 X154.855 Y169.190 E12.56799
G1 X154.504 Y169.190 E12.57813
G1 X158.190 Y165.504 E12.72874
G1 X158.190 Y165.153 E12.73888
G1 X154.153 Y169.190 E12.90383
G1 X153.802 Y169.190 E12.91397
G1 X158.190 Y164.802 E13.09327
G1 X158.190 Y164.451 E13.10341
G1 X153.451 Y169.190 E13.29705
G1 X153.100 Y169.190 E13.30720
G1 X158.190 Y164.100 E13.51518
G1 X158.190 Y163.749 E13.52532
G1 X152.749 Y169.190 E13.74765
G1 X152.398 Y169.190 E13.75779
G1 X158.190 Y163.398 E13.99446
G1 X158.190 Y163.047 E14.00461
G1 X152.047 Y169.190 E14.25562
G1 X151.696 Y169.190 E14.26576
G1 X158.190 Y162.696 E14.53112
G1 X158.190 Y162.345 E14.54127
G1 X151.345 Y169.190 E14.82097
G1 X150.994 Y169.190 E14.83111
G1 X158.190 Y161.994 E15.12516
G1 X158.190 Y161.643 E15.13530
G1 X150.643 Y169.190 E15.44369
G1 X150.292 Y169.190 E15.45384
G1 X158.190 Y161.292 E15.77657
G1 X158.190 Y160.941 E15.78671
G1 X149.941 Y169.190 E16.12379
G1 X149.590 Y169.190 E16.13394
G1 X158.190 Y160.590 E16.48536
G1 X158.190 Y160.239 E16.49550
G1 X149.239 Y169.190 E16.86127
G1 X148.888 Y169.190 E16.87141
G1 X158.190 Y159.888 E17.25152
G1 X158.190 Y159.537 E17.26166
G1 X148.537 Y169.190 E17.65612
G1 X148.186 Y169.190 E17.66626
G1 X158.190 Y159.186 E18.07506
G1 X158.190 Y158.835 E18.08520
G1 X147.835 Y169.190 E18.50835
G1 X147.484 Y169.190 E18.51849
G1 X158.190 Y158.484 E18.95597
G1 X158.190 Y158.133 E18.96612
G1 X147.133 Y169.190 E19.41795
G1 X146.782 Y169.190 E19.42809
G1 X158.190 Y157.782 E19.89426
G1 X158.190 Y157.431 E19.90441
G1 X146.431 Y169.190 E20.38493
G1 X146.080 Y169.190 E20.39507
G1 X158.190 Y157.080 E20.88993
G1 X158.190 Y156.729 E20.90007
G1 X145.729 Y169.190 E21.40928
G1 X145.378 Y169.190 E21.41942
G1 X158.190 Y156.378 E21.94297
G1 X158.190 Y156.027 E21.95311
G1 X145.027 Y169.190 E22.49101
G1 X144.676 Y169.190 E22.50115
G1 X158.190 Y155.676 E23.05339
G1 X158.190 Y155.325 E23.06353
G1 X144.325 Y169.190 E23.63011
G1 X143.974 Y169.190 E23.64025
G1 X158.190 Y154.974 E24.22118
G1 X158.190 Y154.622 E24.23132
G1 X143.622 Y169.190 E24.82659
G1 X143.271 Y169.190 E24.83674
G1 X158.190 Y154.271 E25.44635
G1 X158.190 Y153.920 E25.45649
G1 X142.920 Y169.190 E26.08045
G1 X142.569 Y169.190 E26.09059
G1 X158.190 Y153.569 E26.72889
G1 X158.190 Y153.218 E26.73903
G1 X142.218 Y169.190 E27.39168
G1 X141.867 Y169.190 E27.40182
G1 X158.190 Y152.867 E28.06881
G1 X158.190 Y152.516 E28.07895
G1 X141.810 Y168.896 E28.74828
G1 X141.810 Y168.545 E28.75843
G1 X158.190 Y152.165 E29.42776
G1 X158.190 Y151.814 E29.43790
G1 X141.810 Y168.194 E30.10723
G1 X141.810 Y167.843 E30.11737
G1 X158.190 Y151.463 E30.78670
G1 X158.190 Y151.112 E30.79685
G1 X141.810 Y167.492 E31.46618
G1 X141.810 Y167.141 E31.47632
G1 X158.190 Y150.761 E32.14565
G1 X158.190 Y150.410 E32.15579
G1 X141.810 Y166.790 E32.82512
G1 X141.810 Y166.439 E32.83526
G1 X158.190 Y150.059 E33.50459
G1 X158.190 Y149.708 E33.51474
G1 X141.810 Y166.088 E34.18407
G1 X141.810 Y165.737 E34.19421
G1 X158.190 Y149.357 E34.86354
G1 X158.190 Y149.006 E34.87368
G1 X141.810 Y165.386 E35.54301
G1 X141.810 Y165.035 E35.55315
G1 X158.190 Y148.655 E36.22249
G1 X158.190 Y148.304 E36.23263
G1 X141.810 Y164.684 E36.90196
G1 X141.810 Y164.333 E36.91210
G1 X158.190 Y147.953 E37.58143
G1 X158.190 Y147.602 E37.59157
G1 X141.810 Y163.982 E38.26090
G1 X141.810 Y163.631 E38.27105
G1 X158.190 Y147.251 E38.94038
G1 X158.190 Y146.900 E38.95052
G1 X141.810 Y163.280 E39.61985
G1 X141.810 Y162.929 E39.62999
G1 X158.190 Y146.549 E40.29932
G1 X158.190 Y146.198 E40.30946
G1 X141.810 Y162.578 E40.97879
G1 X141.810 Y162.227 E40.98894
G1 X158.190 Y145.847 E41.65827
G1 X158.190 Y145.496 E41.66841
G1 X141.810 Y161.876 E42.33774
G1 X141.810 Y161.525 E42.34788
G1 X158.190 Y145.145 E43.01721
G1 X158.190 Y144.794 E43.02736
G1 X141.810 Y161.174 E43.69669
G1 X141.810 Y160.823 E43.70683
G1 X158.190 Y144.443 E44.37616
G1 X158.190 Y144.092 E44.38630
G1 X141.810 Y160.472 E45.05563
G1 X141.810 Y160.121 E45.06577
G1 X158.190 Y143.741 E45.73510
G1 X158.190 Y143.390 E45.74525
G1 X141.810 Y159.770 E46.41458
G1 X141.810 Y159.419 E46.42472
G1 X158.190 Y143.039 E47.09405
G1 X158.190 Y142.688 E47.10419
G1 X141.810 Y159.068 E47.77352
G1 X141.810 Y158.716 E47.78366
G1 X158.190 Y142.337 E48.45300
G1 X158.190 Y141.986 E48.46314
G1 X141.810 Y158.365 E49.13247
G1 X141.810 Y158.014 E49.14261
G1 X158.190 Y141.635 E49.81194
G1 X158.190 Y141.284 E49.82208
G1 X141.810 Y157.663 E50.49141
G1 X141.810 Y157.312 E50.50156
G1 X158.190 Y140.933 E51.17089
G1 X158.190 Y140.581 E51.18103
G1 X141.810 Y156.961 E51.85036
G1 X141.810 Y156.610 E51.86050
G1 X158.190 Y140.230 E52.52983
G1 X158.190 Y139.879 E52.53997
G1 X141.810 Y156.259 E53.20930
G1 X141.810 Y155.908 E53.21945
G1 X158.190 Y139.528 E53.88878
G1 X158.190 Y139.177 E53.89892
G1 X141.810 Y155.557 E54.56825
G1 X141.810 Y155.206 E54.57839
G1 X158.190 Y138.826 E55.24772
G1 X158.190 Y138.475 E55.25787
G1 X141.810 Y154.855 E55.92720
G1 X141.810 Y154.504 E55.93734
G1 X158.190 Y138.124 E56.60667
G1 X158.190 Y137.773 E56.61681
G1 X141.810 Y154.153 E57.28614
G1 X141.810 Y153.802 E57.29628
G1 X158.190 Y137.422 E57.96561
G1 X158.190 Y137.071 E57.97576
G1 X141.810 Y153.451 E58.64509
G1 X141.810 Y153.100 E58.65523
G1 X158.190 Y136.720 E59.32456
G1 X158.190 Y136.369 E59.33470
G1 X141.810 Y152.749 E60.00403
G1 X141.810 Y152.398 E60.01417
G1 X158.190 Y136.018 E60.68351
G1 X158.190 Y135.667 E60.69365
G1 X141.810 Y152.047 E61.36298
G1 X141.810 Y151.696 E61.37312
G1 X158.190 Y135.316 E62.04245
G1 X158.190 Y134.965 E62.05259
G1 X141.810 Y151.345 E62.72192
G1 X141.810 Y150.994 E62.73207
G1 X158.190 Y134.614 E63.40140
G1 X158.190 Y134.263 E63.41154
G1 X141.810 Y150.643 E64.08087
G1 X141.810 Y150.292 E64.09101
G1 X158.190 Y133.912 E64.76034
G1 X158.190 Y133.561 E64.77048
G1 X141.810 Y149.941 E65.43981
G1 X141.810 Y149.590 E65.44996
G1 X158.190 Y133.210 E66.11929
G1 X158.190 Y132.859 E66.12943
G1 X141.810 Y149.239 E66.79876
G1 X141.810 Y148.888 E66.80890
G1 X158.190 Y132.508 E67.47823
G1 X158.190 Y132.157 E67.48838
G1 X141.810 Y148.537 E68.15771
G1 X141.810 Y148.186 E68.16785
G1 X158.190 Y131.806 E68.83718
G1 X158.190 Y131.455 E68.84732
G1 X141.810 Y147.835 E69.51665
G1 X141.810 Y147.484 E69.52679
G1 X158.190 Y131.104 E70.19612
G1 X158.190 Y130.810 E70.20461
G1 X158.133 Y130.810 E70.20627
G1 X141.810 Y147.133 E70.87326
G1 X141.810 Y146.782 E70.88340
G1 X157.782 Y130.810 E71.53605
G1 X157.431 Y130.810 E71.54619
G1 X141.810 Y146.431 E72.18449
G1 X141.810 Y146.080 E72.19463
G1 X157.080 Y130.810 E72.81859
G1 X156.729 Y130.810 E72.82874
G1 X141.810 Y145.729 E73.43835
G1 X141.810 Y145.378 E73.44849
G1 X156.378 Y130.810 E74.04376
G1 X156.027 Y130.810 E74.05391
G1 X141.810 Y145.027 E74.63483
G1 X141.810 Y144.676 E74.64498
G1 X155.676 Y130.810 E75.21156
G1 X155.324 Y130.810 E75.22170
G1 X141.810 Y144.324 E75.77394
G1 X141.810 Y143.973 E75.78408
G1 X154.973 Y130.810 E76.32198
G1 X154.622 Y130.810 E76.33212
G1 X141.810 Y143.622 E76.85567
G1 X141.810 Y143.271 E76.86582
G1 X154.271 Y130.810 E77.37502
G1 X153.920 Y130.810 E77.38517
G1 X141.810 Y142.920 E77.88003
G1 X141.810 Y142.569 E77.89017
G1 X153.569 Y130.810 E78.37069
G1 X153.218 Y130.810 E78.38083
G1 X141.810 Y142.218 E78.84701
G1 X141.810 Y141.867 E78.85715
G1 X152.867 Y130.810 E79.30898
G1 X152.516 Y130.810 E79.31913
G1 X141.810 Y141.516 E79.75661
G1 X141.810 Y141.165 E79.76676
G1 X152.165 Y130.810 E80.18990
G1 X151.814 Y130.810 E80.20004
G1 X141.810 Y140.814 E80.60884
G1 X141.810 Y140.463 E80.61899
G1 X151.463 Y130.810 E81.01344
G1 X151.112 Y130.810 E81.02358
G1 X141.810 Y140.112 E81.40370
G1 X141.810 Y139.761 E81.41384
G1 X150.761 Y130.810 E81.77961
G1 X150.410 Y130.810 E81.78975
G1 X141.810 Y139.410 E82.14117
G1 X141.810 Y139.059 E82.15132
G1 X150.059 Y130.810 E82.48840
G1 X149.708 Y130.810 E82.49854
G1 X141.810 Y138.708 E82.82128
G1 X141.810 Y138.357 E82.83142
G1 X149.357 Y130.810 E83.13981
G1 X149.006 Y130.810 E83.14995
G1 X141.810 Y138.006 E83.44400
G1 X141.810 Y137.655 E83.45415
G1 X148.655 Y130.810 E83.73385
G1 X148.304 Y130.810 E83.74399
G1 X141.810 Y137.304 E84.00935
G1 X141.810 Y136.953 E84.01950
G1 X147.953 Y130.810 E84.27051
G1 X147.602 Y130.810 E84.28066
G1 X141.810 Y136.602 E84.51733
G1 X141.810 Y136.251 E84.52747
G1 X147.251 Y130.810 E84.74980
G1 X146.900 Y130.810 E84.75994
G1 X141.810 Y135.900 E84.96793
G1 X141.810 Y135.549 E84.97807
G1 X146.549 Y130.810 E85.17171
G1 X146.198 Y130.810 E85.18186
G1 X141.810 Y135.198 E85.36115
G1 X141.810 Y134.847 E85.37130
G1 X145.847 Y130.810 E85.53625
G1 X145.496 Y130.810 E85.54639
G1 X141.810 Y134.496 E85.69700
G1 X141.810 Y134.145 E85.70714
G1 X145.145 Y130.810 E85.84341
G1 X144.794 Y130.810 E85.85355
G1 X141.810 Y133.794 E85.97548
G1 X141.810 Y133.443 E85.98562
G1 X144.443 Y130.810 E86.09320
G1 X144.092 Y130.810 E86.10334
G1 X141.810 Y133.092 E86.19657
G1 X141.810 Y132.741 E86.20671
G1 X143.741 Y130.810 E86.28560
G1 X143.390 Y130.810 E86.29575
G1 X141.810 Y132.390 E86.36029
G1 X141.810 Y132.039 E86.37044
G1 X143.039 Y130.810 E86.42064
G1 X142.688 Y130.810 E86.43078
G1 X141.810 Y131.688 E86.46664
G1 X141.810 Y131.337 E86.47678
G1 X142.337 Y130.810 E86.49830
G1 X141.986 Y130.810 E86.50844
G1 X141.810 Y130.985 E86.51560
M104 S200 ; set temperature
M140 S60 ; set bed temperature
G1 Z0.560 F6000.000
G1 X157.917 Y168.917 F6000.000
G1 F3600
G1 X142.083 Y168.917 E87.34283
G1 X142.083 Y131.083 E89.31945
G1 X157.917 Y131.083 E90.14668
G1 X157.917 Y168.857 E92.12016
G1 X158.366 Y169.366 F6000.000
G1 F3600
G1 X141.634 Y169.366 E92.99429
G1 X141.634 Y130.634 E95.01780
G1 X158.366 Y130.634 E95.89192
G1 X158.366 Y169.306 E97.91230
G1 X158.780 Y169.780 F6000.000
G1 F1800
G1 X141.220 Y169.780 E98.68891
G1 X141.220 Y130.220 E100.43847
G1 X158.780 Y130.220 E101.21508
G1 X158.780 Y169.720 E102.96199
G1 X158.409 Y169.630 F6000.000
G1 X142.691 Y168.627 F6000.000
G1 F1200
G1 X142.373 Y168.309 E102.98565
G1 X142.373 Y167.669 E103.01941
G1 X143.331 Y168.627 E103.09082
G1 X143.972 Y168.627 E103.12458
G1 X142.373 Y167.028 E103.24373
G1 X142.373 Y166.388 E103.27749
G1 X144.612 Y168.627 E103.44439
G1 X145.252 Y168.627 E103.47814
G1 X142.373 Y165.748 E103.69278
G1 X142.373 Y165.107 E103.72654
G1 X145.893 Y168.627 E103.98891
G1 X146.533 Y168.627 E104.02267
G1 X142.373 Y164.467 E104.33279
G1 X142.373 Y163.826 E104.36655
G1 X147.174 Y168.627 E104.72440
G1 X147.814 Y168.627 E104.75816
G1 X142.373 Y163.186 E105.16376
G1 X142.373 Y162.546 E105.19752
G1 X148.454 Y168.627 E105.65085
G1 X149.095 Y168.627 E105.68461
G1 X142.373 Y161.905 E106.18569
G1 X142.373 Y161.265 E106.21945
G1 X149.735 Y168.627 E106.76827
G1 X150.376 Y168.627 E106.80203
G1 X142.373 Y160.624 E107.39859
G1 X142.373 Y159.984 E107.43234
G1 X151.016 Y168.627 E108.07664
G1 X151.656 Y168.627 E108.11040
G1 X142.373 Y159.344 E108.80244
G1 X142.373 Y158.703 E108.83620
G1 X152.297 Y168.627 E109.57598
G1 X152.937 Y168.627 E109.60974
G1 X142.373 Y158.063 E110.39726
G1 X142.373 Y157.422 E110.43102
G1 X153.578 Y168.627 E111.26628
G1 X154.218 Y168.627 E111.30004
G1 X142.373 Y156.782 E112.18304
G1 X142.373 Y156.142 E112.21680
G1 X154.858 Y168.627 E113.14754
G1 X155.499 Y168.627 E113.18130
G1 X142.373 Y155.501 E114.15978
G1 X142.373 Y154.861 E114.19354
G1 X156.139 Y168.627 E115.21976
G1 X156.779 Y168.627 E115.25352
G1 X142.373 Y154.221 E116.32748
G1 X142.373 Y153.580 E116.36124
G1 X157.420 Y168.627 E117.48295
G1 X157.627 Y168.627 E117.49385
G1 X157.627 Y168.193 E117.51670
G1 X142.373 Y152.940 E118.65383
G1 X142.373 Y152.299 E118.68759
G1 X157.627 Y167.553 E119.82471
G1 X157.627 Y166.912 E119.85847
G1 X142.373 Y151.659 E120.99560
G1 X142.373 Y151.019 E121.02935
G1 X157.627 Y166.272 E122.16648
G1 X157.627 Y165.632 E122.20024
G1 X142.373 Y150.378 E123.33736
G1 X142.373 Y149.738 E123.37112
G1 X157.627 Y164.991 E124.50825
G1 X157.627 Y164.351 E124.54200
G1 X142.373 Y149.097 E125.67913
G1 X142.373 Y148.457 E125.71289
G1 X157.627 Y163.710 E126.85001
G1 X157.627 Y163.070 E126.88377
G1 X142.373 Y147.817 E128.02090
G1 X142.373 Y147.176 E128.05466
G1 X157.627 Y162.430 E129.19178
G1 X157.627 Y161.789 E129.22554
G1 X142.373 Y146.536 E130.36266
G1 X142.373 Y145.895 E130.39642
G1 X157.627 Y161.149 E131.53355
G1 X157.627 Y160.508 E131.56731
G1 X142.373 Y145.255 E132.70443
G1 X142.373 Y144.615 E132.73819
G1 X157.627 Y159.868 E133.87531
G1 X157.627 Y159.228 E133.90907
G1 X142.373 Y143.974 E135.04620
G1 X142.373 Y143.334 E135.07996
G1 X157.627 Y158.587 E136.21708
G1 X157.627 Y157.947 E136.25084
G1 X142.373 Y142.693 E137.38796
G1 X142.373 Y142.053 E137.42172
G1 X157.627 Y157.307 E138.55885
G1 X157.627 Y156.666 E138.59261
G1 X142.373 Y141.413 E139.72973
G1 X142.373 Y140.772 E139.76349
G1 X157.627 Y156.026 E140.90061
G1 X157.627 Y155.385 E140.93437
G1 X142.373 Y140.132 E142.07150
G1 X142.373 Y139.491 E142.10526
G1 X157.627 Y154.745 E143.24238
G1 X157.627 Y154.105 E143.27614
G1 X142.373 Y138.851 E144.41326
G1 X142.373 Y138.211 E144.44702
