; generated by Slic3r 1.3.0 on 2023-07-17 at 14:37:50

; external perimeters extrusion width = 0.44mm (3.19mm^3/s)
; perimeters extrusion width = 0.51mm (7.54mm^3/s)
; infill extrusion width = 0.50mm (9.85mm^3/s)
; solid infill extrusion width = 0.51mm (2.51mm^3/s)
; top infill extrusion width = 0.51mm (1.88mm^3/s)

M107
M190 S63 ; set bed temperature and wait for it to be reached
M104 S203 ; set temperature
G28 ; home all axes
G1 Z5 F5000 ; lift nozzle

; Filament gcode

M109 S203 ; set temperature and wait for it to be reached
G21 ; set units to millimeters
G90 ; use absolute coordinates
M82 ; use absolute distances for extrusion
G92 E0
G1 Z0.280 F6000.000
G1 E-2.00000 F2400.00000
G92 E0
G1 X109.043 Y124.302 F6000.000
G1 E2.00000 F2400.00000
G1 F1800
G1 X110.791 Y122.852 E2.06553
G1 X114.000 Y122.004 E2.16131
G1 X186.000 Y122.004 E4.23920
G1 X188.236 Y122.401 E4.30473
G1 X190.198 Y123.543 E4.37027
G1 X191.648 Y125.291 E4.43580
G1 X192.496 Y128.500 E4.53158
G1 X192.496 Y171.500 E5.77254
G1 X192.099 Y173.736 E5.83807
G1 X190.957 Y175.698 E5.90361
G1 X189.209 Y177.148 E5.96914
G1 X186.000 Y177.996 E6.06492
G1 X170.000 Y177.996 E6.52667
G1 X167.764 Y177.599 E6.59221
G1 X166.224 Y176.786 E6.64246
G1 X110.224 Y136.786 E8.62853
G1 X108.636 Y135.163 E8.69406
G1 X107.703 Y133.093 E8.75960
G1 X107.504 Y131.500 E8.80593
G1 X107.504 Y128.500 E8.89251
G1 X107.901 Y126.264 E8.95804
G1 X109.013 Y124.353 E9.02184
G1 X109.289 Y124.396 F6000.000
G1 F1800
G1 X111.027 Y123.005 E9.08611
G1 X114.000 Y122.252 E9.17460
G1 X186.000 Y122.252 E11.25249
G1 X188.191 Y122.649 E11.31675
G1 X190.104 Y123.789 E11.38101
G1 X191.495 Y125.527 E11.44527
G1 X192.248 Y128.500 E11.53377
G1 X192.248 Y171.500 E12.77473
G1 X191.851 Y173.691 E12.83899
G1 X190.711 Y175.604 E12.90325
G1 X188.973 Y176.995 E12.96752
G1 X186.000 Y177.748 E13.05601
G1 X170.000 Y177.748 E13.51777
G1 X167.809 Y177.351 E13.58203
G1 X166.368 Y176.584 E13.62912
G1 X110.368 Y136.584 E15.61519
G1 X108.816 Y134.988 E15.67946
G1 X107.922 Y132.948 E15.74372
G1 X107.752 Y131.500 E15.78580
G1 X107.752 Y128.500 E15.87238
G1 X108.149 Y126.309 E15.93664
G1 X109.258 Y124.448 E15.99917
G1 E13.99917 F2400.00000
G92 E0
G1 X174.256 Y167.963 F6000.000
G1 E2.00000 F2400.00000
G1 F1800
G1 X173.890 Y168.106 E2.01135
G1 X173.579 Y168.151 E2.02042
G1 X173.265 Y168.136 E2.02949
G1 X172.959 Y168.062 E2.03856
G1 X172.674 Y167.931 E2.04763
G1 X172.418 Y167.749 E2.05669
G1 X172.201 Y167.522 E2.06576
G1 X172.031 Y167.257 E2.07483
G1 X171.914 Y166.966 E2.08390
G1 X171.855 Y166.657 E2.09297
G1 X171.855 Y166.343 E2.10203
G1 X171.914 Y166.034 E2.11110
G1 X172.031 Y165.743 E2.12017
G1 X172.201 Y165.478 E2.12924
G1 X172.418 Y165.251 E2.13831
G1 X172.674 Y165.069 E2.14738
G1 X172.959 Y164.938 E2.15644
G1 X173.265 Y164.864 E2.16551
G1 X173.579 Y164.849 E2.17458
G1 X173.890 Y164.894 E2.18365
G1 X174.187 Y164.997 E2.19271
G1 X174.459 Y165.154 E2.20178
G1 X174.696 Y165.359 E2.21085
G1 X174.890 Y165.606 E2.21992
G1 X175.034 Y165.886 E2.22899
G1 X175.123 Y166.187 E2.23805
G1 X175.153 Y166.500 E2.24712
G1 X175.123 Y166.813 E2.25619
G1 X175.034 Y167.114 E2.26526
G1 X174.890 Y167.394 E2.27433
G1 X174.696 Y167.641 E2.28340
G1 X174.459 Y167.846 E2.29246
G1 X174.308 Y167.933 E2.29748
G1 X174.132 Y167.749 F6000.000
G1 F1800
G1 X173.831 Y167.864 E2.30679
G1 X173.567 Y167.902 E2.31450
G1 X173.300 Y167.889 E2.32220
G1 X173.041 Y167.827 E2.32990
G1 X172.798 Y167.716 E2.33760
G1 X172.581 Y167.561 E2.34530
G1 X172.397 Y167.368 E2.35300
G1 X172.252 Y167.143 E2.36070
G1 X172.153 Y166.895 E2.36841
G1 X172.103 Y166.633 E2.37611
G1 X172.103 Y166.367 E2.38381
G1 X172.153 Y166.105 E2.39151
G1 X172.252 Y165.857 E2.39921
G1 X172.397 Y165.632 E2.40692
G1 X172.581 Y165.439 E2.41462
G1 X172.798 Y165.284 E2.42232
G1 X173.041 Y165.173 E2.43002
G1 X173.300 Y165.111 E2.43772
G1 X173.567 Y165.098 E2.44542
G1 X173.831 Y165.136 E2.45313
G1 X174.083 Y165.223 E2.46083
G1 X174.314 Y165.357 E2.46853
G1 X174.516 Y165.531 E2.47623
G1 X174.681 Y165.741 E2.48393
G1 X174.803 Y165.978 E2.49163
G1 X174.878 Y166.234 E2.49934
G1 X174.904 Y166.500 E2.50704
G1 X174.878 Y166.766 E2.51474
G1 X174.803 Y167.022 E2.52244
G1 X174.681 Y167.259 E2.53014
G1 X174.516 Y167.469 E2.53784
G1 X174.314 Y167.643 E2.54555
G1 X174.184 Y167.719 E2.54988
G1 X174.008 Y167.534 F6000.000
G1 F1800
G1 X173.772 Y167.622 E2.55715
G1 X173.555 Y167.653 E2.56349
G1 X173.336 Y167.643 E2.56982
G1 X173.122 Y167.591 E2.57616
G1 X172.923 Y167.500 E2.58249
G1 X172.744 Y167.373 E2.58883
G1 X172.592 Y167.214 E2.59516
G1 X172.474 Y167.029 E2.60150
G1 X172.392 Y166.825 E2.60784
G1 X172.351 Y166.610 E2.61417
G1 X172.351 Y166.390 E2.62051
G1 X172.392 Y166.175 E2.62684
G1 X172.474 Y165.971 E2.63318
G1 X172.592 Y165.786 E2.63951
G1 X172.744 Y165.627 E2.64585
G1 X172.923 Y165.500 E2.65218
G1 X173.122 Y165.409 E2.65852
G1 X173.336 Y165.357 E2.66485
G1 X173.555 Y165.347 E2.67119
G1 X173.772 Y165.378 E2.67752
G1 X173.980 Y165.450 E2.68386
G1 X174.170 Y165.559 E2.69019
G1 X174.336 Y165.703 E2.69653
G1 X174.471 Y165.876 E2.70287
G1 X174.572 Y166.071 E2.70920
G1 X174.634 Y166.281 E2.71554
G1 X174.655 Y166.500 E2.72187
G1 X174.634 Y166.719 E2.72821
G1 X174.572 Y166.929 E2.73454
G1 X174.471 Y167.124 E2.74088
G1 X174.336 Y167.297 E2.74721
G1 X174.170 Y167.441 E2.75355
G1 X174.060 Y167.504 E2.75720
G1 X174.009 Y167.567 F6000.000
G1 E0.75720 F2400.00000
G92 E0
G1 X173.579 Y158.151 F6000.000
G1 E2.00000 F2400.00000
G1 F1800
G1 X173.265 Y158.136 E2.00907
G1 X172.959 Y158.062 E2.01814
G1 X172.674 Y157.931 E2.02720
G1 X172.418 Y157.749 E2.03627
G1 X172.201 Y157.522 E2.04534
G1 X172.031 Y157.257 E2.05441
G1 X171.914 Y156.966 E2.06348
G1 X171.855 Y156.657 E2.07254
G1 X171.855 Y156.343 E2.08161
G1 X171.914 Y156.034 E2.09068
G1 X172.031 Y155.743 E2.09975
G1 X172.201 Y155.478 E2.10882
G1 X172.418 Y155.251 E2.11788
G1 X172.674 Y155.069 E2.12695
G1 X172.959 Y154.938 E2.13602
G1 X173.265 Y154.864 E2.14509
G1 X173.579 Y154.849 E2.15416
G1 X173.890 Y154.894 E2.16322
G1 X174.187 Y154.997 E2.17229
G1 X174.459 Y155.154 E2.18136
G1 X174.696 Y155.359 E2.19043
G1 X174.890 Y155.606 E2.19950
G1 X175.034 Y155.886 E2.20856
G1 X175.123 Y156.187 E2.21763
G1 X175.153 Y156.500 E2.22670
G1 X175.123 Y156.813 E2.23577
G1 X175.034 Y157.114 E2.24484
G1 X174.890 Y157.394 E2.25390
G1 X174.696 Y157.641 E2.26297
G1 X174.459 Y157.846 E2.27204
G1 X174.187 Y158.003 E2.28111
G1 X173.890 Y158.106 E2.29018
G1 X173.638 Y158.142 E2.29751
G1 X173.567 Y157.902 F6000.000
G1 F1800
G1 X173.300 Y157.889 E2.30521
G1 X173.041 Y157.827 E2.31292
G1 X172.798 Y157.716 E2.32062
G1 X172.581 Y157.561 E2.32832
G1 X172.397 Y157.368 E2.33602
G1 X172.252 Y157.143 E2.34372
G1 X172.153 Y156.895 E2.35142
G1 X172.103 Y156.633 E2.35913
G1 X172.103 Y156.367 E2.36683
G1 X172.153 Y156.105 E2.37453
G1 X172.252 Y155.857 E2.38223
G1 X172.397 Y155.632 E2.38993
G1 X172.581 Y155.439 E2.39763
G1 X172.798 Y155.284 E2.40534
G1 X173.041 Y155.173 E2.41304
G1 X173.300 Y155.111 E2.42074
G1 X173.567 Y155.098 E2.42844
G1 X173.831 Y155.136 E2.43614
G1 X174.083 Y155.223 E2.44384
G1 X174.314 Y155.357 E2.45155
G1 X174.516 Y155.531 E2.45925
G1 X174.681 Y155.741 E2.46695
G1 X174.803 Y155.978 E2.47465
G1 X174.878 Y156.234 E2.48235
G1 X174.904 Y156.500 E2.49005
G1 X174.878 Y156.766 E2.49776
G1 X174.803 Y157.022 E2.50546
G1 X174.681 Y157.259 E2.51316
G1 X174.516 Y157.469 E2.52086
G1 X174.314 Y157.643 E2.52856
G1 X174.083 Y157.777 E2.53626
G1 X173.831 Y157.864 E2.54397
G1 X173.626 Y157.894 E2.54994
G1 X173.555 Y157.653 F6000.000
G1 F1800
G1 X173.336 Y157.643 E2.55627
G1 X173.122 Y157.591 E2.56261
G1 X172.923 Y157.500 E2.56894
G1 X172.744 Y157.373 E2.57528
G1 X172.592 Y157.214 E2.58161
G1 X172.474 Y157.029 E2.58795
G1 X172.392 Y156.825 E2.59428
G1 X172.351 Y156.610 E2.60062
G1 X172.351 Y156.390 E2.60695
G1 X172.392 Y156.175 E2.61329
G1 X172.474 Y155.971 E2.61962
G1 X172.592 Y155.786 E2.62596
G1 X172.744 Y155.627 E2.63230
G1 X172.923 Y155.500 E2.63863
G1 X173.122 Y155.409 E2.64497
G1 X173.336 Y155.357 E2.65130
G1 X173.555 Y155.347 E2.65764
G1 X173.772 Y155.378 E2.66397
G1 X173.980 Y155.450 E2.67031
G1 X174.170 Y155.559 E2.67664
G1 X174.336 Y155.703 E2.68298
G1 X174.471 Y155.876 E2.68931
G1 X174.572 Y156.071 E2.69565
G1 X174.634 Y156.281 E2.70198
G1 X174.655 Y156.500 E2.70832
G1 X174.634 Y156.719 E2.71465
G1 X174.572 Y156.929 E2.72099
G1 X174.471 Y157.124 E2.72732
G1 X174.336 Y157.297 E2.73366
G1 X174.170 Y157.441 E2.74000
G1 X173.980 Y157.550 E2.74633
G1 X173.772 Y157.622 E2.75267
G1 X173.614 Y157.645 E2.75727
G1 X173.555 Y157.653 F6000.000
G1 E0.75727 F2400.00000
G92 E0
G1 X173.579 Y148.151 F6000.000
G1 E2.00000 F2400.00000
G1 F1800
G1 X173.265 Y148.136 E2.00907
G1 X172.959 Y148.062 E2.01814
G1 X172.674 Y147.931 E2.02720
G1 X172.418 Y147.749 E2.03627
G1 X172.201 Y147.522 E2.04534
G1 X172.031 Y147.257 E2.05441
G1 X171.914 Y146.966 E2.06348
G1 X171.855 Y146.657 E2.07254
G1 X171.855 Y146.343 E2.08161
G1 X171.914 Y146.034 E2.09068
G1 X172.031 Y145.743 E2.09975
G1 X172.201 Y145.478 E2.10882
G1 X172.418 Y145.251 E2.11788
G1 X172.674 Y145.069 E2.12695
G1 X172.959 Y144.938 E2.13602
G1 X173.265 Y144.864 E2.14509
G1 X173.579 Y144.849 E2.15416
G1 X173.890 Y144.894 E2.16322
G1 X174.187 Y144.997 E2.17229
G1 X174.459 Y145.154 E2.18136
G1 X174.696 Y145.359 E2.19043
G1 X174.890 Y145.606 E2.19950
G1 X175.034 Y145.886 E2.20856
G1 X175.123 Y146.187 E2.21763
G1 X175.153 Y146.500 E2.22670
G1 X175.123 Y146.813 E2.23577
G1 X175.034 Y147.114 E2.24484
G1 X174.890 Y147.394 E2.25390
G1 X174.696 Y147.641 E2.26297
G1 X174.459 Y147.846 E2.27204
G1 X174.187 Y148.003 E2.28111
G1 X173.890 Y148.106 E2.29018
G1 X173.638 Y148.142 E2.29751
G1 X173.567 Y147.902 F6000.000
G1 F1800
G1 X173.300 Y147.889 E2.30521
G1 X173.041 Y147.827 E2.31292
G1 X172.798 Y147.716 E2.32062
G1 X172.581 Y147.561 E2.32832
G1 X172.397 Y147.368 E2.33602
G1 X172.252 Y147.143 E2.34372
G1 X172.153 Y146.895 E2.35142
G1 X172.103 Y146.633 E2.35913
G1 X172.103 Y146.367 E2.36683
G1 X172.153 Y146.105 E2.37453
G1 X172.252 Y145.857 E2.38223
G1 X172.397 Y145.632 E2.38993
G1 X172.581 Y145.439 E2.39763
G1 X172.798 Y145.284 E2.40534
G1 X173.041 Y145.173 E2.41304
G1 X173.300 Y145.111 E2.42074
G1 X173.567 Y145.098 E2.42844
G1 X173.831 Y145.136 E2.43614
G1 X174.083 Y145.223 E2.44384
G1 X174.314 Y145.357 E2.45155
G1 X174.516 Y145.531 E2.45925
G1 X174.681 Y145.741 E2.46695
G1 X174.803 Y145.978 E2.47465
G1 X174.878 Y146.234 E2.48235
G1 X174.904 Y146.500 E2.49005
G1 X174.878 Y146.766 E2.49776
G1 X174.803 Y147.022 E2.50546
G1 X174.681 Y147.259 E2.51316
G1 X174.516 Y147.469 E2.52086
G1 X174.314 Y147.643 E2.52856
G1 X174.083 Y147.777 E2.53626
G1 X173.831 Y147.864 E2.54397
G1 X173.626 Y147.894 E2.54994
G1 X173.555 Y147.653 F6000.000
G1 F1800
G1 X173.336 Y147.643 E2.55627
G1 X173.122 Y147.591 E2.56261
G1 X172.923 Y147.500 E2.56894
G1 X172.744 Y147.373 E2.57528
G1 X172.592 Y147.214 E2.58161
G1 X172.474 Y147.029 E2.58795
G1 X172.392 Y146.825 E2.59428
G1 X172.351 Y146.610 E2.60062
G1 X172.351 Y146.390 E2.60695
G1 X172.392 Y146.175 E2.61329
G1 X172.474 Y145.971 E2.61962
G1 X172.592 Y145.786 E2.62596
G1 X172.744 Y145.627 E2.63230
G1 X172.923 Y145.500 E2.63863
G1 X173.122 Y145.409 E2.64497
G1 X173.336 Y145.357 E2.65130
G1 X173.555 Y145.347 E2.65764
G1 X173.772 Y145.378 E2.66397
G1 X173.980 Y145.450 E2.67031
G1 X174.170 Y145.559 E2.67664
G1 X174.336 Y145.703 E2.68298
G1 X174.471 Y145.876 E2.68931
G1 X174.572 Y146.071 E2.69565
G1 X174.634 Y146.281 E2.70198
G1 X174.655 Y146.500 E2.70832
G1 X174.634 Y146.719 E2.71465
G1 X174.572 Y146.929 E2.72099
G1 X174.471 Y147.124 E2.72732
G1 X174.336 Y147.297 E2.73366
G1 X174.170 Y147.441 E2.74000
G1 X173.980 Y147.550 E2.74633
G1 X173.772 Y147.622 E2.75267
G1 X173.614 Y147.645 E2.75727
G1 X173.555 Y147.653 F6000.000
G1 E0.75727 F2400.00000
G92 E0
G1 X173.579 Y138.151 F6000.000
G1 E2.00000 F2400.00000
G1 F1800
G1 X173.265 Y138.136 E2.00907
G1 X172.959 Y138.062 E2.01814
G1 X172.674 Y137.931 E2.02720
G1 X172.418 Y137.749 E2.03627
G1 X172.201 Y137.522 E2.04534
G1 X172.031 Y137.257 E2.05441
G1 X171.914 Y136.966 E2.06348
G1 X171.855 Y136.657 E2.07254
G1 X171.855 Y136.343 E2.08161
G1 X171.914 Y136.034 E2.09068
G1 X172.031 Y135.743 E2.09975
G1 X172.201 Y135.478 E2.10882
G1 X172.418 Y135.251 E2.11788
G1 X172.674 Y135.069 E2.12695
G1 X172.959 Y134.938 E2.13602
G1 X173.265 Y134.864 E2.14509
G1 X173.579 Y134.849 E2.15416
G1 X173.890 Y134.894 E2.16322
G1 X174.187 Y134.997 E2.17229
G1 X174.459 Y135.154 E2.18136
G1 X174.696 Y135.359 E2.19043
G1 X174.890 Y135.606 E2.19950
G1 X175.034 Y135.886 E2.20856
G1 X175.123 Y136.187 E2.21763
G1 X175.153 Y136.500 E2.22670
G1 X175.123 Y136.813 E2.23577
G1 X175.034 Y137.114 E2.24484
G1 X174.890 Y137.394 E2.25390
G1 X174.696 Y137.641 E2.26297
G1 X174.459 Y137.846 E2.27204
G1 X174.187 Y138.003 E2.28111
G1 X173.890 Y138.106 E2.29018
G1 X173.638 Y138.142 E2.29751
G1 X173.567 Y137.902 F6000.000
G1 F1800
G1 X173.300 Y137.889 E2.30521
G1 X173.041 Y137.827 E2.31292
G1 X172.798 Y137.716 E2.32062
G1 X172.581 Y137.561 E2.32832
G1 X172.397 Y137.368 E2.33602
G1 X172.252 Y137.143 E2.34372
G1 X172.153 Y136.895 E2.35142
G1 X172.103 Y136.633 E2.35913
G1 X172.103 Y136.367 E2.36683
G1 X172.153 Y136.105 E2.37453
G1 X172.252 Y135.857 E2.38223
G1 X172.397 Y135.632 E2.38993
G1 X172.581 Y135.439 E2.39763
G1 X172.798 Y135.284 E2.40534
G1 X173.041 Y135.173 E2.41304
G1 X173.300 Y135.111 E2.42074
G1 X173.567 Y135.098 E2.42844
G1 X173.831 Y135.136 E2.43614
G1 X174.083 Y135.223 E2.44384
G1 X174.314 Y135.357 E2.45155
G1 X174.516 Y135.531 E2.45925
G1 X174.681 Y135.741 E2.46695
G1 X174.803 Y135.978 E2.47465
G1 X174.878 Y136.234 E2.48235
G1 X174.904 Y136.500 E2.49005
G1 X174.878 Y136.766 E2.49776
G1 X174.803 Y137.022 E2.50546
G1 X174.681 Y137.259 E2.51316
G1 X174.516 Y137.469 E2.52086
G1 X174.314 Y137.643 E2.52856
G1 X174.083 Y137.777 E2.53626
G1 X173.831 Y137.864 E2.54397
G1 X173.626 Y137.894 E2.54994
G1 X173.555 Y137.653 F6000.000
G1 F1800
G1 X173.336 Y137.643 E2.55627
G1 X173.122 Y137.591 E2.56261
G1 X172.923 Y137.500 E2.56894
G1 X172.744 Y137.373 E2.57528
G1 X172.592 Y137.214 E2.58161
G1 X172.474 Y137.029 E2.58795
G1 X172.392 Y136.825 E2.59428
G1 X172.351 Y136.610 E2.60062
G1 X172.351 Y136.390 E2.60695
G1 X172.392 Y136.175 E2.61329
G1 X172.474 Y135.971 E2.61962
G1 X172.592 Y135.786 E2.62596
G1 X172.744 Y135.627 E2.63230
G1 X172.923 Y135.500 E2.63863
G1 X173.122 Y135.409 E2.64497
G1 X173.336 Y135.357 E2.65130
G1 X173.555 Y135.347 E2.65764
G1 X173.772 Y135.378 E2.66397
G1 X173.980 Y135.450 E2.67031
G1 X174.170 Y135.559 E2.67664
G1 X174.336 Y135.703 E2.68298
G1 X174.471 Y135.876 E2.68931
G1 X174.572 Y136.071 E2.69565
G1 X174.634 Y136.281 E2.70198
G1 X174.655 Y136.500 E2.70832
G1 X174.634 Y136.719 E2.71465
G1 X174.572 Y136.929 E2.72099
G1 X174.471 Y137.124 E2.72732
G1 X174.336 Y137.297 E2.73366
G1 X174.170 Y137.441 E2.74000
G1 X173.980 Y137.550 E2.74633
G1 X173.772 Y137.622 E2.75267
G1 X173.614 Y137.645 E2.75727
G1 X173.555 Y137.653 F6000.000
G1 E0.75727 F2400.00000
G92 E0
G1 X170.650 Y130.850 F6000.000
G1 E2.00000 F2400.00000
G1 F1800
G1 X114.650 Y130.850 E3.61613
G1 X114.650 Y129.150 E3.66520
G1 X185.350 Y129.150 E5.70558
G1 X185.350 Y170.850 E6.90903
G1 X170.650 Y170.850 E7.33328
G1 X170.650 Y130.910 E8.48592
G1 X170.402 Y131.098 F6000.000
G1 F1800
G1 X114.402 Y131.098 E10.10206
G1 X114.402 Y128.902 E10.16544
G1 X185.598 Y128.902 E12.22012
G1 X185.598 Y171.098 E13.43788
G1 X170.402 Y171.098 E13.87644
G1 X170.402 Y131.158 E15.02908
G1 X170.154 Y131.346 F6000.000
G1 F1800
G1 X114.154 Y131.346 E16.64522
G1 X114.154 Y128.654 E16.72291
G1 X185.846 Y128.654 E18.79190
G1 X185.846 Y171.346 E20.02397
G1 X170.154 Y171.346 E20.47683
G1 X170.154 Y131.406 E21.62948
G1 X170.104 Y130.949 F6000.000
G1 E19.62948 F2400.00000
G92 E0
G1 X170.810 Y136.746 F6000.000
G1 E2.00000 F2400.00000
G1 F1800
G1 X170.810 Y137.098 E2.01017
G1 X171.699 Y136.209 E2.04653
G1 X171.694 Y136.565 E2.05682
G1 X170.810 Y137.449 E2.09301
G1 X170.810 Y137.801 E2.10317
G1 X171.747 Y136.864 E2.14149
G1 X171.835 Y137.127 E2.14953
G1 X170.810 Y138.152 E2.19144
G1 X170.810 Y138.503 E2.20161
