; generated by Slic3r 1.3.0 on 2023-07-28 at 17:02:46

; external perimeters extrusion width = 0.44mm (3.19mm^3/s)
; perimeters extrusion width = 0.51mm (7.54mm^3/s)
; infill extrusion width = 0.50mm (9.85mm^3/s)
; solid infill extrusion width = 0.51mm (2.51mm^3/s)
; top infill extrusion width = 0.51mm (1.88mm^3/s)

M107
M190 S63 ; set bed temperature and wait for it to be reached
M104 S203 ; set temperature
G28 ; home all axes
G1 Z5 F5000 ; lift nozzle

; Filament gcode

M109 S203 ; set temperature and wait for it to be reached
G21 ; set units to millimeters
G90 ; use absolute coordinates
M82 ; use absolute distances for extrusion
G92 E0
G1 Z0.280 F6000.000
G1 E-2.00000 F2400.00000
G92 E0
G1 X132.856 Y140.983 F6000.000
G1 E2.00000 F2400.00000
G1 F1800
G1 X133.789 Y140.174 E2.03564
G1 X134.718 Y139.513 E2.06856
G1 X135.788 Y138.895 E2.10420
G1 X136.826 Y138.421 E2.13712
G1 X137.993 Y138.017 E2.17276
G1 X139.101 Y137.748 E2.20568
G1 X140.323 Y137.573 E2.24131
G1 X141.463 Y137.518 E2.27424
G1 X142.696 Y137.577 E2.30987
G1 X143.872 Y137.746 E2.34414
G1 X163.164 Y140.662 E2.90724
G1 X164.318 Y140.946 E2.94154
G1 X164.857 Y141.133 E2.95800
G1 X165.980 Y141.646 E2.99364
G1 X166.474 Y141.931 E3.01010
G1 X167.480 Y142.647 E3.04574
G1 X167.911 Y143.021 E3.06220
G1 X168.764 Y143.914 E3.09784
G1 X169.116 Y144.363 E3.11430
G1 X169.784 Y145.402 E3.14994
G1 X170.045 Y145.908 E3.16640
G1 X170.504 Y147.055 E3.20203
G1 X170.656 Y147.571 E3.21757
G1 X170.899 Y148.815 E3.25413
G1 X170.953 Y149.383 E3.27059
G1 X170.953 Y150.617 E3.30623
G1 X170.899 Y151.185 E3.32269
G1 X170.665 Y152.398 E3.35833
G1 X170.504 Y152.945 E3.37479
G1 X170.045 Y154.092 E3.41043
G1 X169.784 Y154.599 E3.42690
G1 X169.116 Y155.637 E3.46253
G1 X168.783 Y156.061 E3.47806
G1 X167.911 Y156.979 E3.51462
G1 X167.480 Y157.353 E3.53108
G1 X166.474 Y158.069 E3.56672
G1 X165.981 Y158.354 E3.58318
G1 X164.857 Y158.867 E3.61882
G1 X164.318 Y159.054 E3.63528
G1 X163.164 Y159.338 E3.66958
G1 X142.696 Y162.423 E4.26694
G1 X141.463 Y162.482 E4.30258
G1 X140.323 Y162.427 E4.33550
G1 X139.101 Y162.252 E4.37114
G1 X137.993 Y161.983 E4.40406
G1 X136.826 Y161.579 E4.43970
G1 X135.788 Y161.105 E4.47262
G1 X134.718 Y160.487 E4.50826
G1 X133.789 Y159.826 E4.54118
G1 X132.856 Y159.017 E4.57682
G1 X132.069 Y158.192 E4.60974
G1 X131.305 Y157.221 E4.64538
G1 X130.689 Y156.261 E4.67830
G1 X130.123 Y155.164 E4.71394
G1 X129.699 Y154.105 E4.74686
G1 X129.351 Y152.920 E4.78250
G1 X129.135 Y151.799 E4.81542
G1 X129.018 Y150.570 E4.85105
G1 X129.018 Y149.430 E4.88397
G1 X129.135 Y148.200 E4.91961
G1 X129.351 Y147.080 E4.95253
G1 X129.699 Y145.895 E4.98817
G1 X130.111 Y144.866 E5.02017
G1 X130.689 Y143.739 E5.05673
G1 X131.305 Y142.779 E5.08965
G1 X132.069 Y141.808 E5.12529
G1 X132.815 Y141.026 E5.15647
G1 X133.035 Y141.154 F6000.000
G1 F1800
G1 X133.933 Y140.376 E5.19075
G1 X134.862 Y139.714 E5.22367
G1 X135.891 Y139.121 E5.25795
G1 X136.929 Y138.647 E5.29087
G1 X138.051 Y138.258 E5.32515
G1 X139.160 Y137.989 E5.35807
G1 X140.335 Y137.820 E5.39235
G1 X141.475 Y137.766 E5.42527
G1 X142.661 Y137.822 E5.45954
G1 X143.835 Y137.991 E5.49376
G1 X163.127 Y140.907 E6.05686
G1 X164.237 Y141.180 E6.08985
G1 X164.776 Y141.367 E6.10631
G1 X165.857 Y141.860 E6.14059
G1 X166.351 Y142.145 E6.15705
G1 X167.318 Y142.834 E6.19133
G1 X167.749 Y143.208 E6.20779
G1 X168.569 Y144.068 E6.24207
G1 X168.921 Y144.516 E6.25853
G1 X169.564 Y145.515 E6.29281
G1 X169.825 Y146.022 E6.30927
G1 X170.266 Y147.125 E6.34354
G1 X170.427 Y147.672 E6.36000
G1 X170.652 Y148.838 E6.39428
G1 X170.706 Y149.406 E6.41074
G1 X170.706 Y150.594 E6.44502
G1 X170.652 Y151.162 E6.46149
G1 X170.427 Y152.328 E6.49576
G1 X170.266 Y152.875 E6.51222
G1 X169.825 Y153.978 E6.54650
G1 X169.563 Y154.485 E6.56297
G1 X168.921 Y155.484 E6.59724
G1 X168.589 Y155.907 E6.61278
G1 X167.749 Y156.792 E6.64798
G1 X167.318 Y157.166 E6.66444
G1 X166.351 Y157.855 E6.69872
G1 X165.857 Y158.140 E6.71518
G1 X164.776 Y158.633 E6.74945
G1 X164.237 Y158.820 E6.76591
G1 X163.127 Y159.093 E6.79890
G1 X142.661 Y162.178 E7.39622
G1 X141.475 Y162.234 E7.43050
G1 X140.335 Y162.180 E7.46342
G1 X139.160 Y162.011 E7.49769
G1 X138.051 Y161.742 E7.53061
G1 X136.929 Y161.353 E7.56489
G1 X135.891 Y160.879 E7.59781
G1 X134.862 Y160.286 E7.63209
G1 X133.933 Y159.624 E7.66501
G1 X133.035 Y158.846 E7.69929
G1 X132.248 Y158.021 E7.73221
G1 X131.514 Y157.087 E7.76649
G1 X130.897 Y156.127 E7.79941
G1 X130.353 Y155.071 E7.83369
G1 X129.929 Y154.013 E7.86661
G1 X129.594 Y152.873 E7.90089
G1 X129.379 Y151.752 E7.93382
G1 X129.266 Y150.570 E7.96809
G1 X129.266 Y149.430 E8.00100
G1 X129.379 Y148.247 E8.03528
G1 X129.594 Y147.127 E8.06820
G1 X129.929 Y145.987 E8.10248
G1 X130.341 Y144.958 E8.13448
G1 X130.897 Y143.873 E8.16968
G1 X131.514 Y142.913 E8.20260
G1 X132.248 Y141.979 E8.23688
G1 X132.994 Y141.197 E8.26806
G1 E6.26806 F2400.00000
G92 E0
G1 X143.225 Y151.658 F6000.000
G1 E2.00000 F2400.00000
G1 F1800
G1 X142.880 Y151.957 E2.01318
G1 X142.485 Y152.186 E2.02637
G1 X142.053 Y152.335 E2.03955
G1 X141.601 Y152.400 E2.05273
G1 X141.144 Y152.378 E2.06591
G1 X140.701 Y152.271 E2.07910
G1 X140.285 Y152.081 E2.09228
G1 X139.913 Y151.816 E2.10546
G1 X139.598 Y151.485 E2.11865
G1 X139.351 Y151.101 E2.13183
G1 X139.181 Y150.677 E2.14501
G1 X139.095 Y150.228 E2.15820
G1 X139.095 Y149.772 E2.17138
G1 X139.181 Y149.323 E2.18456
G1 X139.351 Y148.899 E2.19774
G1 X139.598 Y148.515 E2.21093
G1 X139.913 Y148.184 E2.22411
G1 X140.285 Y147.919 E2.23729
G1 X140.701 Y147.729 E2.25048
G1 X141.144 Y147.622 E2.26366
G1 X141.547 Y147.603 E2.27528
G1 X142.046 Y147.662 E2.28978
G1 X142.485 Y147.814 E2.30319
G1 X142.880 Y148.043 E2.31637
G1 X143.225 Y148.342 E2.32955
G1 X143.508 Y148.701 E2.34274
G1 X143.717 Y149.107 E2.35592
G1 X143.846 Y149.545 E2.36910
G1 X143.889 Y150.000 E2.38228
G1 X143.846 Y150.455 E2.39547
G1 X143.717 Y150.893 E2.40865
G1 X143.508 Y151.299 E2.42183
G1 X143.262 Y151.611 E2.43328
G1 X143.045 Y151.486 F6000.000
G1 F1800
G1 X142.736 Y151.754 E2.44510
G1 X142.381 Y151.959 E2.45692
G1 X141.994 Y152.093 E2.46873
G1 X141.589 Y152.151 E2.48055
G1 X141.180 Y152.132 E2.49237
G1 X140.782 Y152.035 E2.50418
G1 X140.410 Y151.865 E2.51600
G1 X140.076 Y151.628 E2.52782
G1 X139.793 Y151.331 E2.53963
G1 X139.572 Y150.987 E2.55145
G1 X139.420 Y150.607 E2.56327
G1 X139.342 Y150.205 E2.57508
G1 X139.342 Y149.795 E2.58690
G1 X139.420 Y149.393 E2.59872
G1 X139.572 Y149.013 E2.61053
G1 X139.793 Y148.669 E2.62235
G1 X140.076 Y148.372 E2.63417
G1 X140.410 Y148.135 E2.64598
G1 X140.782 Y147.965 E2.65780
G1 X141.180 Y147.868 E2.66962
G1 X141.538 Y147.851 E2.67995
G1 X141.990 Y147.905 E2.69309
G1 X142.381 Y148.041 E2.70504
G1 X142.736 Y148.246 E2.71686
G1 X143.045 Y148.514 E2.72868
G1 X143.298 Y148.836 E2.74049
G1 X143.486 Y149.200 E2.75231
G1 X143.601 Y149.592 E2.76413
G1 X143.640 Y150.000 E2.77594
G1 X143.601 Y150.408 E2.78776
G1 X143.486 Y150.800 E2.79958
G1 X143.298 Y151.164 E2.81139
G1 X143.082 Y151.439 E2.82148
G1 X142.865 Y151.314 F6000.000
G1 F1800
G1 X142.591 Y151.552 E2.83193
G1 X142.278 Y151.733 E2.84238
G1 X141.935 Y151.851 E2.85283
G1 X141.577 Y151.903 E2.86328
G1 X141.215 Y151.885 E2.87373
G1 X140.863 Y151.800 E2.88418
G1 X140.534 Y151.650 E2.89463
G1 X140.239 Y151.439 E2.90508
G1 X139.989 Y151.177 E2.91553
G1 X139.793 Y150.873 E2.92598
G1 X139.659 Y150.537 E2.93643
G1 X139.590 Y150.181 E2.94688
G1 X139.590 Y149.819 E2.95733
G1 X139.659 Y149.463 E2.96778
G1 X139.793 Y149.127 E2.97823
G1 X139.989 Y148.823 E2.98868
G1 X140.239 Y148.561 E2.99913
G1 X140.534 Y148.350 E3.00958
G1 X140.863 Y148.200 E3.02003
G1 X141.215 Y148.115 E3.03048
G1 X141.529 Y148.100 E3.03954
G1 X141.934 Y148.148 E3.05131
G1 X142.278 Y148.267 E3.06181
G1 X142.591 Y148.448 E3.07226
G1 X142.865 Y148.686 E3.08271
G1 X143.089 Y148.970 E3.09316
G1 X143.255 Y149.292 E3.10361
G1 X143.357 Y149.640 E3.11406
G1 X143.391 Y150.000 E3.12451
G1 X143.357 Y150.360 E3.13496
G1 X143.255 Y150.708 E3.14541
G1 X143.089 Y151.030 E3.15586
G1 X142.902 Y151.267 E3.16458
G1 X142.865 Y151.314 F6000.000
G1 E1.16458 F2400.00000
G92 E0
G1 X159.841 Y150.157 F6000.000
G1 E2.00000 F2400.00000
G1 F1800
G1 X159.841 Y149.843 E2.00907
G1 X159.901 Y149.534 E2.01814
G1 X160.017 Y149.243 E2.02720
G1 X160.187 Y148.978 E2.03627
G1 X160.404 Y148.751 E2.04534
G1 X160.660 Y148.569 E2.05441
G1 X160.948 Y148.437 E2.06356
G1 X161.263 Y148.363 E2.07289
G1 X161.565 Y148.349 E2.08161
G1 X161.876 Y148.394 E2.09068
G1 X162.173 Y148.497 E2.09974
G1 X162.445 Y148.654 E2.10881
G1 X162.683 Y148.859 E2.11788
G1 X162.877 Y149.106 E2.12695
G1 X163.021 Y149.386 E2.13602
G1 X163.109 Y149.687 E2.14508
G1 X163.139 Y150.000 E2.15415
G1 X163.109 Y150.313 E2.16322
G1 X163.021 Y150.614 E2.17229
G1 X162.877 Y150.894 E2.18136
G1 X162.683 Y151.141 E2.19042
G1 X162.445 Y151.346 E2.19949
G1 X162.173 Y151.503 E2.20856
G1 X161.876 Y151.606 E2.21763
G1 X161.565 Y151.651 E2.22670
G1 X161.251 Y151.636 E2.23576
G1 X160.946 Y151.562 E2.24483
G1 X160.660 Y151.431 E2.25390
G1 X160.404 Y151.249 E2.26297
G1 X160.187 Y151.022 E2.27204
G1 X160.017 Y150.757 E2.28110
G1 X159.901 Y150.466 E2.29017
G1 X159.852 Y150.216 E2.29751
G1 X160.089 Y150.133 F6000.000
G1 F1800
G1 X160.089 Y149.867 E2.30521
G1 X160.140 Y149.605 E2.31291
G1 X160.239 Y149.357 E2.32061
G1 X160.383 Y149.132 E2.32832
G1 X160.567 Y148.939 E2.33602
G1 X160.785 Y148.784 E2.34372
G1 X161.029 Y148.673 E2.35147
G1 X161.298 Y148.610 E2.35943
G1 X161.553 Y148.598 E2.36682
G1 X161.817 Y148.636 E2.37452
G1 X162.070 Y148.723 E2.38222
G1 X162.301 Y148.857 E2.38992
G1 X162.502 Y149.031 E2.39763
G1 X162.667 Y149.241 E2.40533
G1 X162.790 Y149.478 E2.41303
G1 X162.865 Y149.734 E2.42073
G1 X162.890 Y150.000 E2.42843
G1 X162.865 Y150.266 E2.43613
G1 X162.790 Y150.522 E2.44384
G1 X162.667 Y150.759 E2.45154
G1 X162.502 Y150.969 E2.45924
G1 X162.301 Y151.143 E2.46694
G1 X162.070 Y151.277 E2.47464
G1 X161.817 Y151.364 E2.48234
G1 X161.553 Y151.402 E2.49005
G1 X161.287 Y151.389 E2.49775
G1 X161.027 Y151.327 E2.50545
G1 X160.785 Y151.216 E2.51315
G1 X160.567 Y151.061 E2.52085
G1 X160.383 Y150.868 E2.52855
G1 X160.239 Y150.643 E2.53626
G1 X160.140 Y150.395 E2.54396
G1 X160.100 Y150.192 E2.54993
G1 X160.337 Y150.110 F6000.000
G1 F1800
G1 X160.337 Y149.890 E2.55626
G1 X160.378 Y149.675 E2.56260
G1 X160.460 Y149.471 E2.56893
G1 X160.579 Y149.286 E2.57527
G1 X160.730 Y149.127 E2.58160
G1 X160.909 Y149.000 E2.58794
G1 X161.109 Y148.909 E2.59429
G1 X161.332 Y148.857 E2.60089
G1 X161.541 Y148.847 E2.60694
G1 X161.759 Y148.878 E2.61328
G1 X161.966 Y148.950 E2.61961
G1 X162.156 Y149.059 E2.62595
G1 X162.322 Y149.203 E2.63228
G1 X162.458 Y149.376 E2.63862
G1 X162.558 Y149.571 E2.64495
G1 X162.620 Y149.781 E2.65129
G1 X162.641 Y150.000 E2.65762
G1 X162.620 Y150.219 E2.66396
G1 X162.558 Y150.429 E2.67029
G1 X162.458 Y150.624 E2.67663
G1 X162.322 Y150.797 E2.68296
G1 X162.156 Y150.941 E2.68930
G1 X161.966 Y151.050 E2.69563
G1 X161.759 Y151.122 E2.70197
G1 X161.541 Y151.153 E2.70831
G1 X161.322 Y151.143 E2.71464
G1 X161.109 Y151.091 E2.72098
G1 X160.909 Y151.000 E2.72731
G1 X160.730 Y150.873 E2.73365
G1 X160.579 Y150.714 E2.73998
G1 X160.460 Y150.529 E2.74632
G1 X160.378 Y150.325 E2.75265
G1 X160.348 Y150.169 E2.75726
G1 X160.337 Y150.110 F6000.000
G1 E0.75726 F2400.00000
G92 E0
G1 X160.695 Y152.484 F6000.000
G1 E2.00000 F2400.00000
G1 F1800
G1 X141.739 Y155.341 E2.55324
G1 X140.725 Y155.293 E2.58252
G1 X139.738 Y155.053 E2.61185
G1 X138.813 Y154.631 E2.64119
G1 X137.985 Y154.041 E2.67053
G1 X137.283 Y153.305 E2.69987
G1 X136.734 Y152.450 E2.72921
G1 X136.356 Y151.506 E2.75854
G1 X136.163 Y150.508 E2.78788
G1 X136.163 Y149.492 E2.81722
G1 X136.356 Y148.494 E2.84656
G1 X136.734 Y147.550 E2.87589
G1 X137.283 Y146.695 E2.90523
G1 X137.985 Y145.959 E2.93457
G1 X138.813 Y145.369 E2.96391
G1 X139.738 Y144.947 E2.99325
G1 X140.724 Y144.708 E3.02253
G1 X141.769 Y144.663 E3.05271
G1 X162.038 Y147.718 E3.64428
G1 X162.461 Y147.865 E3.65722
G1 X162.848 Y148.088 E3.67010
G1 X163.185 Y148.380 E3.68298
G1 X163.461 Y148.731 E3.69585
G1 X163.665 Y149.128 E3.70873
G1 X163.791 Y149.556 E3.72161
G1 X163.834 Y150.000 E3.73449
G1 X163.791 Y150.444 E3.74737
G1 X163.665 Y150.872 E3.76024
G1 X163.461 Y151.269 E3.77312
G1 X163.203 Y151.597 E3.78517
G1 X162.845 Y151.914 E3.79896
G1 X162.461 Y152.135 E3.81174
G1 X162.038 Y152.282 E3.82468
G1 X160.754 Y152.475 E3.86214
G1 X160.732 Y152.729 F6000.000
G1 F1800
G1 X141.751 Y155.590 E4.41610
G1 X140.690 Y155.539 E4.44676
G1 X139.656 Y155.288 E4.47746
G1 X138.688 Y154.847 E4.50817
G1 X137.822 Y154.229 E4.53887
G1 X137.087 Y153.459 E4.56958
G1 X136.512 Y152.564 E4.60028
G1 X136.117 Y151.577 E4.63099
G1 X135.915 Y150.532 E4.66169
G1 X135.915 Y149.468 E4.69239
G1 X136.117 Y148.423 E4.72310
G1 X136.512 Y147.436 E4.75380
G1 X137.087 Y146.541 E4.78451
G1 X137.822 Y145.771 E4.81521
G1 X138.688 Y145.153 E4.84591
G1 X139.656 Y144.712 E4.87662
G1 X140.689 Y144.461 E4.90729
G1 X141.782 Y144.415 E4.93886
G1 X162.097 Y147.476 E5.53177
G1 X162.565 Y147.638 E5.54606
G1 X162.992 Y147.885 E5.56030
G1 X163.365 Y148.208 E5.57455
G1 X163.671 Y148.596 E5.58879
G1 X163.897 Y149.035 E5.60304
G1 X164.036 Y149.509 E5.61728
G1 X164.083 Y150.000 E5.63152
G1 X164.036 Y150.491 E5.64577
G1 X163.897 Y150.965 E5.66001
G1 X163.671 Y151.404 E5.67426
G1 X163.384 Y151.768 E5.68764
G1 X162.991 Y152.116 E5.70279
G1 X162.565 Y152.362 E5.71698
G1 X162.097 Y152.524 E5.73126
G1 X160.791 Y152.720 E5.76938
G1 X160.769 Y152.974 F6000.000
G1 F1800
G1 X141.764 Y155.839 E6.32404
G1 X140.655 Y155.786 E6.35609
G1 X139.575 Y155.524 E6.38816
G1 X138.564 Y155.062 E6.42023
G1 X137.659 Y154.418 E6.45231
G1 X136.892 Y153.613 E6.48438
G1 X136.291 Y152.678 E6.51645
G1 X135.878 Y151.647 E6.54852
G1 X135.668 Y150.556 E6.58059
G1 X135.668 Y149.444 E6.61266
G1 X135.878 Y148.353 E6.64473
G1 X136.291 Y147.322 E6.67680
G1 X136.892 Y146.387 E6.70887
G1 X137.659 Y145.582 E6.74094
G1 X138.564 Y144.938 E6.77301
G1 X139.575 Y144.476 E6.80508
G1 X140.654 Y144.214 E6.83714
G1 X141.795 Y144.166 E6.87010
G1 X162.157 Y147.235 E7.46436
G1 X162.668 Y147.412 E7.47998
G1 X163.137 Y147.682 E7.49560
G1 X163.546 Y148.037 E7.51121
G1 X163.880 Y148.462 E7.52682
G1 X164.128 Y148.943 E7.54243
G1 X164.280 Y149.462 E7.55804
G1 X164.332 Y150.000 E7.57365
G1 X164.280 Y150.538 E7.58926
G1 X164.128 Y151.057 E7.60487
G1 X163.880 Y151.538 E7.62048
G1 X163.565 Y151.939 E7.63519
G1 X163.136 Y152.318 E7.65171
G1 X162.668 Y152.588 E7.66730
G1 X162.157 Y152.765 E7.68293
G1 X160.828 Y152.966 E7.72170
G1 X160.514 Y152.666 F6000.000
G1 X162.012 Y152.086 F6000.000
G1 F1800
G1 X162.580 Y151.518 E7.74489
G1 X162.364 Y151.642 E7.75207
G1 X161.980 Y151.767 E7.76372
G1 X161.571 Y152.176 E7.78042
G1 X161.158 Y152.238 E7.79247
G1 X161.588 Y151.808 E7.81001
G1 X161.261 Y151.785 E7.81947
G1 X160.745 Y152.300 E7.84052
G1 X160.333 Y152.363 E7.85257
G1 X160.979 Y151.716 E7.87895
G1 X160.734 Y151.610 E7.88665
G1 X159.920 Y152.425 E7.91990
G1 X159.507 Y152.487 E7.93195
G1 X160.513 Y151.481 E7.97301
G1 X160.312 Y151.332 E7.98024
G1 X159.094 Y152.549 E8.02994
G1 X158.681 Y152.611 E8.04199
G1 X160.140 Y151.152 E8.10154
G1 X159.991 Y150.951 E8.10878
G1 X158.268 Y152.674 E8.17909
G1 X157.856 Y152.736 E8.19114
G1 X159.862 Y150.729 E8.27303
G1 X159.762 Y150.479 E8.28082
G1 X157.443 Y152.798 E8.37547
G1 X157.030 Y152.860 E8.38752
G1 X159.700 Y150.190 E8.49649
G1 X159.681 Y150.093 E8.49935
G1 X159.681 Y149.859 E8.50612
G1 X156.617 Y152.922 E8.63117
G1 X156.204 Y152.985 E8.64322
G1 X159.734 Y149.455 E8.78730
G1 X159.884 Y149.041 E8.80000
G1 X160.039 Y148.799 E8.80828
G1 X155.791 Y153.047 E8.98165
G1 X155.379 Y153.109 E8.99370
G1 E6.99370 F2400.00000
G92 E0
G1 X162.933 Y151.515 F6000.000
G1 E2.00000 F2400.00000
G1 F1800
G1 X163.110 Y151.338 E2.00723
G1 X163.339 Y151.047 E2.01792
G1 X163.522 Y150.692 E2.02944
G1 X163.570 Y150.527 E2.03440
G1 X163.017 Y151.081 E2.05700
G1 X163.164 Y150.794 E2.06630
G1 X163.252 Y150.494 E2.07532
G1 X163.655 Y150.092 E2.09176
G1 X163.672 Y149.912 E2.09696
G1 X163.656 Y149.740 E2.10195
G1 X163.300 Y150.097 E2.11648
G1 X163.271 Y149.775 E2.12580
