; generated by Slic3r 1.3.0 on 2023-07-28 at 15:49:22

; external perimeters extrusion width = 0.44mm (3.19mm^3/s)
; perimeters extrusion width = 0.51mm (7.54mm^3/s)
; infill extrusion width = 0.50mm (9.85mm^3/s)
; solid infill extrusion width = 0.51mm (2.51mm^3/s)
; top infill extrusion width = 0.51mm (1.88mm^3/s)

M107
M190 S63 ; set bed temperature and wait for it to be reached
M104 S203 ; set temperature
G28 ; home all axes
G1 Z5 F5000 ; lift nozzle

; Filament gcode

M109 S203 ; set temperature and wait for it to be reached
G21 ; set units to millimeters
G90 ; use absolute coordinates
M82 ; use absolute distances for extrusion
G92 E0
G1 Z0.280 F6000.000
G1 E-2.00000 F2400.00000
G92 E0
G1 X108.693 Y123.952 F6000.000
G1 E2.00000 F2400.00000
G1 F1800
G1 X110.441 Y122.502 E2.06553
G1 X113.650 Y121.654 E2.16131
G1 X186.350 Y121.654 E4.25940
G1 X188.586 Y122.051 E4.32493
G1 X190.548 Y123.193 E4.39047
G1 X191.998 Y124.941 E4.45600
G1 X192.846 Y128.150 E4.55178
G1 X192.846 Y171.850 E5.81294
G1 X192.449 Y174.086 E5.87848
G1 X191.307 Y176.048 E5.94401
G1 X189.559 Y177.498 E6.00955
G1 X186.350 Y178.346 E6.10532
G1 X170.350 Y178.346 E6.56707
G1 X168.114 Y177.949 E6.63261
G1 X166.562 Y177.127 E6.68329
G1 X109.862 Y136.427 E8.69755
G1 X108.277 Y134.801 E8.76308
G1 X107.349 Y132.728 E8.82862
G1 X107.154 Y131.150 E8.87452
G1 X107.154 Y128.150 E8.96109
G1 X107.551 Y125.914 E9.02663
G1 X108.663 Y124.003 E9.09043
G1 X108.939 Y124.046 F6000.000
G1 F1800
G1 X110.677 Y122.655 E9.15469
G1 X113.650 Y121.902 E9.24319
G1 X186.350 Y121.902 E11.34128
G1 X188.541 Y122.299 E11.40554
G1 X190.454 Y123.439 E11.46980
G1 X191.845 Y125.177 E11.53406
G1 X192.598 Y128.150 E11.62256
G1 X192.598 Y171.850 E12.88372
G1 X192.201 Y174.041 E12.94798
G1 X191.061 Y175.954 E13.01225
G1 X189.323 Y177.345 E13.07651
G1 X186.350 Y178.098 E13.16501
G1 X170.350 Y178.098 E13.62676
G1 X168.159 Y177.701 E13.69102
G1 X166.707 Y176.926 E13.73853
G1 X110.007 Y136.226 E15.75279
G1 X108.458 Y134.626 E15.81705
G1 X107.569 Y132.584 E15.88131
G1 X107.402 Y131.150 E15.92298
G1 X107.402 Y128.150 E16.00956
G1 X107.799 Y125.959 E16.07382
G1 X108.908 Y124.098 E16.13635
G1 E14.13635 F2400.00000
G92 E0
G1 X174.537 Y167.653 F6000.000
G1 E2.00000 F2400.00000
G1 F1800
G1 X174.240 Y167.756 E2.00907
G1 X173.929 Y167.801 E2.01814
G1 X173.615 Y167.786 E2.02720
G1 X173.309 Y167.712 E2.03627
G1 X173.024 Y167.581 E2.04534
G1 X172.768 Y167.399 E2.05441
G1 X172.551 Y167.172 E2.06348
G1 X172.381 Y166.907 E2.07254
G1 X172.264 Y166.616 E2.08161
G1 X172.205 Y166.307 E2.09068
G1 X172.205 Y165.993 E2.09975
G1 X172.264 Y165.684 E2.10882
G1 X172.381 Y165.393 E2.11788
G1 X172.551 Y165.128 E2.12695
G1 X172.768 Y164.901 E2.13602
G1 X173.024 Y164.719 E2.14509
G1 X173.309 Y164.588 E2.15416
G1 X173.615 Y164.514 E2.16322
G1 X173.929 Y164.499 E2.17229
G1 X174.240 Y164.544 E2.18136
G1 X174.537 Y164.647 E2.19043
G1 X174.809 Y164.804 E2.19950
G1 X175.046 Y165.009 E2.20856
G1 X175.240 Y165.256 E2.21763
G1 X175.384 Y165.536 E2.22670
G1 X175.473 Y165.837 E2.23577
G1 X175.503 Y166.150 E2.24484
G1 X175.473 Y166.463 E2.25391
G1 X175.384 Y166.764 E2.26297
G1 X175.240 Y167.044 E2.27204
G1 X175.046 Y167.291 E2.28111
G1 X174.809 Y167.496 E2.29018
G1 X174.589 Y167.623 E2.29751
G1 X174.433 Y167.427 F6000.000
G1 F1800
G1 X174.181 Y167.514 E2.30521
G1 X173.917 Y167.552 E2.31292
G1 X173.650 Y167.539 E2.32062
G1 X173.391 Y167.477 E2.32832
G1 X173.148 Y167.366 E2.33602
G1 X172.931 Y167.211 E2.34372
G1 X172.747 Y167.018 E2.35142
G1 X172.602 Y166.793 E2.35913
G1 X172.503 Y166.545 E2.36683
G1 X172.453 Y166.283 E2.37453
G1 X172.453 Y166.017 E2.38223
G1 X172.503 Y165.755 E2.38993
G1 X172.602 Y165.507 E2.39764
G1 X172.747 Y165.282 E2.40534
G1 X172.931 Y165.089 E2.41304
G1 X173.148 Y164.934 E2.42074
G1 X173.391 Y164.823 E2.42844
G1 X173.650 Y164.761 E2.43614
G1 X173.917 Y164.748 E2.44385
G1 X174.181 Y164.786 E2.45155
G1 X174.433 Y164.873 E2.45925
G1 X174.664 Y165.007 E2.46695
G1 X174.866 Y165.181 E2.47465
G1 X175.031 Y165.391 E2.48235
G1 X175.153 Y165.628 E2.49005
G1 X175.228 Y165.884 E2.49776
G1 X175.254 Y166.150 E2.50546
G1 X175.228 Y166.416 E2.51316
G1 X175.153 Y166.672 E2.52086
G1 X175.031 Y166.909 E2.52856
G1 X174.866 Y167.119 E2.53626
G1 X174.664 Y167.293 E2.54397
G1 X174.485 Y167.397 E2.54994
G1 X174.330 Y167.200 F6000.000
G1 F1800
G1 X174.122 Y167.272 E2.55627
G1 X173.905 Y167.303 E2.56261
G1 X173.686 Y167.293 E2.56894
G1 X173.472 Y167.241 E2.57528
G1 X173.273 Y167.150 E2.58161
G1 X173.094 Y167.023 E2.58795
G1 X172.942 Y166.864 E2.59428
G1 X172.824 Y166.679 E2.60062
G1 X172.742 Y166.475 E2.60695
G1 X172.701 Y166.260 E2.61329
G1 X172.701 Y166.040 E2.61963
G1 X172.742 Y165.825 E2.62596
G1 X172.824 Y165.621 E2.63230
G1 X172.942 Y165.436 E2.63863
G1 X173.094 Y165.277 E2.64497
G1 X173.273 Y165.150 E2.65130
G1 X173.472 Y165.059 E2.65764
G1 X173.686 Y165.007 E2.66397
G1 X173.905 Y164.997 E2.67031
G1 X174.122 Y165.028 E2.67664
G1 X174.330 Y165.100 E2.68298
G1 X174.520 Y165.209 E2.68931
G1 X174.686 Y165.353 E2.69565
G1 X174.821 Y165.526 E2.70198
G1 X174.922 Y165.721 E2.70832
G1 X174.984 Y165.931 E2.71465
G1 X175.005 Y166.150 E2.72099
G1 X174.984 Y166.369 E2.72733
G1 X174.922 Y166.579 E2.73366
G1 X174.821 Y166.774 E2.74000
G1 X174.686 Y166.947 E2.74633
G1 X174.520 Y167.091 E2.75267
G1 X174.382 Y167.170 E2.75727
G1 X174.330 Y167.200 F6000.000
G1 E0.75727 F2400.00000
G92 E0
G1 X173.929 Y157.801 F6000.000
G1 E2.00000 F2400.00000
G1 F1800
G1 X173.615 Y157.786 E2.00907
G1 X173.309 Y157.712 E2.01814
G1 X173.024 Y157.581 E2.02720
G1 X172.768 Y157.399 E2.03627
G1 X172.551 Y157.172 E2.04534
G1 X172.381 Y156.907 E2.05441
G1 X172.264 Y156.616 E2.06348
G1 X172.205 Y156.307 E2.07254
G1 X172.205 Y155.993 E2.08161
G1 X172.264 Y155.684 E2.09068
G1 X172.381 Y155.393 E2.09975
G1 X172.551 Y155.128 E2.10882
G1 X172.768 Y154.901 E2.11788
G1 X173.024 Y154.719 E2.12695
G1 X173.309 Y154.588 E2.13602
G1 X173.615 Y154.514 E2.14509
G1 X173.929 Y154.499 E2.15416
G1 X174.240 Y154.544 E2.16322
G1 X174.537 Y154.647 E2.17229
G1 X174.809 Y154.804 E2.18136
G1 X175.046 Y155.009 E2.19043
G1 X175.240 Y155.256 E2.19950
G1 X175.384 Y155.536 E2.20856
G1 X175.473 Y155.837 E2.21763
G1 X175.503 Y156.150 E2.22670
G1 X175.473 Y156.463 E2.23577
G1 X175.384 Y156.764 E2.24484
G1 X175.240 Y157.044 E2.25390
G1 X175.046 Y157.291 E2.26297
G1 X174.809 Y157.496 E2.27204
G1 X174.537 Y157.653 E2.28111
G1 X174.240 Y157.756 E2.29018
G1 X173.988 Y157.792 E2.29751
G1 X173.917 Y157.552 F6000.000
G1 F1800
G1 X173.650 Y157.539 E2.30522
G1 X173.391 Y157.477 E2.31292
G1 X173.148 Y157.366 E2.32062
G1 X172.931 Y157.211 E2.32832
G1 X172.747 Y157.018 E2.33602
G1 X172.602 Y156.793 E2.34372
G1 X172.503 Y156.545 E2.35142
G1 X172.453 Y156.283 E2.35913
G1 X172.453 Y156.017 E2.36683
G1 X172.503 Y155.755 E2.37453
G1 X172.602 Y155.507 E2.38223
G1 X172.747 Y155.282 E2.38993
G1 X172.931 Y155.089 E2.39763
G1 X173.148 Y154.934 E2.40534
G1 X173.391 Y154.823 E2.41304
G1 X173.650 Y154.761 E2.42074
G1 X173.917 Y154.748 E2.42844
G1 X174.181 Y154.786 E2.43614
G1 X174.433 Y154.873 E2.44384
G1 X174.664 Y155.007 E2.45155
G1 X174.866 Y155.181 E2.45925
G1 X175.031 Y155.391 E2.46695
G1 X175.153 Y155.628 E2.47465
G1 X175.228 Y155.884 E2.48235
G1 X175.254 Y156.150 E2.49005
G1 X175.228 Y156.416 E2.49776
G1 X175.153 Y156.672 E2.50546
G1 X175.031 Y156.909 E2.51316
G1 X174.866 Y157.119 E2.52086
G1 X174.664 Y157.293 E2.52856
G1 X174.433 Y157.427 E2.53626
G1 X174.181 Y157.514 E2.54397
G1 X173.976 Y157.544 E2.54994
G1 X173.905 Y157.303 F6000.000
G1 F1800
G1 X173.686 Y157.293 E2.55627
G1 X173.472 Y157.241 E2.56261
G1 X173.273 Y157.150 E2.56894
G1 X173.094 Y157.023 E2.57528
G1 X172.942 Y156.864 E2.58161
G1 X172.824 Y156.679 E2.58795
G1 X172.742 Y156.475 E2.59428
G1 X172.701 Y156.260 E2.60062
G1 X172.701 Y156.040 E2.60695
G1 X172.742 Y155.825 E2.61329
G1 X172.824 Y155.621 E2.61962
G1 X172.942 Y155.436 E2.62596
G1 X173.094 Y155.277 E2.63230
G1 X173.273 Y155.150 E2.63863
G1 X173.472 Y155.059 E2.64497
G1 X173.686 Y155.007 E2.65130
G1 X173.905 Y154.997 E2.65764
G1 X174.122 Y155.028 E2.66397
G1 X174.330 Y155.100 E2.67031
G1 X174.520 Y155.209 E2.67664
G1 X174.686 Y155.353 E2.68298
G1 X174.821 Y155.526 E2.68931
G1 X174.922 Y155.721 E2.69565
G1 X174.984 Y155.931 E2.70198
G1 X175.005 Y156.150 E2.70832
G1 X174.984 Y156.369 E2.71465
G1 X174.922 Y156.579 E2.72099
G1 X174.821 Y156.774 E2.72732
G1 X174.686 Y156.947 E2.73366
G1 X174.520 Y157.091 E2.74000
G1 X174.330 Y157.200 E2.74633
G1 X174.122 Y157.272 E2.75267
G1 X173.964 Y157.295 E2.75727
G1 X173.905 Y157.303 F6000.000
G1 E0.75727 F2400.00000
G92 E0
G1 X173.929 Y147.801 F6000.000
G1 E2.00000 F2400.00000
G1 F1800
G1 X173.615 Y147.786 E2.00907
G1 X173.309 Y147.712 E2.01814
G1 X173.024 Y147.581 E2.02720
G1 X172.768 Y147.399 E2.03627
G1 X172.551 Y147.172 E2.04534
G1 X172.381 Y146.907 E2.05441
G1 X172.264 Y146.616 E2.06348
G1 X172.205 Y146.307 E2.07254
G1 X172.205 Y145.993 E2.08161
G1 X172.264 Y145.684 E2.09068
G1 X172.381 Y145.393 E2.09975
G1 X172.551 Y145.128 E2.10882
G1 X172.768 Y144.901 E2.11788
G1 X173.024 Y144.719 E2.12695
G1 X173.309 Y144.588 E2.13602
G1 X173.615 Y144.514 E2.14509
G1 X173.929 Y144.499 E2.15416
G1 X174.240 Y144.544 E2.16322
G1 X174.537 Y144.647 E2.17229
G1 X174.809 Y144.804 E2.18136
G1 X175.046 Y145.009 E2.19043
G1 X175.240 Y145.256 E2.19950
G1 X175.384 Y145.536 E2.20856
G1 X175.473 Y145.837 E2.21763
G1 X175.503 Y146.150 E2.22670
G1 X175.473 Y146.463 E2.23577
G1 X175.384 Y146.764 E2.24484
G1 X175.240 Y147.044 E2.25390
G1 X175.046 Y147.291 E2.26297
G1 X174.809 Y147.496 E2.27204
G1 X174.537 Y147.653 E2.28111
G1 X174.240 Y147.756 E2.29018
G1 X173.988 Y147.792 E2.29751
G1 X173.917 Y147.552 F6000.000
G1 F1800
G1 X173.650 Y147.539 E2.30522
G1 X173.391 Y147.477 E2.31292
G1 X173.148 Y147.366 E2.32062
G1 X172.931 Y147.211 E2.32832
G1 X172.747 Y147.018 E2.33602
G1 X172.602 Y146.793 E2.34372
G1 X172.503 Y146.545 E2.35142
G1 X172.453 Y146.283 E2.35913
G1 X172.453 Y146.017 E2.36683
G1 X172.503 Y145.755 E2.37453
G1 X172.602 Y145.507 E2.38223
G1 X172.747 Y145.282 E2.38993
G1 X172.931 Y145.089 E2.39763
G1 X173.148 Y144.934 E2.40534
G1 X173.391 Y144.823 E2.41304
G1 X173.650 Y144.761 E2.42074
G1 X173.917 Y144.748 E2.42844
G1 X174.181 Y144.786 E2.43614
G1 X174.433 Y144.873 E2.44384
G1 X174.664 Y145.007 E2.45155
G1 X174.866 Y145.181 E2.45925
G1 X175.031 Y145.391 E2.46695
G1 X175.153 Y145.628 E2.47465
G1 X175.228 Y145.884 E2.48235
G1 X175.254 Y146.150 E2.49005
G1 X175.228 Y146.416 E2.49776
G1 X175.153 Y146.672 E2.50546
G1 X175.031 Y146.909 E2.51316
G1 X174.866 Y147.119 E2.52086
G1 X174.664 Y147.293 E2.52856
G1 X174.433 Y147.427 E2.53626
G1 X174.181 Y147.514 E2.54397
G1 X173.976 Y147.544 E2.54994
G1 X173.905 Y147.303 F6000.000
G1 F1800
G1 X173.686 Y147.293 E2.55627
G1 X173.472 Y147.241 E2.56261
G1 X173.273 Y147.150 E2.56894
G1 X173.094 Y147.023 E2.57528
G1 X172.942 Y146.864 E2.58161
G1 X172.824 Y146.679 E2.58795
G1 X172.742 Y146.475 E2.59428
G1 X172.701 Y146.260 E2.60062
G1 X172.701 Y146.040 E2.60695
G1 X172.742 Y145.825 E2.61329
G1 X172.824 Y145.621 E2.61962
G1 X172.942 Y145.436 E2.62596
G1 X173.094 Y145.277 E2.63230
G1 X173.273 Y145.150 E2.63863
G1 X173.472 Y145.059 E2.64497
G1 X173.686 Y145.007 E2.65130
G1 X173.905 Y144.997 E2.65764
G1 X174.122 Y145.028 E2.66397
G1 X174.330 Y145.100 E2.67031
G1 X174.520 Y145.209 E2.67664
G1 X174.686 Y145.353 E2.68298
G1 X174.821 Y145.526 E2.68931
G1 X174.922 Y145.721 E2.69565
G1 X174.984 Y145.931 E2.70198
G1 X175.005 Y146.150 E2.70832
G1 X174.984 Y146.369 E2.71465
G1 X174.922 Y146.579 E2.72099
G1 X174.821 Y146.774 E2.72732
G1 X174.686 Y146.947 E2.73366
G1 X174.520 Y147.091 E2.74000
G1 X174.330 Y147.200 E2.74633
G1 X174.122 Y147.272 E2.75267
G1 X173.964 Y147.295 E2.75727
G1 X173.905 Y147.303 F6000.000
G1 E0.75727 F2400.00000
G92 E0
G1 X173.929 Y137.801 F6000.000
G1 E2.00000 F2400.00000
G1 F1800
G1 X173.615 Y137.786 E2.00907
G1 X173.309 Y137.712 E2.01814
G1 X173.024 Y137.581 E2.02720
G1 X172.768 Y137.399 E2.03627
G1 X172.551 Y137.172 E2.04534
G1 X172.381 Y136.907 E2.05441
G1 X172.264 Y136.616 E2.06348
G1 X172.205 Y136.307 E2.07254
G1 X172.205 Y135.993 E2.08161
G1 X172.264 Y135.684 E2.09068
G1 X172.381 Y135.393 E2.09975
G1 X172.551 Y135.128 E2.10882
G1 X172.768 Y134.901 E2.11788
G1 X173.024 Y134.719 E2.12695
G1 X173.309 Y134.588 E2.13602
G1 X173.615 Y134.514 E2.14509
G1 X173.929 Y134.499 E2.15416
G1 X174.240 Y134.544 E2.16322
G1 X174.537 Y134.647 E2.17229
G1 X174.809 Y134.804 E2.18136
G1 X175.046 Y135.009 E2.19043
G1 X175.240 Y135.256 E2.19950
G1 X175.384 Y135.536 E2.20856
G1 X175.473 Y135.837 E2.21763
G1 X175.503 Y136.150 E2.22670
G1 X175.473 Y136.463 E2.23577
G1 X175.384 Y136.764 E2.24484
G1 X175.240 Y137.044 E2.25390
G1 X175.046 Y137.291 E2.26297
G1 X174.809 Y137.496 E2.27204
G1 X174.537 Y137.653 E2.28111
G1 X174.240 Y137.756 E2.29018
G1 X173.988 Y137.792 E2.29751
G1 X173.917 Y137.552 F6000.000
G1 F1800
G1 X173.650 Y137.539 E2.30521
G1 X173.391 Y137.477 E2.31292
G1 X173.148 Y137.366 E2.32062
G1 X172.931 Y137.211 E2.32832
G1 X172.747 Y137.018 E2.33602
G1 X172.602 Y136.793 E2.34372
G1 X172.503 Y136.545 E2.35142
G1 X172.453 Y136.283 E2.35913
G1 X172.453 Y136.017 E2.36683
G1 X172.503 Y135.755 E2.37453
G1 X172.602 Y135.507 E2.38223
G1 X172.747 Y135.282 E2.38993
G1 X172.931 Y135.089 E2.39763
G1 X173.148 Y134.934 E2.40534
G1 X173.391 Y134.823 E2.41304
G1 X173.650 Y134.761 E2.42074
G1 X173.917 Y134.748 E2.42844
G1 X174.181 Y134.786 E2.43614
G1 X174.433 Y134.873 E2.44384
G1 X174.664 Y135.007 E2.45155
G1 X174.866 Y135.181 E2.45925
G1 X175.031 Y135.391 E2.46695
G1 X175.153 Y135.628 E2.47465
G1 X175.228 Y135.884 E2.48235
G1 X175.254 Y136.150 E2.49005
G1 X175.228 Y136.416 E2.49776
G1 X175.153 Y136.672 E2.50546
G1 X175.031 Y136.909 E2.51316
G1 X174.866 Y137.119 E2.52086
G1 X174.664 Y137.293 E2.52856
G1 X174.433 Y137.427 E2.53626
G1 X174.181 Y137.514 E2.54397
G1 X173.976 Y137.544 E2.54994
G1 X173.905 Y137.303 F6000.000
G1 F1800
G1 X173.686 Y137.293 E2.55627
G1 X173.472 Y137.241 E2.56261
G1 X173.273 Y137.150 E2.56894
G1 X173.094 Y137.023 E2.57528
G1 X172.942 Y136.864 E2.58161
G1 X172.824 Y136.679 E2.58795
G1 X172.742 Y136.475 E2.59428
G1 X172.701 Y136.260 E2.60062
G1 X172.701 Y136.040 E2.60695
G1 X172.742 Y135.825 E2.61329
G1 X172.824 Y135.621 E2.61962
G1 X172.942 Y135.436 E2.62596
G1 X173.094 Y135.277 E2.63230
G1 X173.273 Y135.150 E2.63863
G1 X173.472 Y135.059 E2.64497
G1 X173.686 Y135.007 E2.65130
G1 X173.905 Y134.997 E2.65764
G1 X174.122 Y135.028 E2.66397
G1 X174.330 Y135.100 E2.67031
G1 X174.520 Y135.209 E2.67664
G1 X174.686 Y135.353 E2.68298
G1 X174.821 Y135.526 E2.68931
G1 X174.922 Y135.721 E2.69565
G1 X174.984 Y135.931 E2.70198
G1 X175.005 Y136.150 E2.70832
G1 X174.984 Y136.369 E2.71465
G1 X174.922 Y136.579 E2.72099
G1 X174.821 Y136.774 E2.72732
G1 X174.686 Y136.947 E2.73366
G1 X174.520 Y137.091 E2.74000
G1 X174.330 Y137.200 E2.74633
G1 X174.122 Y137.272 E2.75267
G1 X173.964 Y137.295 E2.75727
G1 X173.905 Y137.303 F6000.000
G1 E0.75727 F2400.00000
G92 E0
G1 X171.000 Y130.500 F6000.000
G1 E2.00000 F2400.00000
G1 F1800
G1 X114.300 Y130.500 E3.63633
G1 X114.300 Y128.800 E3.68540
G1 X185.700 Y128.800 E5.74598
G1 X185.700 Y171.200 E6.96964
G1 X171.000 Y171.200 E7.39388
G1 X171.000 Y130.560 E8.56673
G1 X170.752 Y130.748 F6000.000
G1 F1800
G1 X114.052 Y130.748 E10.20306
G1 X114.052 Y128.552 E10.26644
G1 X185.948 Y128.552 E12.34133
G1 X185.948 Y171.448 E13.57929
G1 X170.752 Y171.448 E14.01785
G1 X170.752 Y130.808 E15.19070
G1 X170.504 Y130.996 F6000.000
G1 F1800
G1 X113.804 Y130.996 E16.82703
G1 X113.804 Y128.304 E16.90472
G1 X186.196 Y128.304 E18.99392
G1 X186.196 Y171.696 E20.24619
G1 X170.504 Y171.696 E20.69905
G1 X170.504 Y131.056 E21.87190
G1 X170.455 Y130.599 F6000.000
G1 E19.87190 F2400.00000
G92 E0
G1 X171.160 Y136.396 F6000.000
G1 E2.00000 F2400.00000
G1 F1800
G1 X171.160 Y136.747 E2.01017
G1 X172.049 Y135.858 E2.04653
G1 X172.044 Y136.214 E2.05683
G1 X171.160 Y137.099 E2.09301
G1 X171.160 Y137.450 E2.10318
G1 X172.097 Y136.513 E2.14149
G1 X172.184 Y136.777 E2.14952
G1 X171.160 Y137.801 E2.19143
G1 X171.160 Y138.153 E2.20160
