; generated by Slic3r 1.3.0 on 2024-03-11 at 21:37:22

; external perimeters extrusion width = 0.44mm (3.19mm^3/s)
; perimeters extrusion width = 0.51mm (7.54mm^3/s)
; infill extrusion width = 0.50mm (9.85mm^3/s)
; solid infill extrusion width = 0.51mm (2.51mm^3/s)
; top infill extrusion width = 0.51mm (1.88mm^3/s)

M107
M190 S63 ; set bed temperature and wait for it to be reached
M104 S203 ; set temperature
G28 ; home all axes
G1 Z5 F5000 ; lift nozzle

; Filament gcode

M109 S203 ; set temperature and wait for it to be reached
G21 ; set units to millimeters
G90 ; use absolute coordinates
M82 ; use absolute distances for extrusion
G92 E0
G1 Z0.280 F6000.000
G1 E-2.00000 F2400.00000
G92 E0
G1 X114.693 Y123.952 F6000.000
G1 E2.00000 F2400.00000
G1 F1800
G1 X116.441 Y122.502 E2.06553
G1 X119.650 Y121.654 E2.16131
G1 X180.350 Y121.654 E3.91308
G1 X182.586 Y122.051 E3.97862
G1 X184.548 Y123.193 E4.04415
G1 X185.998 Y124.941 E4.10969
G1 X186.846 Y128.150 E4.20547
G1 X186.846 Y171.850 E5.46663
G1 X186.449 Y174.086 E5.53216
G1 X185.307 Y176.048 E5.59770
G1 X183.559 Y177.498 E5.66323
G1 X180.350 Y178.346 E5.75901
G1 X170.350 Y178.346 E6.04760
G1 X168.114 Y177.949 E6.11314
G1 X166.284 Y176.916 E6.17380
G1 X115.584 Y136.216 E8.05011
G1 X114.088 Y134.506 E8.11565
G1 X113.273 Y132.387 E8.18118
G1 X113.154 Y131.150 E8.21704
G1 X113.154 Y128.150 E8.30362
G1 X113.551 Y125.914 E8.36916
G1 X114.663 Y124.003 E8.43296
G1 X114.939 Y124.046 F6000.000
G1 F1800
G1 X116.677 Y122.655 E8.49722
G1 X119.650 Y121.902 E8.58572
G1 X180.350 Y121.902 E10.33749
G1 X182.541 Y122.299 E10.40175
G1 X184.454 Y123.439 E10.46602
G1 X185.845 Y125.177 E10.53028
G1 X186.598 Y128.150 E10.61878
G1 X186.598 Y171.850 E11.87994
G1 X186.201 Y174.041 E11.94420
G1 X185.061 Y175.954 E12.00846
G1 X183.323 Y177.345 E12.07272
G1 X180.350 Y178.098 E12.16122
G1 X170.350 Y178.098 E12.44981
G1 X168.159 Y177.701 E12.51408
G1 X166.439 Y176.722 E12.57119
G1 X115.739 Y136.022 E14.44750
G1 X114.279 Y134.341 E14.51176
G1 X113.402 Y131.150 E14.60727
G1 X113.402 Y128.150 E14.69385
G1 X113.799 Y125.959 E14.75811
G1 X114.908 Y124.098 E14.82064
G1 E12.82064 F2400.00000
G92 E0
G1 X174.954 Y167.700 F6000.000
G1 E2.00000 F2400.00000
G1 F1800
G1 X174.640 Y167.881 E2.01044
G1 X174.299 Y167.999 E2.02088
G1 X173.941 Y168.051 E2.03132
G1 X173.579 Y168.033 E2.04176
G1 X173.228 Y167.948 E2.05220
G1 X172.899 Y167.798 E2.06264
G1 X172.604 Y167.588 E2.07308
G1 X172.354 Y167.326 E2.08352
G1 X172.159 Y167.022 E2.09396
G1 X172.024 Y166.686 E2.10440
G1 X171.956 Y166.331 E2.11484
G1 X171.956 Y165.969 E2.12528
G1 X172.024 Y165.614 E2.13572
G1 X172.159 Y165.278 E2.14616
G1 X172.354 Y164.974 E2.15660
G1 X172.604 Y164.712 E2.16703
G1 X172.899 Y164.502 E2.17747
G1 X173.228 Y164.352 E2.18791
G1 X173.579 Y164.267 E2.19835
G1 X173.941 Y164.249 E2.20879
G1 X174.299 Y164.301 E2.21923
G1 X174.640 Y164.419 E2.22967
G1 X174.954 Y164.600 E2.24011
G1 X175.227 Y164.837 E2.25055
G1 X175.451 Y165.121 E2.26099
G1 X175.616 Y165.443 E2.27143
G1 X175.718 Y165.790 E2.28187
G1 X175.753 Y166.150 E2.29231
G1 X175.718 Y166.510 E2.30275
G1 X175.616 Y166.857 E2.31319
G1 X175.451 Y167.179 E2.32363
G1 X175.227 Y167.463 E2.33407
G1 X174.999 Y167.661 E2.34278
G1 X174.809 Y167.497 F6000.000
G1 F1800
G1 X174.537 Y167.654 E2.35185
G1 X174.240 Y167.757 E2.36092
G1 X173.929 Y167.802 E2.37000
G1 X173.615 Y167.787 E2.37907
G1 X173.309 Y167.713 E2.38814
G1 X173.023 Y167.582 E2.39722
G1 X172.767 Y167.400 E2.40629
G1 X172.550 Y167.172 E2.41536
G1 X172.380 Y166.908 E2.42444
G1 X172.263 Y166.616 E2.43351
G1 X172.204 Y166.307 E2.44258
G1 X172.204 Y165.993 E2.45166
G1 X172.263 Y165.684 E2.46073
G1 X172.380 Y165.392 E2.46980
G1 X172.550 Y165.128 E2.47888
G1 X172.767 Y164.900 E2.48795
G1 X173.023 Y164.718 E2.49702
G1 X173.309 Y164.587 E2.50610
G1 X173.615 Y164.513 E2.51517
G1 X173.929 Y164.498 E2.52424
G1 X174.240 Y164.543 E2.53332
G1 X174.537 Y164.646 E2.54239
G1 X174.809 Y164.803 E2.55146
G1 X175.047 Y165.009 E2.56054
G1 X175.241 Y165.256 E2.56961
G1 X175.385 Y165.535 E2.57868
G1 X175.474 Y165.837 E2.58776
G1 X175.504 Y166.150 E2.59683
G1 X175.474 Y166.463 E2.60590
G1 X175.385 Y166.765 E2.61498
G1 X175.241 Y167.044 E2.62405
G1 X175.047 Y167.291 E2.63312
G1 X174.855 Y167.458 E2.64046
G1 X174.665 Y167.294 F6000.000
G1 F1800
G1 X174.434 Y167.428 E2.64817
G1 X174.181 Y167.515 E2.65588
G1 X173.917 Y167.553 E2.66359
G1 X173.650 Y167.540 E2.67129
G1 X173.391 Y167.477 E2.67900
G1 X173.148 Y167.367 E2.68671
G1 X172.930 Y167.212 E2.69441
G1 X172.746 Y167.018 E2.70212
G1 X172.601 Y166.794 E2.70983
G1 X172.502 Y166.546 E2.71753
G1 X172.452 Y166.284 E2.72524
G1 X172.452 Y166.016 E2.73295
G1 X172.502 Y165.754 E2.74066
G1 X172.601 Y165.506 E2.74836
G1 X172.746 Y165.282 E2.75607
G1 X172.930 Y165.088 E2.76378
G1 X173.148 Y164.933 E2.77148
G1 X173.391 Y164.823 E2.77919
G1 X173.650 Y164.760 E2.78690
G1 X173.917 Y164.747 E2.79460
G1 X174.181 Y164.785 E2.80231
G1 X174.434 Y164.872 E2.81002
G1 X174.665 Y165.006 E2.81772
G1 X174.867 Y165.181 E2.82543
G1 X175.032 Y165.391 E2.83314
G1 X175.154 Y165.628 E2.84085
G1 X175.229 Y165.884 E2.84855
G1 X175.255 Y166.150 E2.85626
G1 X175.229 Y166.416 E2.86397
G1 X175.154 Y166.672 E2.87167
G1 X175.032 Y166.909 E2.87938
G1 X174.867 Y167.119 E2.88709
G1 X174.710 Y167.255 E2.89306
G1 X174.665 Y167.294 F6000.000
G1 E0.89306 F2400.00000
G92 E0
G1 X173.941 Y158.051 F6000.000
G1 E2.00000 F2400.00000
G1 F1800
G1 X173.579 Y158.033 E2.01044
G1 X173.228 Y157.948 E2.02088
G1 X172.899 Y157.798 E2.03132
G1 X172.604 Y157.588 E2.04176
G1 X172.354 Y157.326 E2.05220
G1 X172.159 Y157.022 E2.06264
G1 X172.024 Y156.686 E2.07308
G1 X171.956 Y156.331 E2.08352
G1 X171.956 Y155.969 E2.09396
G1 X172.024 Y155.614 E2.10440
G1 X172.159 Y155.278 E2.11484
G1 X172.354 Y154.974 E2.12528
G1 X172.604 Y154.712 E2.13571
G1 X172.899 Y154.502 E2.14615
G1 X173.228 Y154.352 E2.15659
G1 X173.579 Y154.267 E2.16703
G1 X173.941 Y154.249 E2.17747
G1 X174.299 Y154.301 E2.18791
G1 X174.640 Y154.419 E2.19835
G1 X174.954 Y154.600 E2.20879
G1 X175.227 Y154.837 E2.21923
G1 X175.451 Y155.121 E2.22967
G1 X175.616 Y155.443 E2.24011
G1 X175.718 Y155.790 E2.25055
G1 X175.753 Y156.150 E2.26099
G1 X175.718 Y156.510 E2.27143
G1 X175.616 Y156.857 E2.28187
G1 X175.451 Y157.179 E2.29231
G1 X175.227 Y157.463 E2.30275
G1 X174.954 Y157.700 E2.31319
G1 X174.640 Y157.881 E2.32363
G1 X174.299 Y157.999 E2.33407
G1 X174.000 Y158.042 E2.34278
G1 X173.929 Y157.802 F6000.000
G1 F1800
G1 X173.615 Y157.787 E2.35185
G1 X173.309 Y157.713 E2.36092
G1 X173.023 Y157.582 E2.37000
G1 X172.767 Y157.400 E2.37907
G1 X172.550 Y157.172 E2.38814
G1 X172.380 Y156.908 E2.39722
G1 X172.263 Y156.616 E2.40629
G1 X172.204 Y156.307 E2.41536
G1 X172.204 Y155.993 E2.42444
G1 X172.263 Y155.684 E2.43351
G1 X172.380 Y155.392 E2.44258
G1 X172.550 Y155.128 E2.45166
G1 X172.767 Y154.900 E2.46073
G1 X173.023 Y154.718 E2.46980
G1 X173.309 Y154.587 E2.47888
G1 X173.615 Y154.513 E2.48795
G1 X173.929 Y154.498 E2.49702
G1 X174.240 Y154.543 E2.50610
G1 X174.537 Y154.646 E2.51517
G1 X174.809 Y154.803 E2.52424
G1 X175.047 Y155.009 E2.53332
G1 X175.241 Y155.256 E2.54239
G1 X175.385 Y155.535 E2.55146
G1 X175.474 Y155.837 E2.56054
G1 X175.504 Y156.150 E2.56961
G1 X175.474 Y156.463 E2.57868
G1 X175.385 Y156.765 E2.58776
G1 X175.241 Y157.044 E2.59683
G1 X175.047 Y157.291 E2.60590
G1 X174.809 Y157.497 E2.61498
G1 X174.537 Y157.654 E2.62405
G1 X174.240 Y157.757 E2.63312
G1 X173.988 Y157.793 E2.64046
G1 X173.917 Y157.553 F6000.000
G1 F1800
G1 X173.650 Y157.540 E2.64817
G1 X173.391 Y157.477 E2.65588
G1 X173.148 Y157.366 E2.66359
G1 X172.930 Y157.212 E2.67129
G1 X172.746 Y157.018 E2.67900
G1 X172.601 Y156.794 E2.68671
G1 X172.502 Y156.546 E2.69441
G1 X172.452 Y156.284 E2.70212
G1 X172.452 Y156.016 E2.70983
G1 X172.502 Y155.754 E2.71753
G1 X172.601 Y155.506 E2.72524
G1 X172.746 Y155.282 E2.73295
G1 X172.930 Y155.088 E2.74065
G1 X173.148 Y154.933 E2.74836
G1 X173.391 Y154.823 E2.75607
G1 X173.650 Y154.760 E2.76378
G1 X173.917 Y154.747 E2.77148
G1 X174.181 Y154.785 E2.77919
G1 X174.434 Y154.872 E2.78690
G1 X174.665 Y155.006 E2.79460
G1 X174.867 Y155.181 E2.80231
G1 X175.032 Y155.391 E2.81002
G1 X175.154 Y155.628 E2.81772
G1 X175.229 Y155.884 E2.82543
G1 X175.255 Y156.150 E2.83314
G1 X175.229 Y156.416 E2.84084
G1 X175.154 Y156.672 E2.84855
G1 X175.032 Y156.909 E2.85626
G1 X174.867 Y157.119 E2.86397
G1 X174.665 Y157.294 E2.87167
G1 X174.434 Y157.428 E2.87938
G1 X174.181 Y157.515 E2.88709
G1 X173.976 Y157.545 E2.89306
G1 X173.917 Y157.553 F6000.000
G1 E0.89306 F2400.00000
G92 E0
G1 X173.941 Y148.051 F6000.000
G1 E2.00000 F2400.00000
G1 F1800
G1 X173.579 Y148.033 E2.01044
G1 X173.228 Y147.948 E2.02088
G1 X172.899 Y147.798 E2.03132
G1 X172.604 Y147.588 E2.04176
G1 X172.354 Y147.326 E2.05220
G1 X172.159 Y147.022 E2.06264
G1 X172.024 Y146.686 E2.07308
G1 X171.956 Y146.331 E2.08352
G1 X171.956 Y145.969 E2.09396
G1 X172.024 Y145.614 E2.10440
G1 X172.159 Y145.278 E2.11484
G1 X172.354 Y144.974 E2.12528
G1 X172.604 Y144.712 E2.13571
G1 X172.899 Y144.502 E2.14615
G1 X173.228 Y144.352 E2.15659
G1 X173.579 Y144.267 E2.16703
G1 X173.941 Y144.249 E2.17747
G1 X174.299 Y144.301 E2.18791
G1 X174.640 Y144.419 E2.19835
G1 X174.954 Y144.600 E2.20879
G1 X175.227 Y144.837 E2.21923
G1 X175.451 Y145.121 E2.22967
G1 X175.616 Y145.443 E2.24011
G1 X175.718 Y145.790 E2.25055
G1 X175.753 Y146.150 E2.26099
G1 X175.718 Y146.510 E2.27143
G1 X175.616 Y146.857 E2.28187
G1 X175.451 Y147.179 E2.29231
G1 X175.227 Y147.463 E2.30275
G1 X174.954 Y147.700 E2.31319
G1 X174.640 Y147.881 E2.32363
G1 X174.299 Y147.999 E2.33407
G1 X174.000 Y148.042 E2.34278
G1 X173.929 Y147.802 F6000.000
G1 F1800
G1 X173.615 Y147.787 E2.35185
G1 X173.309 Y147.713 E2.36092
G1 X173.023 Y147.582 E2.37000
G1 X172.767 Y147.400 E2.37907
G1 X172.550 Y147.172 E2.38814
G1 X172.380 Y146.908 E2.39722
G1 X172.263 Y146.616 E2.40629
G1 X172.204 Y146.307 E2.41536
G1 X172.204 Y145.993 E2.42444
G1 X172.263 Y145.684 E2.43351
G1 X172.380 Y145.392 E2.44258
G1 X172.550 Y145.128 E2.45166
G1 X172.767 Y144.900 E2.46073
G1 X173.023 Y144.718 E2.46980
G1 X173.309 Y144.587 E2.47888
G1 X173.615 Y144.513 E2.48795
G1 X173.929 Y144.498 E2.49702
G1 X174.240 Y144.543 E2.50610
G1 X174.537 Y144.646 E2.51517
G1 X174.809 Y144.803 E2.52424
G1 X175.047 Y145.009 E2.53332
G1 X175.241 Y145.256 E2.54239
G1 X175.385 Y145.535 E2.55146
G1 X175.474 Y145.837 E2.56054
G1 X175.504 Y146.150 E2.56961
G1 X175.474 Y146.463 E2.57868
G1 X175.385 Y146.765 E2.58776
G1 X175.241 Y147.044 E2.59683
G1 X175.047 Y147.291 E2.60590
G1 X174.809 Y147.497 E2.61498
G1 X174.537 Y147.654 E2.62405
G1 X174.240 Y147.757 E2.63312
G1 X173.988 Y147.793 E2.64046
G1 X173.917 Y147.553 F6000.000
G1 F1800
G1 X173.650 Y147.540 E2.64817
G1 X173.391 Y147.477 E2.65588
G1 X173.148 Y147.366 E2.66359
G1 X172.930 Y147.212 E2.67129
G1 X172.746 Y147.018 E2.67900
G1 X172.601 Y146.794 E2.68671
G1 X172.502 Y146.546 E2.69441
G1 X172.452 Y146.284 E2.70212
G1 X172.452 Y146.016 E2.70983
G1 X172.502 Y145.754 E2.71753
G1 X172.601 Y145.506 E2.72524
G1 X172.746 Y145.282 E2.73295
G1 X172.930 Y145.088 E2.74065
G1 X173.148 Y144.933 E2.74836
G1 X173.391 Y144.823 E2.75607
G1 X173.650 Y144.760 E2.76378
G1 X173.917 Y144.747 E2.77148
G1 X174.181 Y144.785 E2.77919
G1 X174.434 Y144.872 E2.78690
G1 X174.665 Y145.006 E2.79460
G1 X174.867 Y145.181 E2.80231
G1 X175.032 Y145.391 E2.81002
G1 X175.154 Y145.628 E2.81772
G1 X175.229 Y145.884 E2.82543
G1 X175.255 Y146.150 E2.83314
G1 X175.229 Y146.416 E2.84084
G1 X175.154 Y146.672 E2.84855
G1 X175.032 Y146.909 E2.85626
G1 X174.867 Y147.119 E2.86397
G1 X174.665 Y147.294 E2.87167
G1 X174.434 Y147.428 E2.87938
G1 X174.181 Y147.515 E2.88709
G1 X173.976 Y147.545 E2.89306
G1 X173.917 Y147.553 F6000.000
G1 E0.89306 F2400.00000
G92 E0
G1 X173.941 Y138.051 F6000.000
G1 E2.00000 F2400.00000
G1 F1800
G1 X173.579 Y138.033 E2.01044
G1 X173.228 Y137.948 E2.02088
G1 X172.899 Y137.798 E2.03132
G1 X172.604 Y137.588 E2.04176
G1 X172.354 Y137.326 E2.05220
G1 X172.159 Y137.022 E2.06264
G1 X172.024 Y136.686 E2.07308
G1 X171.956 Y136.331 E2.08352
G1 X171.956 Y135.969 E2.09396
G1 X172.024 Y135.614 E2.10440
G1 X172.159 Y135.278 E2.11484
G1 X172.354 Y134.974 E2.12528
G1 X172.604 Y134.712 E2.13572
G1 X172.899 Y134.502 E2.14616
G1 X173.228 Y134.352 E2.15659
G1 X173.579 Y134.267 E2.16703
G1 X173.941 Y134.249 E2.17747
G1 X174.299 Y134.301 E2.18791
G1 X174.640 Y134.419 E2.19835
G1 X174.954 Y134.600 E2.20879
G1 X175.227 Y134.837 E2.21923
G1 X175.451 Y135.121 E2.22967
G1 X175.616 Y135.443 E2.24011
G1 X175.718 Y135.790 E2.25055
G1 X175.753 Y136.150 E2.26099
G1 X175.718 Y136.510 E2.27143
G1 X175.616 Y136.857 E2.28187
G1 X175.451 Y137.179 E2.29231
G1 X175.227 Y137.463 E2.30275
G1 X174.954 Y137.700 E2.31319
G1 X174.640 Y137.881 E2.32363
G1 X174.299 Y137.999 E2.33407
G1 X174.000 Y138.042 E2.34278
G1 X173.929 Y137.802 F6000.000
G1 F1800
G1 X173.615 Y137.787 E2.35185
G1 X173.309 Y137.713 E2.36092
G1 X173.023 Y137.582 E2.37000
G1 X172.767 Y137.400 E2.37907
G1 X172.550 Y137.172 E2.38814
G1 X172.380 Y136.908 E2.39722
G1 X172.263 Y136.616 E2.40629
G1 X172.204 Y136.307 E2.41536
G1 X172.204 Y135.993 E2.42444
G1 X172.263 Y135.684 E2.43351
G1 X172.380 Y135.392 E2.44258
G1 X172.550 Y135.128 E2.45166
G1 X172.767 Y134.900 E2.46073
G1 X173.023 Y134.718 E2.46980
G1 X173.309 Y134.587 E2.47888
G1 X173.615 Y134.513 E2.48795
G1 X173.929 Y134.498 E2.49702
G1 X174.240 Y134.543 E2.50610
G1 X174.537 Y134.646 E2.51517
G1 X174.809 Y134.803 E2.52424
G1 X175.047 Y135.009 E2.53332
G1 X175.241 Y135.256 E2.54239
G1 X175.385 Y135.535 E2.55146
G1 X175.474 Y135.837 E2.56054
G1 X175.504 Y136.150 E2.56961
G1 X175.474 Y136.463 E2.57868
G1 X175.385 Y136.765 E2.58776
G1 X175.241 Y137.044 E2.59683
G1 X175.047 Y137.291 E2.60590
G1 X174.809 Y137.497 E2.61498
G1 X174.537 Y137.654 E2.62405
G1 X174.240 Y137.757 E2.63312
G1 X173.988 Y137.793 E2.64046
G1 X173.917 Y137.553 F6000.000
G1 F1800
G1 X173.650 Y137.540 E2.64817
G1 X173.391 Y137.477 E2.65588
G1 X173.148 Y137.367 E2.66359
G1 X172.930 Y137.212 E2.67129
G1 X172.746 Y137.018 E2.67900
G1 X172.601 Y136.794 E2.68671
G1 X172.502 Y136.546 E2.69441
G1 X172.452 Y136.284 E2.70212
G1 X172.452 Y136.016 E2.70983
G1 X172.502 Y135.754 E2.71753
G1 X172.601 Y135.506 E2.72524
G1 X172.746 Y135.282 E2.73295
G1 X172.930 Y135.088 E2.74065
G1 X173.148 Y134.933 E2.74836
G1 X173.391 Y134.823 E2.75607
G1 X173.650 Y134.760 E2.76378
G1 X173.917 Y134.747 E2.77148
G1 X174.181 Y134.785 E2.77919
G1 X174.434 Y134.872 E2.78690
G1 X174.665 Y135.006 E2.79460
G1 X174.867 Y135.181 E2.80231
G1 X175.032 Y135.391 E2.81002
G1 X175.154 Y135.628 E2.81772
G1 X175.229 Y135.884 E2.82543
G1 X175.255 Y136.150 E2.83314
G1 X175.229 Y136.416 E2.84084
G1 X175.154 Y136.672 E2.84855
G1 X175.032 Y136.909 E2.85626
G1 X174.867 Y137.119 E2.86397
G1 X174.665 Y137.294 E2.87167
G1 X174.434 Y137.428 E2.87938
G1 X174.181 Y137.515 E2.88709
G1 X173.976 Y137.545 E2.89306
G1 X173.917 Y137.553 F6000.000
G1 E0.89306 F2400.00000
G92 E0
G1 X171.000 Y130.500 F6000.000
G1 E2.00000 F2400.00000
G1 F1800
G1 X120.300 Y130.500 E3.46318
G1 X120.300 Y128.800 E3.51225
G1 X179.700 Y128.800 E5.22651
G1 X179.700 Y171.200 E6.45016
G1 X171.000 Y171.200 E6.70125
G1 X171.000 Y130.560 E7.87410
G1 X170.752 Y130.748 F6000.000
G1 F1800
G1 X120.052 Y130.748 E9.33728
G1 X120.052 Y128.552 E9.40066
G1 X179.948 Y128.552 E11.12923
G1 X179.948 Y171.448 E12.36720
G1 X170.752 Y171.448 E12.63259
G1 X170.752 Y130.808 E13.80544
G1 X170.504 Y130.996 F6000.000
G1 F1800
G1 X119.804 Y130.996 E15.26862
G1 X119.804 Y128.304 E15.34631
G1 X180.196 Y128.304 E17.08919
G1 X180.196 Y171.696 E18.34146
G1 X170.504 Y171.696 E18.62117
G1 X170.504 Y131.056 E19.79402
G1 X170.473 Y130.597 F6000.000
G1 E17.79402 F2400.00000
G92 E0
G1 X171.160 Y136.041 F6000.000
G1 E2.00000 F2400.00000
G1 F1800
G1 X171.160 Y136.392 E2.01016
G1 X171.820 Y135.732 E2.03713
G1 X171.796 Y135.858 E2.04083
G1 X171.796 Y136.108 E2.04805
G1 X171.160 Y136.743 E2.07404
G1 X171.160 Y137.094 E2.08420
G1 X171.827 Y136.428 E2.11145
G1 X171.891 Y136.714 E2.11995
G1 X171.160 Y137.446 E2.14985
G1 X171.160 Y137.797 E2.16000
G1 X171.992 Y136.965 E2.19401
