; generated by Slic3r 1.3.0 on 2023-07-16 at 19:02:24

; external perimeters extrusion width = 0.44mm (3.19mm^3/s)
; perimeters extrusion width = 0.51mm (7.54mm^3/s)
; infill extrusion width = 0.50mm (9.85mm^3/s)
; solid infill extrusion width = 0.51mm (2.51mm^3/s)
; top infill extrusion width = 0.51mm (1.88mm^3/s)

M107
M190 S63 ; set bed temperature and wait for it to be reached
M104 S203 ; set temperature
G28 ; home all axes
G1 Z5 F5000 ; lift nozzle

; Filament gcode

M109 S203 ; set temperature and wait for it to be reached
G21 ; set units to millimeters
G90 ; use absolute coordinates
M82 ; use absolute distances for extrusion
G92 E0
G1 Z0.280 F6000.000
G1 E-2.00000 F2400.00000
G92 E0
G1 X107.975 Y138.663 F6000.000
G1 E2.00000 F2400.00000
G1 F1800
G1 X109.214 Y137.780 E2.04389
G1 X110.283 Y137.163 E2.07953
G1 X111.667 Y136.531 E2.12343
G1 X112.834 Y136.127 E2.15906
G1 X114.312 Y135.769 E2.20296
G1 X115.534 Y135.593 E2.23860
G1 X117.053 Y135.521 E2.28249
G1 X117.734 Y135.524 E2.30212
G1 X187.543 Y139.519 E4.32009
G1 X188.097 Y139.575 E4.33614
G1 X188.849 Y139.683 E4.35808
G1 X190.049 Y139.974 E4.39371
G1 X190.768 Y140.223 E4.41567
G1 X191.891 Y140.736 E4.45130
G1 X192.550 Y141.116 E4.47325
G1 X193.556 Y141.832 E4.50890
G1 X194.131 Y142.330 E4.53084
G1 X194.983 Y143.224 E4.56648
G1 X195.442 Y143.808 E4.58792
G1 X196.121 Y144.861 E4.62406
G1 X196.469 Y145.538 E4.64603
G1 X196.928 Y146.683 E4.68165
G1 X197.142 Y147.413 E4.70360
G1 X197.376 Y148.626 E4.73924
G1 X197.448 Y149.383 E4.76118
G1 X197.448 Y150.617 E4.79682
G1 X197.376 Y151.375 E4.81878
G1 X197.142 Y152.587 E4.85441
G1 X196.928 Y153.317 E4.87635
G1 X196.469 Y154.463 E4.91199
G1 X196.121 Y155.139 E4.93394
G1 X195.453 Y156.178 E4.96958
G1 X194.983 Y156.776 E4.99153
G1 X194.131 Y157.669 E5.02715
G1 X193.556 Y158.168 E5.04911
G1 X192.550 Y158.884 E5.08475
G1 X191.891 Y159.264 E5.10670
G1 X190.768 Y159.777 E5.14234
G1 X190.050 Y160.026 E5.16428
G1 X188.850 Y160.317 E5.19991
G1 X188.097 Y160.425 E5.22187
G1 X187.543 Y160.481 E5.23792
G1 X117.734 Y164.476 E7.25588
G1 X117.053 Y164.479 E7.27552
G1 X115.534 Y164.407 E7.31941
G1 X114.312 Y164.231 E7.35505
G1 X112.834 Y163.873 E7.39894
G1 X111.667 Y163.469 E7.43458
G1 X110.283 Y162.837 E7.47847
G1 X109.214 Y162.220 E7.51411
G1 X107.975 Y161.337 E7.55801
G1 X107.042 Y160.529 E7.59364
G1 X106.017 Y159.454 E7.63651
G1 X105.229 Y158.457 E7.67317
G1 X104.407 Y157.178 E7.71706
G1 X103.841 Y156.080 E7.75270
G1 X103.275 Y154.668 E7.79660
G1 X102.928 Y153.483 E7.83224
G1 X102.646 Y152.024 E7.87511
G1 X102.522 Y150.760 E7.91176
G1 X102.522 Y149.240 E7.95566
G1 X102.640 Y148.010 E7.99130
G1 X102.928 Y146.517 E8.03519
G1 X103.275 Y145.332 E8.07083
G1 X103.827 Y143.953 E8.11369
G1 X104.407 Y142.822 E8.15035
G1 X105.229 Y141.543 E8.19425
G1 X105.992 Y140.572 E8.22989
G1 X107.042 Y139.471 E8.27378
G1 X107.930 Y138.702 E8.30768
G1 X108.119 Y138.865 F6000.000
G1 F1800
G1 X109.358 Y137.982 E8.35158
G1 X110.386 Y137.388 E8.38586
G1 X111.770 Y136.757 E8.42975
G1 X112.892 Y136.368 E8.46403
G1 X114.370 Y136.010 E8.50792
G1 X115.546 Y135.841 E8.54220
G1 X117.065 Y135.768 E8.58609
G1 X117.720 Y135.771 E8.60498
G1 X187.529 Y139.767 E10.62295
G1 X188.061 Y139.820 E10.63838
G1 X188.814 Y139.928 E10.66033
G1 X189.968 Y140.208 E10.69460
G1 X190.687 Y140.457 E10.71655
G1 X191.767 Y140.950 E10.75082
G1 X192.426 Y141.331 E10.77278
G1 X193.394 Y142.020 E10.80706
G1 X193.968 Y142.518 E10.82900
G1 X194.788 Y143.377 E10.86328
G1 X195.247 Y143.962 E10.88473
G1 X195.900 Y144.974 E10.91951
G1 X196.249 Y145.651 E10.94148
G1 X196.690 Y146.753 E10.97573
G1 X196.904 Y147.483 E10.99768
G1 X197.129 Y148.649 E11.03196
G1 X197.202 Y149.406 E11.05390
G1 X197.202 Y150.594 E11.08818
G1 X197.129 Y151.351 E11.11014
G1 X196.904 Y152.517 E11.14441
G1 X196.690 Y153.247 E11.16635
G1 X196.249 Y154.350 E11.20063
G1 X195.900 Y155.026 E11.22258
G1 X195.258 Y156.025 E11.25686
G1 X194.788 Y156.623 E11.27881
G1 X193.969 Y157.482 E11.31307
G1 X193.394 Y157.980 E11.33503
G1 X192.426 Y158.669 E11.36931
G1 X191.767 Y159.049 E11.39126
G1 X190.687 Y159.543 E11.42554
G1 X189.968 Y159.792 E11.44748
G1 X188.814 Y160.072 E11.48175
G1 X188.061 Y160.180 E11.50371
G1 X187.529 Y160.233 E11.51914
G1 X117.720 Y164.229 E13.53711
G1 X117.065 Y164.232 E13.55599
G1 X115.546 Y164.159 E13.59989
G1 X114.370 Y163.990 E13.63417
G1 X112.892 Y163.632 E13.67806
G1 X111.770 Y163.243 E13.71234
G1 X110.386 Y162.612 E13.75623
G1 X109.358 Y162.018 E13.79051
G1 X108.119 Y161.135 E13.83440
G1 X107.221 Y160.358 E13.86868
G1 X106.196 Y159.283 E13.91155
G1 X105.437 Y158.323 E13.94685
G1 X104.615 Y157.044 E13.99074
G1 X104.071 Y155.988 E14.02502
G1 X103.506 Y154.576 E14.06892
G1 X103.171 Y153.436 E14.10319
G1 X102.890 Y151.978 E14.14607
G1 X102.770 Y150.760 E14.18136
G1 X102.770 Y149.240 E14.22525
G1 X102.883 Y148.057 E14.25953
G1 X103.171 Y146.564 E14.30342
G1 X103.506 Y145.424 E14.33770
G1 X104.058 Y144.045 E14.38057
G1 X104.615 Y142.956 E14.41587
G1 X105.437 Y141.677 E14.45976
G1 X106.172 Y140.743 E14.49404
G1 X107.221 Y139.642 E14.53794
G1 X108.073 Y138.904 E14.57048
G1 E12.57048 F2400.00000
G92 E0
G1 X187.476 Y152.360 F6000.000
G1 E2.00000 F2400.00000
G1 F1800
G1 X187.082 Y152.399 E2.01143
G1 X186.640 Y152.378 E2.02420
G1 X186.196 Y152.271 E2.03738
G1 X185.780 Y152.081 E2.05057
G1 X185.408 Y151.816 E2.06375
G1 X185.093 Y151.485 E2.07693
G1 X184.846 Y151.101 E2.09011
G1 X184.676 Y150.677 E2.10330
G1 X184.590 Y150.228 E2.11648
G1 X184.590 Y149.772 E2.12966
G1 X184.676 Y149.323 E2.14285
G1 X184.846 Y148.899 E2.15603
G1 X185.093 Y148.515 E2.16921
G1 X185.408 Y148.184 E2.18239
G1 X185.780 Y147.919 E2.19558
G1 X186.196 Y147.729 E2.20876
G1 X186.640 Y147.622 E2.22194
G1 X187.087 Y147.600 E2.23486
G1 X187.547 Y147.664 E2.24826
G1 X187.980 Y147.814 E2.26149
G1 X188.376 Y148.043 E2.27467
G1 X188.721 Y148.342 E2.28785
G1 X189.003 Y148.701 E2.30104
G1 X189.213 Y149.107 E2.31422
G1 X189.341 Y149.545 E2.32740
G1 X189.385 Y150.000 E2.34059
G1 X189.341 Y150.455 E2.35377
G1 X189.213 Y150.893 E2.36695
G1 X189.003 Y151.299 E2.38013
G1 X188.721 Y151.658 E2.39332
G1 X188.376 Y151.957 E2.40650
G1 X187.980 Y152.186 E2.41968
G1 X187.533 Y152.340 E2.43334
G1 X187.422 Y152.116 F6000.000
G1 F1800
G1 X187.076 Y152.151 E2.44340
G1 X186.675 Y152.132 E2.45497
G1 X186.277 Y152.035 E2.46678
G1 X185.905 Y151.865 E2.47860
G1 X185.571 Y151.628 E2.49042
G1 X185.289 Y151.331 E2.50223
G1 X185.068 Y150.987 E2.51405
G1 X184.915 Y150.607 E2.52587
G1 X184.838 Y150.205 E2.53768
G1 X184.838 Y149.795 E2.54950
G1 X184.915 Y149.393 E2.56132
G1 X185.068 Y149.013 E2.57313
G1 X185.289 Y148.669 E2.58495
G1 X185.571 Y148.372 E2.59677
G1 X185.905 Y148.135 E2.60858
G1 X186.277 Y147.965 E2.62040
G1 X186.675 Y147.868 E2.63221
G1 X187.076 Y147.849 E2.64378
G1 X187.489 Y147.907 E2.65582
G1 X187.877 Y148.041 E2.66766
G1 X188.231 Y148.246 E2.67948
G1 X188.541 Y148.514 E2.69129
G1 X188.794 Y148.836 E2.70311
G1 X188.981 Y149.200 E2.71493
G1 X189.097 Y149.592 E2.72674
G1 X189.136 Y150.000 E2.73856
G1 X189.097 Y150.408 E2.75038
G1 X188.981 Y150.800 E2.76219
G1 X188.794 Y151.164 E2.77401
G1 X188.541 Y151.486 E2.78583
G1 X188.231 Y151.754 E2.79764
G1 X187.877 Y151.959 E2.80946
G1 X187.479 Y152.097 E2.82160
G1 X187.369 Y151.872 F6000.000
G1 F1800
G1 X187.069 Y151.902 E2.83029
G1 X186.711 Y151.885 E2.84064
G1 X186.359 Y151.800 E2.85109
G1 X186.030 Y151.650 E2.86154
G1 X185.735 Y151.439 E2.87199
G1 X185.485 Y151.177 E2.88244
G1 X185.289 Y150.873 E2.89289
G1 X185.154 Y150.537 E2.90334
G1 X185.086 Y150.181 E2.91379
G1 X185.086 Y149.819 E2.92424
G1 X185.154 Y149.463 E2.93469
G1 X185.289 Y149.127 E2.94514
G1 X185.485 Y148.823 E2.95559
G1 X185.735 Y148.561 E2.96605
G1 X186.030 Y148.350 E2.97650
G1 X186.359 Y148.200 E2.98695
G1 X186.711 Y148.115 E2.99740
G1 X187.064 Y148.098 E3.00761
G1 X187.431 Y148.149 E3.01828
G1 X187.773 Y148.267 E3.02874
G1 X188.087 Y148.448 E3.03919
G1 X188.360 Y148.686 E3.04964
G1 X188.584 Y148.970 E3.06009
G1 X188.750 Y149.292 E3.07054
G1 X188.852 Y149.640 E3.08099
G1 X188.887 Y150.000 E3.09144
G1 X188.852 Y150.360 E3.10189
G1 X188.750 Y150.708 E3.11234
G1 X188.584 Y151.030 E3.12279
G1 X188.360 Y151.314 E3.13324
G1 X188.087 Y151.552 E3.14369
G1 X187.773 Y151.733 E3.15414
G1 X187.426 Y151.853 E3.16476
G1 X187.369 Y151.872 F6000.000
G1 X187.571 Y153.282 F6000.000
G1 F1800
G1 X187.107 Y153.348 E3.17829
G1 X117.359 Y157.340 E5.19447
G1 X115.936 Y157.272 E5.23559
G1 X114.579 Y156.943 E5.27590
G1 X113.308 Y156.363 E5.31621
G1 X112.170 Y155.553 E5.35653
G1 X111.207 Y154.542 E5.39684
G1 X110.451 Y153.367 E5.43715
G1 X109.932 Y152.070 E5.47746
G1 X109.668 Y150.698 E5.51777
G1 X109.668 Y149.302 E5.55808
G1 X109.932 Y147.930 E5.59839
G1 X110.451 Y146.633 E5.63870
G1 X111.207 Y145.458 E5.67901
G1 X112.170 Y144.447 E5.71932
G1 X113.308 Y143.637 E5.75963
G1 X114.579 Y143.057 E5.79994
G1 X115.936 Y142.728 E5.84026
G1 X117.359 Y142.660 E5.88137
G1 X187.107 Y146.652 E7.89756
G1 X187.771 Y146.747 E7.91691
G1 X188.372 Y146.955 E7.93527
G1 X188.923 Y147.273 E7.95364
G1 X189.404 Y147.690 E7.97200
G1 X189.788 Y148.178 E7.98989
G1 X190.090 Y148.757 E8.00876
G1 X190.269 Y149.367 E8.02709
G1 X190.329 Y150.000 E8.04545
G1 X190.269 Y150.633 E8.06382
G1 X190.089 Y151.244 E8.08218
G1 X189.798 Y151.810 E8.10055
G1 X189.404 Y152.310 E8.11891
G1 X188.923 Y152.727 E8.13727
G1 X188.372 Y153.045 E8.15564
G1 X187.771 Y153.253 E8.17400
G1 X187.631 Y153.273 E8.17809
G1 X187.607 Y153.527 F6000.000
G1 F1800
G1 X187.132 Y153.595 E8.19193
G1 X117.361 Y157.588 E10.20879
G1 X115.901 Y157.519 E10.25097
G1 X114.497 Y157.178 E10.29265
G1 X113.184 Y156.579 E10.33433
G1 X112.007 Y155.741 E10.37600
G1 X111.011 Y154.696 E10.41768
G1 X110.230 Y153.481 E10.45936
G1 X109.693 Y152.140 E10.50103
G1 X109.420 Y150.722 E10.54271
G1 X109.420 Y149.278 E10.58439
G1 X109.693 Y147.860 E10.62607
G1 X110.230 Y146.519 E10.66774
G1 X111.011 Y145.304 E10.70942
G1 X112.007 Y144.259 E10.75110
G1 X113.184 Y143.421 E10.79277
G1 X114.497 Y142.822 E10.83445
G1 X115.901 Y142.481 E10.87613
G1 X117.361 Y142.412 E10.91831
G1 X187.132 Y146.405 E12.93517
G1 X187.830 Y146.505 E12.95551
G1 X188.476 Y146.729 E12.97524
G1 X189.068 Y147.071 E12.99497
G1 X189.585 Y147.518 E13.01470
G1 X189.997 Y148.042 E13.03395
G1 X190.321 Y148.664 E13.05418
G1 X190.513 Y149.319 E13.07389
G1 X190.578 Y150.000 E13.09362
G1 X190.513 Y150.681 E13.11335
G1 X190.321 Y151.337 E13.13308
G1 X190.007 Y151.944 E13.15281
G1 X189.585 Y152.482 E13.17254
G1 X189.068 Y152.929 E13.19227
G1 X188.476 Y153.271 E13.21201
G1 X187.830 Y153.495 E13.23174
G1 X187.666 Y153.518 E13.23651
G1 X187.642 Y153.772 F6000.000
G1 F1800
G1 X187.157 Y153.842 E13.25065
G1 X117.362 Y157.837 E15.26820
G1 X115.865 Y157.765 E15.31143
G1 X114.416 Y157.414 E15.35448
G1 X113.059 Y156.794 E15.39752
G1 X111.844 Y155.929 E15.44056
G1 X110.815 Y154.850 E15.48361
G1 X110.009 Y153.595 E15.52665
G1 X109.454 Y152.210 E15.56969
G1 X109.172 Y150.746 E15.61274
G1 X109.172 Y149.254 E15.65578
G1 X109.454 Y147.790 E15.69882
G1 X110.009 Y146.405 E15.74187
G1 X110.815 Y145.150 E15.78491
G1 X111.844 Y144.071 E15.82796
G1 X113.059 Y143.206 E15.87100
G1 X114.416 Y142.586 E15.91404
G1 X115.865 Y142.235 E15.95709
G1 X117.362 Y142.163 E16.00032
G1 X187.157 Y146.158 E18.01787
G1 X187.888 Y146.263 E18.03920
G1 X188.579 Y146.502 E18.06030
G1 X189.212 Y146.868 E18.08139
G1 X189.765 Y147.346 E18.10249
G1 X190.206 Y147.907 E18.12309
G1 X190.552 Y148.571 E18.14469
G1 X190.758 Y149.272 E18.16577
G1 X190.827 Y150.000 E18.18687
G1 X190.758 Y150.728 E18.20797
G1 X190.552 Y151.429 E18.22907
G1 X190.217 Y152.079 E18.25016
G1 X189.765 Y152.654 E18.27126
G1 X189.212 Y153.132 E18.29236
G1 X188.579 Y153.498 E18.31345
G1 X187.888 Y153.737 E18.33455
G1 X187.701 Y153.764 E18.34001
G1 X187.380 Y153.470 F6000.000
G1 E16.34001 F2400.00000
G92 E0
G1 X189.135 Y152.227 F6000.000
G1 E2.00000 F2400.00000
G1 F1800
G1 X189.312 Y152.050 E2.00724
G1 X189.676 Y151.587 E2.02426
G1 X189.945 Y151.065 E2.04126
G1 X188.064 Y152.947 E2.11827
G1 X187.625 Y153.099 E2.13172
G1 X187.549 Y153.109 E2.13392
G1 X188.557 Y152.102 E2.17517
G1 X188.171 Y152.325 E2.18807
G1 X187.883 Y152.424 E2.19690
G1 X187.139 Y153.168 E2.22736
G1 X186.753 Y153.203 E2.23858
G1 X187.420 Y152.536 E2.26588
G1 X187.050 Y152.554 E2.27660
G1 X186.380 Y153.224 E2.30403
G1 X186.007 Y153.246 E2.31485
G1 X186.714 Y152.538 E2.34380
G1 X186.428 Y152.473 E2.35231
G1 X185.634 Y153.267 E2.38481
G1 X185.261 Y153.288 E2.39562
G1 X186.153 Y152.396 E2.43215
G1 X185.912 Y152.286 E2.43983
G1 X184.888 Y153.310 E2.48175
G1 X184.515 Y153.331 E2.49257
G1 X185.681 Y152.164 E2.54032
G1 X185.476 Y152.018 E2.54762
G1 X184.142 Y153.352 E2.60223
G1 X183.769 Y153.374 E2.61305
G1 X185.281 Y151.862 E2.67494
G1 X185.109 Y151.682 E2.68214
G1 X183.396 Y153.395 E2.75228
G1 X183.023 Y153.416 E2.76309
G1 X184.947 Y151.492 E2.84186
G1 X184.809 Y151.278 E2.84922
G1 X182.650 Y153.438 E2.93762
G1 X182.277 Y153.459 E2.94844
G1 X184.683 Y151.053 E3.04692
G1 X184.582 Y150.802 E3.05475
G1 X181.904 Y153.480 E3.16439
G1 X181.531 Y153.502 E3.17521
G1 X184.501 Y150.532 E3.29677
G1 X184.444 Y150.237 E3.30546
G1 X181.158 Y153.523 E3.43997
G1 X180.785 Y153.544 E3.45079
G1 X184.430 Y149.900 E3.59999
G1 X184.430 Y149.660 E3.60691
G1 X184.457 Y149.521 E3.61102
G1 X180.412 Y153.566 E3.77658
G1 X180.039 Y153.587 E3.78740
G1 X184.568 Y149.058 E3.97280
G1 X184.713 Y148.697 E3.98405
G1 X184.956 Y148.318 E3.99708
G1 X179.666 Y153.609 E4.21362
G1 X179.293 Y153.630 E4.22444
G1 X186.169 Y146.754 E4.50591
G1 X185.837 Y146.735 E4.51555
G1 X178.920 Y153.651 E4.79868
G1 X178.547 Y153.673 E4.80949
G1 X185.504 Y146.716 E5.09427
G1 X185.171 Y146.697 E5.10391
G1 X178.174 Y153.694 E5.39034
G1 X177.801 Y153.715 E5.40116
G1 X184.839 Y146.677 E5.68924
G1 X184.506 Y146.658 E5.69889
G1 X177.428 Y153.737 E5.98862
G1 X177.055 Y153.758 E5.99944
G1 X184.174 Y146.639 E6.29083
G1 X183.841 Y146.620 E6.30047
G1 X176.682 Y153.779 E6.59352
G1 X176.309 Y153.801 E6.60433
G1 X183.508 Y146.601 E6.89903
G1 X183.176 Y146.582 E6.90867
G1 X175.936 Y153.822 E7.20502
G1 X175.563 Y153.843 E7.21583
G1 X182.843 Y146.563 E7.51384
G1 X182.511 Y146.544 E7.52348
G1 X175.190 Y153.865 E7.82314
G1 X174.817 Y153.886 E7.83395
G1 X182.178 Y146.525 E8.13526
G1 X181.845 Y146.506 E8.14490
G1 X174.444 Y153.907 E8.44786
G1 X174.071 Y153.929 E8.45868
G1 X181.513 Y146.487 E8.76329
G1 X181.180 Y146.468 E8.77294
G1 X173.698 Y153.950 E9.07920
G1 X173.325 Y153.971 E9.09002
G1 X180.848 Y146.449 E9.39794
G1 X180.515 Y146.430 E9.40758
G1 X172.952 Y153.993 E9.71716
G1 X172.579 Y154.014 E9.72797
G1 X180.182 Y146.411 E10.03920
G1 X179.850 Y146.392 E10.04884
G1 X172.206 Y154.035 E10.36172
G1 X171.833 Y154.057 E10.37254
G1 X179.517 Y146.373 E10.68707
G1 X179.185 Y146.354 E10.69671
G1 X171.460 Y154.078 E11.01290
G1 X171.087 Y154.100 E11.02371
G1 X178.852 Y146.335 E11.34155
G1 X178.519 Y146.316 E11.35120
G1 X170.714 Y154.121 E11.67069
G1 X170.341 Y154.142 E11.68150
G1 X178.187 Y146.297 E12.00265
G1 X177.854 Y146.278 E12.01229
G1 X169.968 Y154.164 E12.33509
G1 X169.595 Y154.185 E12.34590
G1 X177.522 Y146.259 E12.67036
G1 X177.189 Y146.240 E12.68000
G1 X169.222 Y154.206 E13.00610
G1 X168.849 Y154.228 E13.01692
G1 X176.856 Y146.221 E13.34468
G1 X176.524 Y146.202 E13.35432
G1 X168.476 Y154.249 E13.68373
G1 X168.103 Y154.270 E13.69454
G1 X176.191 Y146.183 E14.02561
G1 X175.859 Y146.164 E14.03525
G1 X167.730 Y154.292 E14.36797
G1 X167.357 Y154.313 E14.37878
G1 X175.526 Y146.144 E14.71315
G1 X175.193 Y146.125 E14.72279
G1 X166.984 Y154.334 E15.05882
G1 X166.611 Y154.356 E15.06963
G1 X174.861 Y146.106 E15.40731
G1 X174.528 Y146.087 E15.41695
G1 X166.238 Y154.377 E15.75628
G1 X165.865 Y154.398 E15.76709
G1 X174.196 Y146.068 E16.10808
G1 X173.863 Y146.049 E16.11772
G1 X165.493 Y154.420 E16.46035
G1 X165.120 Y154.441 E16.47117
G1 X173.530 Y146.030 E16.81546
G1 X173.198 Y146.011 E16.82510
G1 X164.747 Y154.462 E17.17104
G1 X164.374 Y154.484 E17.18186
G1 X172.865 Y145.992 E17.52945
G1 X172.533 Y145.973 E17.53909
G1 X164.001 Y154.505 E17.88834
G1 X163.628 Y154.526 E17.89915
G1 X172.200 Y145.954 E18.25006
