; generated by Slic3r 1.3.0 on 2024-03-15 at 14:02:25

; external perimeters extrusion width = 0.44mm (3.19mm^3/s)
; perimeters extrusion width = 0.51mm (7.54mm^3/s)
; infill extrusion width = 0.50mm (9.85mm^3/s)
; solid infill extrusion width = 0.51mm (2.51mm^3/s)
; top infill extrusion width = 0.51mm (1.88mm^3/s)

M107
M190 S63 ; set bed temperature and wait for it to be reached
M104 S203 ; set temperature
G28 ; home all axes
G1 Z5 F5000 ; lift nozzle

; Filament gcode

M109 S203 ; set temperature and wait for it to be reached
G21 ; set units to millimeters
G90 ; use absolute coordinates
M82 ; use absolute distances for extrusion
G92 E0
G1 Z0.280 F6000.000
G1 E-2.00000 F2400.00000
G92 E0
G1 X109.043 Y98.302 F6000.000
G1 E2.00000 F2400.00000
G1 F1800
G1 X110.791 Y96.852 E2.06553
G1 X114.000 Y96.004 E2.16131
G1 X186.000 Y96.004 E4.23920
G1 X188.236 Y96.401 E4.30473
G1 X190.198 Y97.543 E4.37027
G1 X191.648 Y99.291 E4.43580
G1 X192.496 Y102.500 E4.53158
G1 X192.496 Y197.500 E7.27323
G1 X192.099 Y199.736 E7.33877
G1 X190.957 Y201.698 E7.40430
G1 X189.209 Y203.148 E7.46984
G1 X186.000 Y203.996 E7.56561
G1 X114.000 Y203.996 E9.64350
G1 X111.764 Y203.599 E9.70903
G1 X109.802 Y202.457 E9.77457
G1 X108.352 Y200.709 E9.84010
G1 X107.504 Y197.500 E9.93588
G1 X107.504 Y102.500 E12.67753
G1 X107.901 Y100.264 E12.74307
G1 X109.013 Y98.353 E12.80687
G1 X109.289 Y98.396 F6000.000
G1 F1800
G1 X111.027 Y97.005 E12.87113
G1 X114.000 Y96.252 E12.95963
G1 X186.000 Y96.252 E15.03751
G1 X188.191 Y96.649 E15.10177
G1 X190.104 Y97.789 E15.16604
G1 X191.495 Y99.527 E15.23030
G1 X192.248 Y102.500 E15.31880
G1 X192.248 Y197.500 E18.06045
G1 X191.851 Y199.691 E18.12471
G1 X190.711 Y201.604 E18.18897
G1 X188.973 Y202.995 E18.25324
G1 X186.000 Y203.748 E18.34173
G1 X114.000 Y203.748 E20.41962
G1 X111.809 Y203.351 E20.48388
G1 X109.896 Y202.211 E20.54814
G1 X108.505 Y200.473 E20.61240
G1 X107.752 Y197.500 E20.70090
G1 X107.752 Y102.500 E23.44255
G1 X108.149 Y100.309 E23.50682
G1 X109.258 Y98.448 E23.56935
G1 E21.56935 F2400.00000
G92 E0
G1 X178.650 Y188.150 F6000.000
G1 E2.00000 F2400.00000
G1 F1800
G1 X116.350 Y188.150 E3.79794
G1 X116.350 Y111.850 E5.99991
G1 X178.650 Y111.850 E7.79784
G1 X178.650 Y188.090 E9.99808
G1 X178.402 Y187.902 F6000.000
G1 F1800
G1 X116.598 Y187.902 E11.78171
G1 X116.598 Y112.098 E13.96937
G1 X178.402 Y112.098 E15.75299
G1 X178.402 Y187.842 E17.93892
G1 X178.154 Y187.654 F6000.000
G1 F1800
G1 X116.846 Y187.654 E19.70824
G1 X116.846 Y112.346 E21.88159
G1 X178.154 Y112.346 E23.65091
G1 X178.154 Y187.594 E25.82253
G1 X178.244 Y188.044 F6000.000
G1 E23.82253 F2400.00000
G92 E0
G1 X185.350 Y196.850 F6000.000
G1 E2.00000 F2400.00000
G1 F1800
G1 X114.650 Y196.850 E4.04038
G1 X114.650 Y103.150 E6.74452
G1 X185.350 Y103.150 E8.78490
G1 X185.350 Y196.790 E11.48731
G1 X185.598 Y197.098 F6000.000
G1 F1800
G1 X114.402 Y197.098 E13.54200
G1 X114.402 Y102.902 E16.26045
G1 X185.598 Y102.902 E18.31514
G1 X185.598 Y197.038 E21.03186
G1 X185.846 Y197.346 F6000.000
G1 F1800
G1 X114.154 Y197.346 E23.10085
G1 X114.154 Y102.654 E25.83362
G1 X185.846 Y102.654 E27.90261
G1 X185.846 Y197.286 E30.63364
G1 X185.465 Y197.225 F6000.000
G1 X185.014 Y196.690 F6000.000
G1 F1800
G1 X185.190 Y196.514 E30.64081
G1 X185.190 Y196.164 E30.65093
G1 X184.664 Y196.690 E30.67240
G1 X184.313 Y196.690 E30.68253
G1 X185.190 Y195.813 E30.71832
G1 X185.190 Y195.463 E30.72844
G1 X183.963 Y196.690 E30.77854
G1 X183.612 Y196.690 E30.78866
G1 X185.190 Y195.112 E30.85308
G1 X185.190 Y194.761 E30.86320
G1 X183.261 Y196.690 E30.94194
G1 X182.911 Y196.690 E30.95206
G1 X185.190 Y194.411 E31.04511
G1 X185.190 Y194.060 E31.05523
G1 X182.560 Y196.690 E31.16259
G1 X182.209 Y196.690 E31.17271
G1 X185.190 Y193.709 E31.29439
G1 X185.190 Y193.359 E31.30451
G1 X181.859 Y196.690 E31.44050
G1 X181.508 Y196.690 E31.45062
G1 X185.190 Y193.008 E31.60093
G1 X185.190 Y192.657 E31.61105
G1 X181.157 Y196.690 E31.77567
G1 X180.807 Y196.690 E31.78579
G1 X185.190 Y192.307 E31.96472
G1 X185.190 Y191.956 E31.97485
G1 X180.456 Y196.690 E32.16809
G1 X180.105 Y196.690 E32.17822
G1 X185.190 Y191.605 E32.38578
G1 X185.190 Y191.255 E32.39590
G1 X179.755 Y196.690 E32.61778
G1 X179.404 Y196.690 E32.62790
G1 X185.190 Y190.904 E32.86409
G1 X185.190 Y190.553 E32.87421
G1 X179.053 Y196.690 E33.12472
G1 X178.703 Y196.690 E33.13484
G1 X185.190 Y190.203 E33.39966
G1 X185.190 Y189.852 E33.40978
G1 X178.352 Y196.690 E33.68891
G1 X178.001 Y196.690 E33.69904
G1 X185.190 Y189.501 E33.99248
G1 X185.190 Y189.151 E34.00261
G1 X177.651 Y196.690 E34.31037
G1 X177.300 Y196.690 E34.32049
G1 X185.190 Y188.800 E34.64257
G1 X185.190 Y188.449 E34.65269
G1 X176.949 Y196.690 E34.98908
G1 X176.599 Y196.690 E34.99920
G1 X185.190 Y188.099 E35.34991
G1 X185.190 Y187.748 E35.36003
G1 X176.248 Y196.690 E35.72505
G1 X175.897 Y196.690 E35.73517
G1 X185.190 Y187.397 E36.11451
G1 X185.190 Y187.047 E36.12463
G1 X175.547 Y196.690 E36.51828
G1 X175.196 Y196.690 E36.52840
G1 X185.190 Y186.696 E36.93636
G1 X185.190 Y186.345 E36.94648
G1 X174.845 Y196.690 E37.36876
G1 X174.495 Y196.690 E37.37888
G1 X185.190 Y185.995 E37.81547
G1 X185.190 Y185.644 E37.82560
G1 X174.144 Y196.690 E38.27650
G1 X173.793 Y196.690 E38.28662
G1 X185.190 Y185.293 E38.75185
G1 X185.190 Y184.943 E38.76197
G1 X173.443 Y196.690 E39.24150
G1 X173.092 Y196.690 E39.25162
G1 X185.190 Y184.592 E39.74547
G1 X185.190 Y184.241 E39.75559
G1 X172.741 Y196.690 E40.26376
G1 X172.391 Y196.690 E40.27388
G1 X185.190 Y183.891 E40.79636
G1 X185.190 Y183.540 E40.80648
G1 X172.040 Y196.690 E41.34327
G1 X171.689 Y196.690 E41.35339
G1 X185.190 Y183.189 E41.90450
G1 X185.190 Y182.839 E41.91462
G1 X171.339 Y196.690 E42.48004
G1 X170.988 Y196.690 E42.49016
G1 X185.190 Y182.488 E43.06990
G1 X185.190 Y182.137 E43.08002
G1 X170.637 Y196.690 E43.67407
G1 X170.287 Y196.690 E43.68419
G1 X178.667 Y188.310 E44.02627
G1 X178.316 Y188.310 E44.03639
G1 X169.936 Y196.690 E44.37846
G1 X169.585 Y196.690 E44.38858
G1 X177.965 Y188.310 E44.73066
G1 X177.615 Y188.310 E44.74078
G1 X169.235 Y196.690 E45.08285
G1 X168.884 Y196.690 E45.09297
G1 X177.264 Y188.310 E45.43505
G1 X176.913 Y188.310 E45.44517
G1 X168.533 Y196.690 E45.78724
G1 X168.183 Y196.690 E45.79736
G1 X176.563 Y188.310 E46.13944
G1 X176.212 Y188.310 E46.14956
G1 X167.832 Y196.690 E46.49163
G1 X167.481 Y196.690 E46.50175
G1 X175.861 Y188.310 E46.84383
G1 X175.511 Y188.310 E46.85395
G1 X167.131 Y196.690 E47.19602
G1 X166.780 Y196.690 E47.20615
G1 X175.160 Y188.310 E47.54822
G1 X174.809 Y188.310 E47.55834
G1 X166.429 Y196.690 E47.90041
G1 X166.079 Y196.690 E47.91054
G1 X174.459 Y188.310 E48.25261
G1 X174.108 Y188.310 E48.26273
G1 X165.728 Y196.690 E48.60480
G1 X165.377 Y196.690 E48.61493
G1 X173.757 Y188.310 E48.95700
G1 X173.407 Y188.310 E48.96712
G1 X165.027 Y196.690 E49.30919
G1 X164.676 Y196.690 E49.31932
G1 X173.056 Y188.310 E49.66139
G1 X172.705 Y188.310 E49.67151
G1 X164.325 Y196.690 E50.01359
G1 X163.975 Y196.690 E50.02371
G1 X172.355 Y188.310 E50.36578
G1 X172.004 Y188.310 E50.37590
G1 X163.624 Y196.690 E50.71798
G1 X163.273 Y196.690 E50.72810
G1 X171.653 Y188.310 E51.07017
G1 X171.303 Y188.310 E51.08029
G1 X162.923 Y196.690 E51.42237
G1 X162.572 Y196.690 E51.43249
G1 X170.952 Y188.310 E51.77456
G1 X170.601 Y188.310 E51.78468
G1 X162.221 Y196.690 E52.12676
G1 X161.871 Y196.690 E52.13688
G1 X170.251 Y188.310 E52.47895
G1 X169.900 Y188.310 E52.48907
G1 X161.520 Y196.690 E52.83115
G1 X161.169 Y196.690 E52.84127
G1 X169.549 Y188.310 E53.18334
G1 X169.199 Y188.310 E53.19346
G1 X160.819 Y196.690 E53.53554
G1 X160.468 Y196.690 E53.54566
G1 X168.848 Y188.310 E53.88773
G1 X168.497 Y188.310 E53.89785
G1 X160.117 Y196.690 E54.23993
G1 X159.767 Y196.690 E54.25005
G1 X168.147 Y188.310 E54.59212
G1 X167.796 Y188.310 E54.60225
G1 X159.416 Y196.690 E54.94432
G1 X159.065 Y196.690 E54.95444
G1 X167.445 Y188.310 E55.29651
G1 X167.095 Y188.310 E55.30664
G1 X158.715 Y196.690 E55.64871
G1 X158.364 Y196.690 E55.65883
G1 X166.744 Y188.310 E56.00090
G1 X166.393 Y188.310 E56.01103
G1 X158.013 Y196.690 E56.35310
G1 X157.663 Y196.690 E56.36322
G1 X166.043 Y188.310 E56.70530
G1 X165.692 Y188.310 E56.71542
G1 X157.312 Y196.690 E57.05749
G1 X156.961 Y196.690 E57.06761
G1 X165.341 Y188.310 E57.40969
G1 X164.991 Y188.310 E57.41981
G1 X156.611 Y196.690 E57.76188
G1 X156.260 Y196.690 E57.77200
G1 X164.640 Y188.310 E58.11408
G1 X164.289 Y188.310 E58.12420
G1 X155.909 Y196.690 E58.46627
G1 X155.559 Y196.690 E58.47639
G1 X163.939 Y188.310 E58.81847
G1 X163.588 Y188.310 E58.82859
G1 X155.208 Y196.690 E59.17066
G1 X154.857 Y196.690 E59.18078
G1 X163.237 Y188.310 E59.52286
G1 X162.887 Y188.310 E59.53298
G1 X154.507 Y196.690 E59.87505
G1 X154.156 Y196.690 E59.88517
G1 X162.536 Y188.310 E60.22725
G1 X162.185 Y188.310 E60.23737
G1 X153.806 Y196.690 E60.57944
G1 X153.455 Y196.690 E60.58956
G1 X161.835 Y188.310 E60.93164
G1 X161.484 Y188.310 E60.94176
G1 X153.104 Y196.690 E61.28383
G1 X152.754 Y196.690 E61.29396
G1 X161.133 Y188.310 E61.63603
G1 X160.783 Y188.310 E61.64615
G1 X152.403 Y196.690 E61.98822
G1 X152.052 Y196.690 E61.99835
G1 X160.432 Y188.310 E62.34042
G1 X160.081 Y188.310 E62.35054
G1 X151.702 Y196.690 E62.69261
G1 X151.351 Y196.690 E62.70274
G1 X159.731 Y188.310 E63.04481
G1 X159.380 Y188.310 E63.05493
G1 X151.000 Y196.690 E63.39701
G1 X150.650 Y196.690 E63.40713
G1 X159.029 Y188.310 E63.74920
G1 X158.679 Y188.310 E63.75932
G1 X150.299 Y196.690 E64.10140
G1 X149.948 Y196.690 E64.11152
G1 X158.328 Y188.310 E64.45359
G1 X157.977 Y188.310 E64.46371
G1 X149.598 Y196.690 E64.80579
G1 X149.247 Y196.690 E64.81591
G1 X157.627 Y188.310 E65.15798
G1 X157.276 Y188.310 E65.16810
G1 X148.896 Y196.690 E65.51018
G1 X148.546 Y196.690 E65.52030
G1 X156.925 Y188.310 E65.86237
G1 X156.575 Y188.310 E65.87249
G1 X148.195 Y196.690 E66.21457
G1 X147.844 Y196.690 E66.22469
G1 X156.224 Y188.310 E66.56676
G1 X155.873 Y188.310 E66.57688
G1 X147.494 Y196.690 E66.91896
G1 X147.143 Y196.690 E66.92908
G1 X155.523 Y188.310 E67.27115
G1 X155.172 Y188.310 E67.28128
G1 X146.792 Y196.690 E67.62335
G1 X146.442 Y196.690 E67.63347
G1 X154.821 Y188.310 E67.97554
G1 X154.471 Y188.310 E67.98567
G1 X146.091 Y196.690 E68.32774
G1 X145.740 Y196.690 E68.33786
G1 X154.120 Y188.310 E68.67993
G1 X153.769 Y188.310 E68.69006
G1 X145.390 Y196.690 E69.03213
G1 X145.039 Y196.690 E69.04225
G1 X153.419 Y188.310 E69.38432
G1 X153.068 Y188.310 E69.39445
G1 X144.688 Y196.690 E69.73652
G1 X144.338 Y196.690 E69.74664
G1 X152.717 Y188.310 E70.08872
G1 X152.367 Y188.310 E70.09884
G1 X143.987 Y196.690 E70.44091
G1 X143.636 Y196.690 E70.45103
G1 X152.016 Y188.310 E70.79311
G1 X151.666 Y188.310 E70.80323
G1 X143.286 Y196.690 E71.14530
G1 X142.935 Y196.690 E71.15542
G1 X151.315 Y188.310 E71.49750
G1 X150.964 Y188.310 E71.50762
G1 X142.584 Y196.690 E71.84969
G1 X142.234 Y196.690 E71.85981
G1 X150.614 Y188.310 E72.20189
G1 X150.263 Y188.310 E72.21201
G1 X141.883 Y196.690 E72.55408
G1 X141.532 Y196.690 E72.56420
G1 X149.912 Y188.310 E72.90628
G1 X149.562 Y188.310 E72.91640
G1 X141.182 Y196.690 E73.25847
G1 X140.831 Y196.690 E73.26859
G1 X149.211 Y188.310 E73.61067
G1 X148.860 Y188.310 E73.62079
G1 X140.480 Y196.690 E73.96286
G1 X140.130 Y196.690 E73.97298
G1 X148.510 Y188.310 E74.31506
G1 X148.159 Y188.310 E74.32518
G1 X139.779 Y196.690 E74.66725
G1 X139.428 Y196.690 E74.67737
G1 X147.808 Y188.310 E75.01945
G1 X147.458 Y188.310 E75.02957
G1 X139.078 Y196.690 E75.37164
G1 X138.727 Y196.690 E75.38176
G1 X147.107 Y188.310 E75.72384
G1 X146.756 Y188.310 E75.73396
G1 X138.376 Y196.690 E76.07603
G1 X138.026 Y196.690 E76.08616
G1 X146.406 Y188.310 E76.42823
G1 X146.055 Y188.310 E76.43835
G1 X137.675 Y196.690 E76.78042
G1 X137.324 Y196.690 E76.79055
G1 X145.704 Y188.310 E77.13262
G1 X145.354 Y188.310 E77.14274
G1 X136.974 Y196.690 E77.48481
G1 X136.623 Y196.690 E77.49494
G1 X145.003 Y188.310 E77.83701
G1 X144.652 Y188.310 E77.84713
G1 X136.272 Y196.690 E78.18921
G1 X135.922 Y196.690 E78.19933
G1 X144.302 Y188.310 E78.54140
G1 X143.951 Y188.310 E78.55152
G1 X135.571 Y196.690 E78.89360
G1 X135.220 Y196.690 E78.90372
G1 X143.600 Y188.310 E79.24579
G1 X143.250 Y188.310 E79.25591
G1 X134.870 Y196.690 E79.59799
G1 X134.519 Y196.690 E79.60811
G1 X142.899 Y188.310 E79.95018
G1 X142.548 Y188.310 E79.96030
G1 X134.168 Y196.690 E80.30238
G1 X133.818 Y196.690 E80.31250
G1 X142.198 Y188.310 E80.65457
G1 X141.847 Y188.310 E80.66469
G1 X133.467 Y196.690 E81.00677
G1 X133.116 Y196.690 E81.01689
G1 X141.496 Y188.310 E81.35896
G1 X141.146 Y188.310 E81.36908
G1 X132.766 Y196.690 E81.71116
G1 X132.415 Y196.690 E81.72128
G1 X140.795 Y188.310 E82.06335
G1 X140.444 Y188.310 E82.07347
G1 X132.064 Y196.690 E82.41555
G1 X131.714 Y196.690 E82.42567
G1 X140.094 Y188.310 E82.76774
G1 X139.743 Y188.310 E82.77787
G1 X131.363 Y196.690 E83.11994
G1 X131.012 Y196.690 E83.13006
G1 X139.392 Y188.310 E83.47213
G1 X139.042 Y188.310 E83.48226
G1 X130.662 Y196.690 E83.82433
G1 X130.311 Y196.690 E83.83445
G1 X138.691 Y188.310 E84.17652
G1 X138.340 Y188.310 E84.18665
G1 X129.960 Y196.690 E84.52872
G1 X129.610 Y196.690 E84.53884
G1 X137.990 Y188.310 E84.88092
G1 X137.639 Y188.310 E84.89104
G1 X129.259 Y196.690 E85.23311
G1 X128.908 Y196.690 E85.24323
G1 X137.288 Y188.310 E85.58531
G1 X136.938 Y188.310 E85.59543
G1 X128.558 Y196.690 E85.93750
G1 X128.207 Y196.690 E85.94762
G1 X136.587 Y188.310 E86.28970
G1 X136.236 Y188.310 E86.29982
G1 X127.856 Y196.690 E86.64189
G1 X127.506 Y196.690 E86.65201
G1 X135.886 Y188.310 E86.99409
G1 X135.535 Y188.310 E87.00421
G1 X127.155 Y196.690 E87.34628
G1 X126.804 Y196.690 E87.35640
G1 X135.184 Y188.310 E87.69848
G1 X134.834 Y188.310 E87.70860
G1 X126.454 Y196.690 E88.05067
G1 X126.103 Y196.690 E88.06079
G1 X134.483 Y188.310 E88.40287
G1 X134.132 Y188.310 E88.41299
G1 X125.752 Y196.690 E88.75506
G1 X125.402 Y196.690 E88.76518
G1 X133.782 Y188.310 E89.10726
G1 X133.431 Y188.310 E89.11738
G1 X125.051 Y196.690 E89.45945
G1 X124.700 Y196.690 E89.46958
G1 X133.080 Y188.310 E89.81165
G1 X132.730 Y188.310 E89.82177
G1 X124.350 Y196.690 E90.16384
G1 X123.999 Y196.690 E90.17397
G1 X132.379 Y188.310 E90.51604
G1 X132.028 Y188.310 E90.52616
G1 X123.649 Y196.690 E90.86823
G1 X123.298 Y196.690 E90.87836
G1 X131.678 Y188.310 E91.22043
G1 X131.327 Y188.310 E91.23055
G1 X122.947 Y196.690 E91.57263
G1 X122.597 Y196.690 E91.58275
G1 X130.976 Y188.310 E91.92482
G1 X130.626 Y188.310 E91.93494
G1 X122.246 Y196.690 E92.27702
G1 X121.895 Y196.690 E92.28714
G1 X130.275 Y188.310 E92.62921
G1 X129.924 Y188.310 E92.63933
G1 X121.545 Y196.690 E92.98141
G1 X121.194 Y196.690 E92.99153
G1 X129.574 Y188.310 E93.33360
G1 X129.223 Y188.310 E93.34372
G1 X120.843 Y196.690 E93.68580
G1 X120.493 Y196.690 E93.69592
G1 X128.872 Y188.310 E94.03799
G1 X128.522 Y188.310 E94.04811
G1 X120.142 Y196.690 E94.39019
G1 X119.791 Y196.690 E94.40031
G1 X128.171 Y188.310 E94.74238
G1 X127.820 Y188.310 E94.75250
G1 X119.441 Y196.690 E95.09458
G1 X119.090 Y196.690 E95.10470
G1 X127.470 Y188.310 E95.44677
G1 X127.119 Y188.310 E95.45689
G1 X118.739 Y196.690 E95.79897
G1 X118.389 Y196.690 E95.80909
G1 X126.768 Y188.310 E96.15116
G1 X126.418 Y188.310 E96.16129
G1 X118.038 Y196.690 E96.50336
G1 X117.687 Y196.690 E96.51348
G1 X126.067 Y188.310 E96.85555
G1 X125.716 Y188.310 E96.86568
G1 X117.337 Y196.690 E97.20775
G1 X116.986 Y196.690 E97.21787
G1 X125.366 Y188.310 E97.55994
G1 X125.015 Y188.310 E97.57007
G1 X116.635 Y196.690 E97.91214
G1 X116.285 Y196.690 E97.92226
G1 X124.664 Y188.310 E98.26434
G1 X124.314 Y188.310 E98.27446
G1 X115.934 Y196.690 E98.61653
G1 X115.583 Y196.690 E98.62665
G1 X123.963 Y188.310 E98.96873
G1 X123.612 Y188.310 E98.97885
G1 X115.233 Y196.690 E99.32092
G1 X114.882 Y196.690 E99.33104
G1 X123.262 Y188.310 E99.67312
G1 X122.911 Y188.310 E99.68324
G1 X114.810 Y196.411 E100.01393
G1 X114.810 Y196.060 E100.02405
G1 X122.560 Y188.310 E100.34043
G1 X122.210 Y188.310 E100.35055
G1 X114.810 Y195.710 E100.65262
G1 X114.810 Y195.359 E100.66274
G1 X121.859 Y188.310 E100.95049
G1 X121.509 Y188.310 E100.96061
G1 X114.810 Y195.009 E101.23405
G1 X114.810 Y194.658 E101.24417
